inbarajaldrin/isaac-sim-mcp/docs/notes/2026-04-24-no-collision-baseline/motion_csv/20260424T071012_grasp_home.csv
t_wall,t_sim_ns,ref_pos_shoulder_pan,ref_vel_shoulder_pan,fb_pos_shoulder_pan,err_pos_shoulder_pan,js_pos_shoulder_pan,js_vel_shoulder_pan,isaac_pos_shoulder_pan,isaac_vel_shoulder_pan,isaac_lag_shoulder_pan,ref_pos_shoulder_lift,ref_vel_shoulder_lift,fb_pos_shoulder_lift,err_pos_shoulder_lift,js_pos_shoulder_lift,js_vel_shoulder_lift,isaac_pos_shoulder_lift,isaac_vel_shoulder_lift,isaac_lag_shoulder_lift,ref_pos_elbow_flex,ref_vel_elbow_flex,fb_pos_elbow_flex,err_pos_elbow_flex,js_pos_elbow_flex,js_vel_elbow_flex,isaac_pos_elbow_flex,isaac_vel_elbow_flex,isaac_lag_elbow_flex,ref_pos_wrist_flex,ref_vel_wrist_flex,fb_pos_wrist_flex,err_pos_wrist_flex,js_pos_wrist_flex,js_vel_wrist_flex,isaac_pos_wrist_flex,isaac_vel_wrist_flex,isaac_lag_wrist_flex,ref_pos_wrist_roll,ref_vel_wrist_roll,fb_pos_wrist_roll,err_pos_wrist_roll,js_pos_wrist_roll,js_vel_wrist_roll,isaac_pos_wrist_roll,isaac_vel_wrist_roll,isaac_lag_wrist_roll,tcp_x,tcp_y,tcp_z,cup_red_x,cup_red_y,cup_red_z,cup_green_x,cup_green_y,cup_green_z,cup_blue_x,cup_blue_y,cup_blue_z,contact_cup_red_hit,contact_cup_red_impulse_n,contact_cup_green_hit,contact_cup_green_impulse_n,contact_cup_blue_hit,contact_cup_blue_impulse_n,contact_n_events,contact_events_json,attached_lego_xyz,physics_rate_hz,sim_time_s,render_fps,app_dt_ms
1777039812.5957189,1424966740984,1.869652692109091,-0.013602814248277757,1.8697503251061045,-9.763299701348593e-05,1.8697503251061045,0.0,1.8714197874069214,-0.18730932474136353,-0.0017670952978303678,-0.11003898142903726,0.002131701653924832,-0.11005428152925276,1.5300100215498436e-05,-0.11005428152925276,0.0,-0.10678936541080475,-0.24439971148967743,-0.0032496160182325096,0.07915127807938295,-0.005660100491734777,0.07919190295040744,-4.062487102449164e-05,0.07919190295040744,0.0,0.0800919309258461,0.14303353428840637,-0.0009406528464631497,0.8038065395432259,0.004039481718875574,0.8037775465202089,2.899302301695439e-05,0.8037775465202089,0.0,0.803901731967926,-0.04170705005526543,-9.519242470013012e-05,-1.5806055888606976,0.006823438150436749,-1.5806545634849485,4.897462425090815e-05,-1.5806545634849485,0.0,-1.5806576013565063,0.002039993880316615,5.2012495808773096e-05,-0.040975692319395435,-0.2837430534142429,0.1287123845763164,-0.04914291203022003,-0.2800198793411255,1.862645149230957e-08,0.0388491153717041,-0.28001973032951355,7.450580596923828e-09,0.12684112787246704,-0.2800197899341583,7.450580596923828e-09,0,0.0,0,0.0,0,0.0,0,,,120.0,1425.516666665699,,
1777039812.6947799,1424966740984,1.8625499107401429,-0.12000345300000126,1.8647504145057059,-0.002200503765563022,1.8647504145057059,-0.09999910601195322,1.8714195489883423,-0.18310368061065674,-0.008869638248199418,-0.10892590214152365,0.018805781992442146,-0.10927074383610975,0.00034484169458610936,-0.10927074383610975,0.015670893962530408,-0.10678911209106445,-0.24661031365394592,-0.002136790050459192,0.07619582668636268,-0.04993316757385067,0.07711145136653505,-0.0009156246801723666,0.07711145136653505,-0.04160940367050396,0.08009219169616699,0.14357534050941467,-0.003896365009804309,0.8059157762768427,0.03563613718071319,0.8052623162963524,0.0006534599804903785,0.8052623162963524,0.029695661005656362,0.8039019703865051,-0.041951049119234085,0.0020138058903376166,-1.5770426945593794,0.060196083283852814,-1.5781465103632302,0.0011038158038507717,-1.5781465103632302,0.05016151088429688,-1.580657720565796,0.0018076648702844977,0.0036150260064164996,-0.040975720316009795,-0.28374300621021253,0.12871239374370735,-0.04914291203022003,-0.2800198793411255,1.862645149230957e-08,0.0388491153717041,-0.28001973032951355,7.450580596923828e-09,0.12684112787246704,-0.2800197899341583,7.450580596923828e-09,0,0.0,0,0.0,0,0.0,0,,,120.0,1425.5333333323656,,
1777039812.79223,1424983407652,1.8455489085053738,-0.22000643900000233,1.8497498259029892,-0.004200917397615411,1.8497498259029892,-0.20000249600000103,1.8714195489883423,-0.18521355092525482,-0.0258706404829685,-0.1062616692908233,0.034477283989215284,-0.10691999648702333,0.0006583271962000287,-0.10691999648702333,0.031342459268402706,-0.10678916424512863,-0.24655646085739136,0.0005274949543053326,0.06912174779704863,-0.09154418569866406,0.07086974010172863,-0.0017479923046799933,0.07086974010172863,-0.08322058989382662,0.08009210973978043,0.14393895864486694,-0.010970361942731793,0.8109643814019621,0.06533295038472303,0.8097168800599276,0.0012475013420345515,0.8097168800599276,0.05939259417761218,0.8039018511772156,-0.04223228245973587,0.007062530224746566,-1.5685146587333345,0.11035954044612557,-1.570621921209652,0.0021072624763174286,-1.570621921209652,0.10032517069483333,-1.580657720565796,0.0020379009656608105,0.012143061832461388,-0.04097569351237597,-0.2837430273721104,0.12871241732842104,-0.04914291203022003,-0.2800198793411255,1.862645149230957e-08,0.0388491153717041,-0.28001973032951355,7.450580596923828e-09,0.12684112787246704,-0.2800197899341583,7.450580596923828e-09,0,0.0,0,0.0,0,0.0,0,,,120.0,1425.5499999990323,,
1777039812.8925142,1425000074319,1.818548801453035,-0.3200048165668982,1.824749966005388,-0.006201164552352978,1.824749966005388,-0.3000011970000023,1.8707044124603271,-0.0975583866238594,-0.052155611007292046,-0.10203047331849685,0.050148063796866656,-0.10300225992759388,0.0009717866090970251,-0.10300225992759388,0.047013289761366664,-0.10669152438640594,-0.041194889694452286,0.004661051067909094,0.0578870638254441,-0.13315328626480122,0.06046735448379411,-0.0025802906583500124,0.06046735448379411,-0.12482982503975423,0.07977814972400665,0.019577570259571075,-0.021891085898562555,0.8189823133427298,0.09502839507182428,0.8171408200761333,0.001841493266596439,0.8171408200761333,0.08908813491117094,0.8041110038757324,-0.022798694670200348,0.014871309466997329,-1.5549708760157195,0.16052068592805022,-1.5580815016562193,0.003110625640499798,-1.5580815016562193,0.1504864784171463,-1.5802973508834839,0.016468515619635582,0.025326474867764404,-0.040785426465549654,-0.2838113544200285,0.12872540689967332,-0.04914291203022003,-0.2800198793411255,1.862645149230957e-08,0.0388491153717041,-0.28001973032951355,7.450580596923828e-09,0.12684112787246704,-0.2800197899341583,7.450580596923828e-09,0,0.0,0,0.0,0,0.0,0,,,120.0,1425.566666665699,,
1777039812.991815,1425016740987,1.7897495758421367,-0.4000016428443443,1.7975499845372798,-0.007800408695143091,1.7897495758421367,-0.4000016428443443,1.8629443645477295,-0.3307170569896698,-0.07319478870559282,-0.09751733686408422,0.06268439368948174,-0.09873974156749561,0.001222404703411395,-0.09751733686408422,0.06268439368948174,-0.10537293553352356,-0.40839314460754395,0.007855598669439343,0.04590377065782109,-0.16643978621149808,0.049149503216192415,-0.0032457325583713226,0.04590377065782109,-0.16643978621149808,0.07642047107219696,0.0037461966276168823,-0.030516700414375868,0.8275345102080007,0.11878419379242272,0.8252181065764681,0.0023164036315326264,0.8275345102080007,0.11878419379242272,0.8065069913864136,-0.030191615223884583,0.021027518821587154,-1.5405246201785308,0.20064866138756726,-1.5444374580154634,0.003912837836932637,-1.5405246201785308,0.20064866138756726,-1.5762569904327393,0.12086065858602524,0.0357323702542085,-0.03857082948925293,-0.28450534369731534,0.1289363481227005,-0.04914291203022003,-0.2800198793411255,1.862645149230957e-08,0.0388491153717041,-0.28001973032951355,7.450580596923828e-09,0.12684112787246704,-0.2800197899341583,7.450580596923828e-09,0,0.0,0,0.0,0,0.0,0,,,120.0,1425.5833333323656,,
1777039813.0923588,1425033407654,1.7345527259710767,-0.5199951989314395,1.7447518400538873,-0.0101991140828106,1.7447518400538873,-0.49999678584434476,1.8454023599624634,-0.8874121904373169,-0.1108496339913867,-0.08886741972091101,0.0814886247333304,-0.09046572636261536,0.00159830664170435,-0.09046572636261536,0.078354666607057,-0.10277628153562546,-0.23605985939502716,0.013908861814714443,0.022936485256789974,-0.21636883570208773,0.02718031374563984,-0.004243828488849865,0.02718031374563984,-0.208047540881609,0.06908904761075974,-0.22945255041122437,-0.046152562353969764,0.8439257261669978,0.15441739199315463,0.8408970047469818,0.0030287214200159784,0.8408970047469818,0.14847867794485528,0.8116611242294312,0.1357351392507553,0.03226460193756664,-1.5128367987968856,0.2608397801859877,-1.5179528742547326,0.00511607545784698,-1.5179528742547326,0.2508081843474418,-1.5675066709518433,0.21153253316879272,0.054669872154957666,-0.033112047589551434,-0.28606121768535786,0.1293921604039963,-0.04914291203022003,-0.2800198793411255,1.862645149230957e-08,0.0388491153717041,-0.28001973032951355,7.450580596923828e-09,0.12684112787246704,-0.2800197899341583,7.450580596923828e-09,0,0.0,0,0.0,0,0.0,0,,,120.0,1425.5999999990322,,
1777039813.1913674,1425050074322,1.6774989055758114,-0.6200816923381849,1.6897024390632607,-0.012203533487449292,1.6897024390632607,-0.6000794815092256,1.817982792854309,-0.9725013375282288,-0.1404838872784977,-0.07992649609441108,0.09717321320425672,-0.08183891598371568,0.0019124198893046007,-0.08183891598371568,0.09403865993255922,-0.09858425706624985,-0.36251699924468994,0.01865776097183877,-0.0008034814133779419,-0.25801460107150304,0.00427438149296592,-0.005077862906343862,0.00427438149296592,-0.24969172601915493,0.05765689164400101,-0.17481455206871033,-0.05846037305737895,0.8608683867276856,0.1841390034952774,0.8572444343948459,0.0036239523328397416,0.8572444343948459,0.1781991616724082,0.8197476863861084,0.15919440984725952,0.04112070034157722,-1.4842174846161904,0.3110451262996615,-1.4903390161205194,0.006121531504329036,-1.4903390161205194,0.3010116254393118,-1.5538029670715332,0.37296372652053833,0.0695854824553428,-0.025028789041805204,-0.28819499117491476,0.1300951463181616,-0.04914291203022003,-0.2800198793411255,1.862645149230957e-08,0.0388491153717041,-0.28001973032951355,7.450580596923828e-09,0.12684112787246704,-0.2800197899341583,7.450580596923828e-09,0,0.0,0,0.0,0,0.0,0,,,120.0,1425.6166666656989,,
1777039813.294298,1425066740989,1.6107404323926888,-0.69293312967107,1.6247487698932945,-0.014008337500605705,1.6247487698932945,-0.7000016459023938,1.7872883081436157,-0.6462191343307495,-0.1765478757509269,-0.06946475302415073,0.1085897867616731,-0.07166000436506786,0.002195251340917137,-0.07166000436506786,0.10969749634779848,-0.09404445439577103,-0.3063717186450958,0.0245797013716203,-0.02858153233685573,-0.28832792070855967,-0.022752694529590455,-0.005828837807265275,-0.022752694529590455,-0.29126911445468456,0.04502343013882637,-0.2673548460006714,-0.0736049624756821,0.8806929338457486,0.20577291276793222,0.8765330282399881,0.004159905605760517,0.8765330282399881,0.20787197415147035,0.8287115097045898,0.18685917556285858,0.051981424141158805,-1.4507301264513042,0.34758883466311963,-1.4577569830106296,0.007026856559325445,-1.4577569830106296,0.3511345409000384,-1.5386265516281128,0.43147537112236023,0.08789642517680862,-0.016049321195540936,-0.2902882710265087,0.13090635543514978,-0.04914291203022003,-0.2800198793411255,1.862645149230957e-08,0.0388491153717041,-0.28001973032951355,7.450580596923828e-09,0.12684112787246704,-0.2800197899341583,7.450580596923828e-09,0,0.0,0,0.0,0,0.0,0,,,120.0,1425.6333333323655,,
1777039813.3893383,1425083407657,1.547911068795006,-0.5802870986895151,1.5597204263161306,-0.011809357521124664,1.5597204263161306,-0.6002931216894428,1.738319993019104,-2.1619255542755127,-0.19040892422409805,-0.05961874205526748,0.09093698887965683,-0.06146939049463418,0.0018506484393666991,-0.06146939049463418,0.09407213955796644,-0.08546795696020126,-0.6789001822471619,0.025849214904933783,-0.05472468957651766,-0.24145615993071654,-0.04981084240545501,-0.004913847171062649,-0.04981084240545501,-0.24978062121885689,0.023011166602373123,-0.34661155939102173,-0.07773585617889078,0.8993506954698578,0.17232163022090488,0.895843797342194,0.0035068981276638045,0.895843797342194,0.17826260410326644,0.8444408774375916,0.3106728792190552,0.054909818032266244,-1.419213686638547,0.2910833784196098,-1.4251374917549746,0.0059238051164276495,-1.4251374917549746,0.3011187915396194,-1.5120826959609985,0.7009092569351196,0.09286900932245157,-0.0021591839092504634,-0.29296534973826305,0.13221531276208032,-0.04914291203022003,-0.2800198793411255,1.862645149230957e-08,0.0388491153717041,-0.28001973032951355,7.450580596923828e-09,0.12684112787246704,-0.2800197899341583,7.450580596923828e-09,0,0.0,0,0.0,0,0.0,0,,,120.0,1425.6499999990322,,
1777039813.4878073,1425100074324,1.5046895607418638,-0.5002900166894415,1.5148968116481079,-0.01020725090624408,1.5046895607418638,-0.5002900166894415,1.686183214187622,-1.69810950756073,-0.1814936534457583,-0.05284548480714522,0.0784006189126623,-0.054445066573221394,0.0015995817660761774,-0.05284548480714522,0.0784006189126623,-0.07865218818187714,-0.18586647510528564,0.02580670337473192,-0.07270906211296468,-0.20816955357840897,-0.06846184791013828,-0.004247214202826408,-0.07270906211296468,-0.20816955357840897,0.002701364690437913,-0.5179535746574402,-0.0754104268034026,0.9121857227264408,0.14856575556110393,0.9091545850013211,0.003031137725119759,0.9121857227264408,0.14856575556110393,0.8586735129356384,0.419842004776001,0.0535122097908024,-1.397532931348775,0.2509552746846168,-1.4026530883966848,0.005120157047909801,-1.397532931348775,0.2509552746846168,-1.4878920316696167,0.695931613445282,0.09035910032084171,0.014899014463739185,-0.2950816716505031,0.13352913553682585,-0.04914291203022003,-0.2800198793411255,1.862645149230957e-08,0.0388491153717041,-0.28001973032951355,7.450580596923828e-09,0.12684112787246704,-0.2800197899341583,7.450580596923828e-09,0,0.0,0,0.0,0,0.0,0,,,120.0,1425.6666666656988,,
1777039813.5872896,1425116740992,1.4518689357946537,-0.37832225495535887,1.4596606183158531,-0.007791682521199439,1.4596606183158531,-0.4002901645087425,1.6234604120254517,-2.739478349685669,-0.17159147623079796,-0.044564807548517785,0.059646753864548485,-0.045788983902844006,0.0012241763543262216,-0.045788983902844006,0.06272960805058998,-0.06807519495487213,-0.5317860841751099,0.023510387406354347,-0.09469939932918632,-0.15877059610760377,-0.09144550403710845,-0.0032538952920778685,-0.09144550403710845,-0.16655983955204556,-0.023704206570982933,-0.369477242231369,-0.07099519275820339,0.9278678517438312,0.11195150931371944,0.925557484365631,0.0023103673782002287,0.925557484365631,0.1188698729377635,0.877536416053772,0.45713627338409424,0.05033143569005927,-1.3710223028031014,0.19146628417529593,-1.3749455315640373,0.003923228760935871,-1.3749455315640373,0.20079338966187096,-1.4560335874557495,0.8857972621917725,0.08501128465264807,0.03258470054480106,-0.2964519875348173,0.134970250418258,-0.04914291203022003,-0.2800198793411255,1.862645149230957e-08,0.0388491153717041,-0.28001973032951355,7.450580596923828e-09,0.12684112787246704,-0.2800197899341583,7.450580596923828e-09,0,0.0,0,0.0,0,0.0,0,,,120.0,1425.6833333323655,,
1777039813.683329,1425133407659,1.4155857925659068,-0.3730300807181786,1.422992468149902,-0.007406675583995215,1.422992468149902,-0.36731495164435346,1.5599664449691772,-2.3051633834838867,-0.14438065240327047,-0.039469856640608876,0.04140354485538285,-0.0403378109740828,0.0008679543334739262,-0.0403378109740828,0.04536818642957506,-0.05875488370656967,-0.585538387298584,0.019285027065960796,-0.1075763824604442,-0.09114487819059339,-0.1055943325060857,-0.0019820499543584946,-0.1055943325060857,-0.1070267565134658,-0.049775343388319016,-0.3438451886177063,-0.05780103907212518,0.9392910324135093,0.12949021370347044,0.9367702847135482,0.0025207476999611345,0.9367702847135482,0.12245932333556009,0.8960437774658203,0.41159385442733765,0.043247254947688996,-1.3556023107897495,0.1068875475959606,-1.3579404011008442,0.002338090311094776,-1.3579404011008442,0.12688597290943895,-1.4247162342071533,0.8862020373344421,0.06911392341740386,0.05229898874557699,-0.29651845034945984,0.13658479381447047,-0.04914291203022003,-0.2800198793411255,1.862645149230957e-08,0.0388491153717041,-0.28001973032951355,7.450580596923828e-09,0.12684112787246704,-0.2800197899341583,7.450580596923828e-09,0,0.0,0,0.0,0,0.0,0,,,120.0,1425.6999999990321,,
1777039813.783176,1425150074327,1.385157230746355,-0.3836917831844919,1.392859123304391,-0.007701892558035883,1.385157230746355,-0.3836917831844919,1.5050684213638306,-1.8294014930725098,-0.11991119061747546,-0.036807870389664495,0.02491564715727556,-0.03735100902844183,0.0005431386387773351,-0.036807870389664495,0.02491564715727556,-0.05033063888549805,-0.46297571063041687,0.013522768495833552,-0.11232360917654605,-0.027359231703039798,-0.11161285938496518,-0.0007107497915808669,-0.11232360917654605,-0.027359231703039798,-0.07231124490499496,-0.3064003586769104,-0.04001236427155108,0.9506387655736237,0.1525839539012945,0.9476231220619336,0.003015643511690147,0.9506387655736237,0.1525839539012945,0.9121878743171692,0.3924410939216614,0.03845089125645451,-1.3502487655349462,0.02680753116086569,-1.3509891889767285,0.0007404234417822675,-1.3502487655349462,0.02680753116086569,-1.3974652290344238,0.7303612232208252,0.04721646349947761,0.06797133698968828,-0.29574453405929885,0.1379554141924888,-0.04914291203022003,-0.2800198793411255,1.862645149230957e-08,0.0388491153717041,-0.28001973032951355,7.450580596923828e-09,0.12684112787246704,-0.2800197899341583,7.450580596923828e-09,0,0.0,0,0.0,0,0.0,0,,,120.0,1425.7166666656988,,
1777039813.8900342,1425166740994,1.338515544795365,-0.42376395909619713,1.346792086946065,-0.008276542150700061,1.346792086946065,-0.4037608310969259,1.46079421043396,-0.9782729744911194,-0.12227866563859502,-0.03511314400831771,0.010145964225234338,-0.035311305033499614,0.00019816102518190742,-0.035311305033499614,0.009667039539175037,-0.043254051357507706,-0.6152001023292542,0.00814090734919,-0.11063748553140405,0.03504913983647131,-0.11132203096518993,0.000684545433785877,-0.11132203096518993,0.0333946989257613,-0.09082254022359848,-0.2563636004924774,-0.019814945307805573,0.9706508987828504,0.1875837193991525,0.9669871975004113,0.0036637012824390913,0.9669871975004113,0.1787291175171921,0.9254634380340576,0.3141496777534485,0.04518746074879276,-1.3532660043933646,-0.05211905031154615,-1.3522480662051386,-0.0010179381882260419,-1.3522480662051386,-0.04965885044743562,-1.3750675916671753,0.6310638785362244,0.021801587273810652,0.08052002128398357,-0.2944984938161366,0.13903647713695128,-0.04914291203022003,-0.2800198793411255,1.862645149230957e-08,0.0388491153717041,-0.28001973032951355,7.450580596923828e-09,0.12684112787246704,-0.2800197899341583,7.450580596923828e-09,0,0.0,0,0.0,0,0.0,0,,,120.0,1425.7333333323654,,
1777039813.987973,1425183407662,1.3013773861195388,-0.503837484095752,1.3112915320000813,-0.009914145880542513,1.3013773861195388,-0.503837484095752,1.4229204654693604,-0.985538125038147,-0.12154307934982156,-0.0342239640268024,0.01206312377265461,-0.03446133336241625,0.00023736933561384344,-0.0342239640268024,0.01206312377265461,-0.03795499727129936,0.03606581687927246,0.003731033244496959,-0.10756582148646192,0.04167194981043516,-0.10838581166700377,0.0008199901805418519,-0.10756582148646192,0.04167194981043516,-0.10439508408308029,-0.3582180142402649,-0.0031707374033816266,0.9870905081137279,0.22302913499526347,0.982701903752695,0.004388604361032944,0.9870905081137279,0.22302913499526347,0.937347948551178,0.32000932097435,0.049742559562549915,-1.3578336546594039,-0.061967353803363184,-1.3566143063480323,-0.0012193483113716042,-1.3578336546594039,-0.061967353803363184,-1.358755111694336,0.4486313462257385,0.0009214570349320717,0.09152974970675207,-0.29263866933591487,0.13953618325512834,-0.04914291203022003,-0.2800198793411255,1.862645149230957e-08,0.0388491153717041,-0.28001973032951355,7.450580596923828e-09,0.12684112787246704,-0.2800197899341583,7.450580596923828e-09,0,0.0,0,0.0,0,0.0,0,,,120.0,1425.749999999032,,
1777039814.085545,1425200074329,1.2460388978761314,-0.6037623195628196,1.2579158283501366,-0.011876930474005176,1.2460388978761314,-0.6037623195628196,1.3850096464157104,-1.1091349124908447,-0.13897074853957903,-0.032899022842106926,0.014455573116443908,-0.033183386127629985,0.00028436328552305934,-0.032899022842106926,0.014455573116443908,-0.03469490632414818,0.055003128945827484,0.0017958834820412523,-0.10298882438430433,0.049936644002200097,-0.10397115473136648,0.0009823303470621464,-0.10298882438430433,0.049936644002200097,-0.1107001006603241,-0.12478909641504288,0.007711276276019766,1.011586691018863,0.26726194879386567,1.0063292387378562,0.005257452281006714,1.011586691018863,0.26726194879386567,0.9514403343200684,0.394107848405838,0.060146356698794534,-1.3646397772448975,-0.07425718500606311,-1.3631790245696542,-0.0014607526752432598,-1.3646397772448975,-0.07425718500606311,-1.351577639579773,0.17639733850955963,-0.01306213766512454,0.10227904603549744,-0.2894522584236273,0.13865185925124837,-0.04914291203022003,-0.2800198793411255,1.862645149230957e-08,0.0388491153717041,-0.28001973032951355,7.450580596923828e-09,0.12684112787246704,-0.2800197899341583,7.450580596923828e-09,0,0.0,0,0.0,0,0.0,0,,,120.0,1425.7666666656987,,
1777039814.1806474,1425216740997,1.1806630248384995,-0.7037618095628255,1.194540362908848,-0.013877338070348522,1.194540362908848,-0.6837587355638867,1.3459159135818481,-1.6530728340148926,-0.16525288874334865,-0.03133376167537639,0.01684980987561911,-0.031666019699167554,0.0003322580237911654,-0.031666019699167554,0.016370886482463348,-0.03276441991329193,0.32861608266830444,0.0014306582379155428,-0.09758164412075764,0.05820751280392945,-0.09872942639941815,0.0011477822786605113,-0.09872942639941815,0.05655307635953721,-0.10982011258602142,0.03917305916547775,0.012238468465263788,1.0405260313287876,0.31152780923236806,1.0343830768969202,0.006142954431867409,1.0343830768969202,0.30267323125422313,0.9680227637290955,0.47032105922698975,0.07250326759969217,-1.3726804053891042,-0.08655619802631799,-1.3709736210683672,-0.0017067843207370093,-1.3709736210683672,-0.08409600480374828,-1.3531975746154785,-0.07731930166482925,-0.01948283077362567,0.11333360540348075,-0.2847439854026592,0.1361298474371341,-0.04914291203022003,-0.2800198793411255,1.862645149230957e-08,0.0388491153717041,-0.28001973032951355,7.450580596923828e-09,0.12684112787246704,-0.2800197899341583,7.450580596923828e-09,0,0.0,0,0.0,0,0.0,0,,,120.0,1425.7833333323654,,
1777039814.284665,1425233407665,1.1052867993870155,-0.8037617095034933,1.1211631612137616,-0.01587636182674612,1.1052867993870155,-0.8037617095034933,1.3002700805664062,-1.5590062141418457,-0.1949832811793908,-0.029529067173996323,0.01924405644979442,-0.02990918680348206,0.00038011962948573605,-0.029529067173996323,0.01924405644979442,-0.030821872875094414,-0.22247940301895142,0.0012928057010980903,-0.0913473436110374,0.06647841551148623,-0.0926604633651261,0.0013131197540886957,-0.0913473436110374,0.06647841551148623,-0.10624868422746658,0.28301680088043213,0.014901340616429185,1.0738921362580856,0.35579385113555717,1.0668642922471425,0.00702784401094303,1.0738921362580856,0.35579385113555717,0.9884087443351746,0.5605853199958801,0.08548339192291099,-1.3819509844515117,-0.0988552614654871,-1.3799983386848043,-0.0019526457667073949,-1.3819509844515117,-0.0988552614654871,-1.358294129371643,-0.13720043003559113,-0.02365685507986859,0.1255101061933119,-0.2784339981521568,0.13262926840515643,-0.04914291203022003,-0.2800198793411255,1.862645149230957e-08,0.0388491153717041,-0.28001973032951355,7.450580596923828e-09,0.12684112787246704,-0.2800197899341583,7.450580596923828e-09,0,0.0,0,0.0,0,0.0,0,,,120.0,1425.799999999032,,
1777039814.3862362,1425250074332,1.0016341970184048,-0.9237629314747448,1.0199131454257389,-0.018278948407334017,1.0199131454257389,-0.903758825598403,1.244670033454895,-2.925882339477539,-0.24303583643649018,-0.027047365809568534,0.022117184470642343,-0.02748500934350959,0.000437643533941056,-0.02748500934350959,0.021638236371771313,-0.029121840372681618,0.3084850311279297,0.0020744745631130837,-0.0827743291371781,0.07640360975969075,-0.08428616468864573,0.0015118355514676385,-0.08428616468864573,0.07474908796963826,-0.10165251791477203,0.2550341784954071,0.018878188777593938,1.119775086566494,0.40891369548905315,1.1116837115088656,0.008091375057628358,1.1116837115088656,0.4000586607391835,1.0130754709243774,0.6962480545043945,0.1066996156421165,-1.3946992965290512,-0.11361430265130722,-1.3924511548189447,-0.002248141710106566,-1.3924511548189447,-0.11115398251735627,-1.3650367259979248,-0.24389705061912537,-0.02966257053112642,0.14021324622684242,-0.269716380565683,0.12862026381139469,-0.04914291203022003,-0.2800198793411255,1.862645149230957e-08,0.0388491153717041,-0.28001973032951355,7.450580596923828e-09,0.12684112787246704,-0.2800197899341583,7.450580596923828e-09,0,0.0,0,0.0,0,0.0,0,,,120.0,1425.8166666656987,,
1777039814.4943538,1425266741000,0.9042619064161188,-1.023758893137336,0.9245408865103879,-0.020278980094269095,0.9245408865103879,-1.0037551051391707,1.1788067817687988,-3.873120069503784,-0.27454487535268,-0.024716030744909,0.024511336752635306,-0.025201560016911113,0.0004855292720021137,-0.025201560016911113,0.02403239626455698,-0.027297111228108406,1.358077049255371,0.002581080483199407,-0.0747207536589899,0.08467418673577295,-0.07639801005092314,0.0016772563919332378,-0.07639801005092314,0.08301969123714402,-0.09623600542545319,0.16101668775081635,0.02151525176646328,1.1628779886550737,0.453177994070675,1.153901277846969,0.008976710808104693,1.153901277846969,0.44432310003307907,1.0421438217163086,0.728886604309082,0.12073416693876515,-1.4066751883053945,-0.12591288171866855,-1.4041810611831793,-0.002494127122215195,-1.4041810611831793,-0.12345260068089821,-1.3730849027633667,-0.2664087414741516,-0.03359028554202781,0.1565835317331239,-0.25835953449687754,0.12407870070774091,-0.04914291203022003,-0.2800198793411255,1.862645149230957e-08,0.0388491153717041,-0.28001973032951355,7.450580596923828e-09,0.12684112787246704,-0.2800197899341583,7.450580596923828e-09,0,0.0,0,0.0,0,0.0,0,,,120.0,1425.8333333323653,,
1777039814.59169,1425283407667,0.7968994832740736,-1.1216485636802014,0.8191652634134404,-0.022265780139366864,0.8191652634134404,-1.1037552071391281,1.094048023223877,-4.806784629821777,-0.2971485399498034,-0.022145507034830158,0.02685505918119224,-0.02267860524644485,0.0005330982116146937,-0.02267860524644485,0.026426647676536984,-0.025408070534467697,1.1473077535629272,0.0032625634996375392,-0.06584090321131707,0.09277055424829203,-0.06768248606639816,0.0018415828550810975,-0.06768248606639816,0.09129061065683844,-0.08877258747816086,-0.0010976195335388184,0.02293168426684379,1.2104031314247514,0.4965099200097062,1.2005469419961505,0.009856189428600892,1.2005469419961505,0.48858923137999977,1.0816482305526733,1.1160550117492676,0.12875490087207808,-1.4198797740498823,-0.1379524064457962,-1.4171412888852037,-0.0027384851646785613,-1.4171412888852037,-0.13575168897128434,-1.384067416191101,-0.35617345571517944,-0.03581235785878123,0.17499985444245184,-0.24244514354688332,0.11840043423677428,-0.04914291203022003,-0.2800198793411255,1.862645149230957e-08,0.0388491153717041,-0.28001973032951355,7.450580596923828e-09,0.12684112787246704,-0.2800197899341583,7.450580596923828e-09,0,0.0,0,0.0,0,0.0,0,,,120.0,1425.849999999032,,
1777039814.6939254,1425300074335,0.6803277056129838,-1.1663721443689217,0.7038601739817123,-0.023532468368728465,0.7038601739817123,-1.1863763803648553,1.0149270296096802,-3.248854637145996,-0.33459932399669634,-0.019354488449049738,0.02792585305110972,-0.01991791433054707,0.0005634258814973328,-0.01991791433054707,0.028404804265367685,-0.0219934843480587,1.0671316385269165,0.0026389958990089626,-0.05619935524923066,0.09646960179563428,-0.05814570476019904,0.0019463495109683787,-0.05814570476019904,0.09812413434776218,-0.08233126252889633,-0.2508871257305145,0.02613190727966567,1.2620048950038814,0.5163072987871078,1.251587992271842,0.010416902732039324,1.251587992271842,0.5251623911358269,1.1147208213806152,1.1959192752838135,0.14728407362326612,-1.4342170252823432,-0.143452993510819,-1.4313227491728775,-0.0028942761094656877,-1.4313227491728775,-0.14591332964827705,-1.3931856155395508,-0.310573935508728,-0.0410314097427924,0.19221378176900247,-0.22562646549186002,0.11338645477515591,-0.04914291203022003,-0.2800198793411255,1.862645149230957e-08,0.0388491153717041,-0.28001973032951355,7.450580596923828e-09,0.12684112787246704,-0.2800197899341583,7.450580596923828e-09,0,0.0,0,0.0,0,0.0,0,,,120.0,1425.8666666656986,,
1777039814.7878044,1425316741002,0.5686904911765236,-1.066372144368291,0.5902216146984323,-0.02153112352190867,0.5902216146984323,-1.0863755323648012,0.9135926365852356,-4.959441184997559,-0.344902145408712,-0.016681615592441343,0.025531604081249756,-0.017197124295560653,0.0005155087031193106,-0.017197124295560653,0.026010534992290325,-0.021707002073526382,-0.6601159572601318,0.00502538648108504,-0.04696594061887169,0.08819869081220712,-0.04874676067908924,0.0017808200602175556,-0.04874676067908924,0.08985315322705772,-0.07370389997959137,0.26212748885154724,0.026737959360719682,1.3114223205726239,0.4720412125912885,1.301891334875548,0.009530985697075778,1.301891334875548,0.4808959295638521,1.1635164022445679,1.5071964263916016,0.147905918328056,-1.4479473708460946,-0.13115391776520158,-1.445299241655269,-0.0026481291908255766,-1.445299241655269,-0.1336141496065652,-1.4068459272384644,-0.40030035376548767,-0.04110144360763024,0.20744763222960833,-0.205012132759046,0.10747620492526976,-0.04914291203022003,-0.2800198793411255,1.862645149230957e-08,0.0388491153717041,-0.28001973032951355,7.450580596923828e-09,0.12684112787246704,-0.2800197899341583,7.450580596923828e-09,0,0.0,0,0.0,0,0.0,0,,,120.0,1425.8833333323653,,
1777039814.8881702,1425333407670,0.46705216251364884,-0.9663709913676595,0.48658650175809326,-0.01953433924444442,0.48658650175809326,-0.9863780063647591,0.8092842698097229,-5.341715335845947,-0.34223210729607406,-0.014248140955462984,0.023137327505699263,-0.014715841671589102,0.0004677007161261182,-0.014715841671589102,0.023616345256163438,-0.0168310459703207,-0.28762948513031006,0.0025829050148577174,-0.0385595249301753,0.07992768446517647,-0.04017519274027377,0.0016156678100984687,-0.04017519274027377,0.08158244686601761,-0.0655362606048584,0.2539879083633423,0.026976735674683096,1.356413630746238,0.4277746160074987,1.347766543298564,0.008647087447674062,1.347766543298564,0.4366309385113002,1.2041356563568115,1.455303430557251,0.15227797438942647,-1.4604479458748432,-0.11885470021124112,-1.4580454026947796,-0.00240254318006361,-1.4580454026947796,-0.12131537814022487,-1.4180638790130615,-0.12839730083942413,-0.042384066861781644,0.22473100921793082,-0.17939082446685034,0.10206218315613054,-0.04914291203022003,-0.2800198793411255,1.862645149230957e-08,0.0388491153717041,-0.28001973032951355,7.450580596923828e-09,0.12684112787246704,-0.2800197899341583,7.450580596923828e-09,0,0.0,0,0.0,0,0.0,0,,,120.0,1425.899999999032,,
1777039814.9953587,1425350074337,0.37541584917609483,-0.866371898367011,0.39294447754178236,-0.017528628365687526,0.39294447754178236,-0.8863732413646911,0.7001898288726807,-4.131278991699219,-0.32477397969658583,-0.012054139467374837,0.02074310025167708,-0.012473818471448234,0.00041967900407339706,-0.012473818471448234,0.02122198220035417,-0.015607347711920738,0.7133557796478271,0.0035532082445459013,-0.030980367025579728,0.07165684849891073,-0.032430144274312345,0.0014497772487326172,-0.032430144274312345,0.07331114177372822,-0.05669543892145157,-0.17511871457099915,0.02571507189587184,1.3969774401946544,0.38350893130507185,1.389218202453403,0.0077592377412514235,1.389218202453403,0.39236274303669166,1.2536537647247314,1.6573810577392578,0.14332367546992297,-1.47171836546265,-0.10655573601823691,-1.4695625061827997,-0.002155859279850292,-1.4695625061827997,-0.10901571634364714,-1.4318236112594604,-0.3799325227737427,-0.03989475420318955,0.23685607452974783,-0.15290704065199534,0.09678942066363275,-0.04914291203022003,-0.2800198793411255,1.862645149230957e-08,0.0388491153717041,-0.28001973032951355,7.450580596923828e-09,0.12684112787246704,-0.2800197899341583,7.450580596923828e-09,0,0.0,0,0.0,0,0.0,0,,,120.0,1425.9166666656986,,
1777039815.0940597,1425366741005,0.29378074004303495,-0.766374613366379,0.3093078399095447,-0.015527099866509741,0.3093078399095447,-0.7863741143646389,0.5800521373748779,-8.505635261535645,-0.286271397331843,-0.010099591707924866,0.018348916285676628,-0.01047134913652555,0.00037175742860068306,-0.01047134913652555,0.018827754132301575,-0.012672842480242252,-0.07163017988204956,0.0025732507723173863,-0.02422839981800341,0.06338616207071662,-0.025512632426262154,0.0012842326082587452,-0.025512632426262154,0.06504030299540185,-0.046068303287029266,0.9171561598777771,0.021839903469025857,1.4331141079693175,0.3392440469334938,1.4262408685587407,0.006873239410576826,1.4262408685587407,0.3480970432840612,1.3103866577148438,1.6809282302856445,0.12272745025447374,-1.4817587293698797,-0.09425699419252316,-1.479849039596212,-0.0019096897736676777,-1.479849039596212,-0.09671674796902975,-1.4476341009140015,-0.6034260988235474,-0.03412462845587827,0.2449238637331069,-0.12385038464246638,0.09097375192789683,-0.04914291203022003,-0.2800198793411255,1.862645149230957e-08,0.0388491153717041,-0.28001973032951355,7.450580596923828e-09,0.12684112787246704,-0.2800197899341583,7.450580596923828e-09,0,0.0,0,0.0,0,0.0,0,,,120.0,1425.9333333323652,,
1777039815.2060237,1425383407672,0.22214064720103735,-0.6663706643657418,0.23568503062228904,-0.013544383421251693,0.22214064720103735,-0.6663706643657418,0.46201393008232117,-5.836935520172119,-0.23987328288128382,-0.008384349523059475,0.015954572766924788,-0.008708635783594635,0.00032428626053515944,-0.008384349523059475,0.015954572766924788,-0.009267822839319706,0.04867284744977951,0.0008834733162602307,-0.018303111510634674,0.05511492446901435,-0.019423355406653457,0.0011202438960187834,-0.018303111510634674,0.05511492446901435,-0.03724874183535576,0.1731085479259491,0.018945630324721085,1.4648263732173203,0.29497621266992885,1.458830804777414,0.005995568439906451,1.4648263732173203,0.29497621266992885,1.3566972017288208,1.4645739793777466,0.10812917148849954,-1.4905697986526925,-0.08195743275640327,-1.4889039646764444,-0.0016658339762480878,-1.4905697986526925,-0.08195743275640327,-1.4604490995407104,-0.09494996070861816,-0.030120699111982008,0.25087020274186084,-0.09409817454819676,0.0867947260864258,-0.04914291203022003,-0.2800198793411255,1.862645149230957e-08,0.0388491153717041,-0.28001973032951355,7.450580596923828e-09,0.12684112787246704,-0.2800197899341583,7.450580596923828e-09,0,0.0,0,0.0,0,0.0,0,,,120.0,1425.949999999032,,
1777039815.3028731,1425400074340,0.1605063356033346,-0.5663755283651113,0.17203672528653285,-0.01153038968319825,0.1605063356033346,-0.5663755283651113,0.35863611102104187,-3.5762667655944824,-0.19812977541770727,-0.006908670652560536,0.013560440253334773,-0.007184736888769606,0.0002760662362090698,-0.006908670652560536,0.013560440253334773,-0.008327620103955269,0.552681565284729,0.0014189494513947324,-0.013205392463172764,0.046844415782697636,-0.014159060729906282,0.0009536682667335185,-0.013205392463172764,0.046844415782697636,-0.029775800183415413,-0.10124096274375916,0.01657040772024265,1.4921094707151867,0.25071227957654446,1.4870054184793422,0.005104052235844536,1.4921094707151867,0.25071227957654446,1.3974335193634033,1.187880039215088,0.09467595135178342,-1.4981502493213363,-0.0696589552378314,-1.4967321179604456,-0.0014181313608907509,-1.4981502493213363,-0.0696589552378314,-1.4717265367507935,-0.23434479534626007,-0.02642371257054288,0.25221782294998957,-0.07048382429266559,0.08413569810888444,-0.04914291203022003,-0.2800198793411255,1.862645149230957e-08,0.0388491153717041,-0.28001973032951355,7.450580596923828e-09,0.12684112787246704,-0.2800197899341583,7.450580596923828e-09,0,0.0,0,0.0,0,0.0,0,,,120.0,1425.9666666656985,,
1777039815.4032555,1425416741007,0.09974049997143275,-0.44637379836453706,0.10886816155557584,-0.00912766158414309,0.10886816155557584,-0.4663741963646537,0.2779467701911926,-3.58534574508667,-0.17820627021975988,-0.005453785258926135,0.010687300069000047,-0.0056723242023754,0.00021853894344926478,-0.0056723242023754,0.01116615939208272,-0.006396321579813957,1.562417984008789,0.0009425363208878223,-0.008179504289754256,0.036919179515840034,-0.008934445054242438,0.0007549407644881819,-0.008934445054242438,0.038573394630750574,-0.02311650663614273,-0.3692900240421295,0.014937002346388475,1.5190081278934444,0.19759221033834143,1.5149676693489706,0.004040458544473768,1.5149676693489706,0.2064456037565287,1.4334903955459595,0.8478566408157349,0.08551773234748494,-1.5056238854731148,-0.0548998515690962,-1.5045012674610845,-0.0011226180120302853,-1.5045012674610845,-0.05735971566854488,-1.4817783832550049,-0.029399216175079346,-0.023845502218109882,0.25084124004633973,-0.05181659520234542,0.08152414588102384,-0.04914291203022003,-0.2800198793411255,1.862645149230957e-08,0.0388491153717041,-0.28001973032951355,7.450580596923828e-09,0.12684112787246704,-0.2800197899341583,7.450580596923828e-09,0,0.0,0,0.0,0,0.0,0,,,120.0,1425.9833333323652,,
1777039815.505824,1425433407675,0.06723006376220725,-0.3663723453641885,0.07475880579521475,-0.0075287420330075044,0.06723006376220725,-0.3663723453641885,0.2122603803873062,-2.404318332672119,-0.14503031662509897,-0.004675404474894703,0.008771866104678321,-0.004855661303462256,0.00018025682856755328,-0.004675404474894703,0.008771866104678321,-0.004328540060669184,0.8521943688392639,-0.000346864414225519,-0.005490595050582348,0.03030233055277476,-0.0061132906023003255,0.0006226955517179772,-0.005490595050582348,0.03030233055277476,-0.017107535153627396,-0.26822757720947266,0.011616940103045047,1.5333992256083657,0.16217869819553143,1.530066546170595,0.0033326794377708246,1.5333992256083657,0.16217869819553143,1.465108036994934,0.9226875305175781,0.06829118861343164,-1.5096223686476933,-0.045060412267055094,-1.5086964029623673,-0.0009259656853259912,-1.5096223686476933,-0.045060412267055094,-1.4905678033828735,-0.03426530957221985,-0.019054565264819745,0.24818049362299524,-0.03636256480573223,0.07955366386245882,-0.04914291203022003,-0.2800198793411255,1.862645149230957e-08,0.0388491153717041,-0.28001973032951355,7.450580596923828e-09,0.12684112787246704,-0.2800197899341583,7.450580596923828e-09,0,0.0,0,0.0,0,0.0,0,,,120.0,1425.9999999990318,,
1777039815.60756,1425450074343,0.03046526233527197,-0.24637185836469325,0.035593577736008686,-0.005128315400736716,0.035593577736008686,-0.26637515536379985,0.15770848095417023,-7.729504585266113,-0.12724321861889826,-0.0037951635954648144,0.005898755680884157,-0.003917948234117345,0.00012278463865253095,-0.003917948234117345,0.006377684413220273,-0.0033534595277160406,0.28508487343788147,-0.00044170406774877383,-0.0024498110513459996,0.02037719709343017,-0.002873969453087638,0.0004241584017416382,-0.002873969453087638,0.022031651981966372,-0.012310574762523174,-0.1386089026927948,0.009860763711177174,1.5496735642976318,0.10905917918527272,1.5474034597819628,0.0022701045156690025,1.5474034597819628,0.11791385587684189,1.492210865020752,0.9216533899307251,0.05746269927687986,-1.5141440994228894,-0.030301461475971653,-1.5135133640272826,-0.000630735395606763,-1.5135133640272826,-0.032761682125495774,-1.4980947971343994,-0.4586787223815918,-0.016049302288489997,0.24488424016610952,-0.023597614288389607,0.07791309605232336,-0.04914291203022003,-0.2800198793411255,1.862645149230957e-08,0.0388491153717041,-0.28001973032951355,7.450580596923828e-09,0.12684112787246704,-0.2800197899341583,7.450580596923828e-09,0,0.0,0,0.0,0,0.0,0,,,120.0,1426.0166666656985,,
1777039815.7032485,1425466741010,0.013956505426506607,-0.1663778193646579,0.017483745159328382,-0.003527239732821775,0.013956505426506607,-0.1663778193646579,0.1079595685005188,-5.465483665466309,-0.0940030630740122,-0.0033999028532425172,0.003983499226188582,-0.0034843537542095593,8.44509009670421e-05,-0.0033999028532425172,0.003983499226188582,-0.0024699110072106123,0.09924139082431793,-0.0009299918460319049,-0.0010843864629602681,0.0137609613357311,-0.0013761213214321868,0.00029173485847191864,-0.0010843864629602681,0.0137609613357311,-0.008065199479460716,-0.005261018872261047,0.006980813016500448,1.556981344860678,0.07364894893021755,1.5554199738802237,0.0015613709804542797,1.556981344860678,0.07364894893021755,1.5149728059768677,0.6778292655944824,0.04200853888381029,-1.5161745239397457,-0.020462934027437606,-1.5157407060532793,-0.0004338178864664588,-1.5161745239397457,-0.020462934027437606,-1.504431128501892,-0.3299082815647125,-0.011743395437853632,0.24166147752089767,-0.013343134171599514,0.07689643334674166,-0.04914291203022003,-0.2800198793411255,1.862645149230957e-08,0.0388491153717041,-0.28001973032951355,7.450580596923828e-09,0.12684112787246704,-0.2800197899341583,7.450580596923828e-09,0,0.0,0,0.0,0,0.0,0,,,120.0,1426.0333333323651,,
1777039815.7958536,1425483407678,0.0038456405361287135,-0.08637041736446055,0.005773489371892749,-0.0019278488357640355,0.0038456405361287135,-0.08637041736446055,0.0666823759675026,-4.900230884552002,-0.06283673543137389,-0.003157823574762245,0.0020679228279992558,-0.0032039810756526875,4.6157500890442633e-05,-0.003157823574762245,0.0020679228279992558,-0.0016642820555716753,0.011176185682415962,-0.0014935415191905696,-0.0002481258282278098,0.007143620336183882,-0.0004075764893278806,0.0001594506611000708,-0.0002481258282278098,0.007143620336183882,-0.0046822745352983475,-0.012518338859081268,0.004434148707070537,1.5614570290281673,0.038232803397999116,1.560603645800808,0.0008533832273593944,1.5614570290281673,0.038232803397999116,1.5332839488983154,0.5398381948471069,0.02817308012985187,-1.5174180668711426,-0.010622763053394574,-1.5171809592825722,-0.00023710758857031777,-1.5174180668711426,-0.010622763053394574,-1.5095173120498657,-0.2742761969566345,-0.007900754821276834,0.23863786981900875,-0.00489204598300077,0.07614436950707848,-0.04914291203022003,-0.2800198793411255,1.862645149230957e-08,0.0388491153717041,-0.28001973032951355,7.450580596923828e-09,0.12684112787246704,-0.2800197899341583,7.450580596923828e-09,0,0.0,0,0.0,0,0.0,0,,,120.0,1426.0499999990318,,
1777039815.8942857,1425500074345,0.00011571603827178513,-1.7620646284473113e-16,0.00011571603827178513,0.0,0.00011571603827178513,-1.7620646284473113e-16,0.03552769497036934,-3.5374274253845215,-0.035411978932097556,-0.003068519895896316,4.218821421459944e-18,-0.003068519895896316,0.0,-0.003068519895896316,4.218821421459944e-18,-0.0010726648615673184,0.001591421663761139,-0.0019958550343289975,6.037290673702872e-05,1.4573879688841224e-17,6.037290673702872e-05,0.0,6.037290673702872e-05,1.4573879688841224e-17,-0.002147315302863717,0.0047685131430625916,0.002207688209600746,1.563108120621417,7.799970472495954e-17,1.563108120621417,0.0,1.563108120621417,7.799970472495954e-17,1.5471616983413696,0.38691452145576477,0.01594642228004739,-1.5178768131103855,-2.1671766333811376e-17,-1.5178768131103855,0.0,-1.5178768131103855,-2.1671766333811376e-17,-1.513384461402893,-0.20012620091438293,-0.0044923517074924035,0.23613840239452205,0.0011105518963895342,0.07561133816436033,-0.04914291203022003,-0.2800198793411255,1.862645149230957e-08,0.0388491153717041,-0.28001973032951355,7.450580596923828e-09,0.12684112787246704,-0.2800197899341583,7.450580596923828e-09,0,0.0,0,0.0,0,0.0,0,,,120.0,1426.0666666656984,,
1777039816.0030055,1425516741013,0.00011571603827178513,-1.7620646284473113e-16,0.00011571603827178513,0.0,0.00011571603827178513,-1.7620646284473113e-16,0.01427911315113306,-2.476778030395508,-0.014163397112861275,-0.003068519895896316,4.218821421459944e-18,-0.003068519895896316,0.0,-0.003068519895896316,4.218821421459944e-18,-0.0006808396428823471,-0.052441999316215515,-0.002387680253013969,6.037290673702872e-05,1.4573879688841224e-17,6.037290673702872e-05,0.0,6.037290673702872e-05,1.4573879688841224e-17,-0.000438264396507293,0.017211250960826874,0.0004986373032443217,1.563108120621417,7.799970472495954e-17,1.563108120621417,0.0,1.563108120621417,7.799970472495954e-17,1.5566097497940063,0.2471507042646408,0.006498370827410671,-1.5178768131103855,-2.1671766333811376e-17,-1.5178768131103855,0.0,-1.5178768131103855,-2.1671766333811376e-17,-1.5160194635391235,-0.1341254562139511,-0.0018573495712619348,0.23432831242940533,0.005120090328731487,0.07528674033297546,-0.04914291203022003,-0.2800198793411255,1.862645149230957e-08,0.0388491153717041,-0.28001973032951355,7.450580596923828e-09,0.12684112787246704,-0.2800197899341583,7.450580596923828e-09,0,0.0,0,0.0,0,0.0,0,,,120.0,1426.083333332365,,
1777039816.1047268,1425533407680,0.00011571603827178513,-1.7620646284473113e-16,0.00011571603827178513,0.0,0.00011571603827178513,-1.7620646284473113e-16,0.003122255438938737,-1.1710124015808105,-0.003006539400666952,-0.003068519895896316,4.218821421459944e-18,-0.003068519895896316,0.0,-0.003068519895896316,4.218821421459944e-18,-0.0005663892370648682,-0.06697329878807068,-0.0025021306588314477,6.037290673702872e-05,1.4573879688841224e-17,6.037290673702872e-05,0.0,6.037290673702872e-05,1.4573879688841224e-17,0.0004284556198399514,0.01959112286567688,-0.0003680827131029227,1.563108120621417,7.799970472495954e-17,1.563108120621417,0.0,1.563108120621417,7.799970472495954e-17,1.5616295337677002,0.10809117555618286,0.0014785868537168234,-1.5178768131103855,-2.1671766333811376e-17,-1.5178768131103855,0.0,-1.5178768131103855,-2.1671766333811376e-17,-1.5174275636672974,-0.06339828670024872,-0.00044924944308810666,0.23336565237030416,0.007122131735732659,0.07513492883569009,-0.04914291203022003,-0.2800198793411255,1.862645149230957e-08,0.0388491153717041,-0.28001973032951355,7.450580596923828e-09,0.12684112787246704,-0.2800197899341583,7.450580596923828e-09,0,0.0,0,0.0,0,0.0,0,,,120.0,1426.0999999990318,,
1777039816.2008367,1425550074348,0.00011571603827178513,-1.7620646284473113e-16,0.00011571603827178513,0.0,0.00011571603827178513,-1.7620646284473113e-16,0.0004660526174120605,-0.12784966826438904,-0.00035033657914027537,-0.003068519895896316,4.218821421459944e-18,-0.003068519895896316,0.0,-0.003068519895896316,4.218821421459944e-18,-0.0006175674498081207,-0.04803150147199631,-0.002450952446088195,6.037290673702872e-05,1.4573879688841224e-17,6.037290673702872e-05,0.0,6.037290673702872e-05,1.4573879688841224e-17,0.000591202056966722,-0.03324385732412338,-0.0005308291502296933,1.563108120621417,7.799970472495954e-17,1.563108120621417,0.0,1.563108120621417,7.799970472495954e-17,1.5628591775894165,0.02079952508211136,0.0002489430320005148,-1.5178768131103855,-2.1671766333811376e-17,-1.5178768131103855,0.0,-1.5178768131103855,-2.1671766333811376e-17,-1.5177814960479736,-0.009944617748260498,-9.531706241183713e-05,0.23314418611541834,0.007495034507175062,0.07512167836556527,-0.04914291203022003,-0.2800198793411255,1.862645149230957e-08,0.0388491153717041,-0.28001973032951355,7.450580596923828e-09,0.12684112787246704,-0.2800197899341583,7.450580596923828e-09,0,0.0,0,0.0,0,0.0,0,,,120.0,1426.1166666656984,,
1777039816.2981894,1425566741015,0.00011571603827178513,-1.7620646284473113e-16,0.00011571603827178513,0.0,0.00011571603827178513,-1.7620646284473113e-16,0.0002589286887086928,0.14673589169979095,-0.00014321265043690766,-0.003068519895896316,4.218821421459944e-18,-0.003068519895896316,0.0,-0.003068519895896316,4.218821421459944e-18,-0.0007358132861554623,-0.012082457542419434,-0.0023327066097408537,6.037290673702872e-05,1.4573879688841224e-17,6.037290673702872e-05,0.0,6.037290673702872e-05,1.4573879688841224e-17,0.000577182334382087,-0.030471710488200188,-0.0005168094276450583,1.563108120621417,7.799970472495954e-17,1.563108120621417,0.0,1.563108120621417,7.799970472495954e-17,1.563088297843933,-0.006532111670821905,1.9822777483913256e-05,-1.5178768131103855,-2.1671766333811376e-17,-1.5178768131103855,0.0,-1.5178768131103855,-2.1671766333811376e-17,-1.5178614854812622,0.00013686611782759428,-1.532762912326291e-05,0.2331189700325577,0.007432203676904673,0.0751414200060887,-0.04914291203022003,-0.2800198793411255,1.862645149230957e-08,0.0388491153717041,-0.28001973032951355,7.450580596923828e-09,0.12684112787246704,-0.2800197899341583,7.450580596923828e-09,0,0.0,0,0.0,0,0.0,0,,,120.0,1426.133333332365,,
