inbarajaldrin/isaac-sim-mcp/docs/notes/2026-04-24-no-collision-baseline/motion_csv/20260424T070936_drop_point.csv
t_wall,t_sim_ns,ref_pos_shoulder_pan,ref_vel_shoulder_pan,fb_pos_shoulder_pan,err_pos_shoulder_pan,js_pos_shoulder_pan,js_vel_shoulder_pan,isaac_pos_shoulder_pan,isaac_vel_shoulder_pan,isaac_lag_shoulder_pan,ref_pos_shoulder_lift,ref_vel_shoulder_lift,fb_pos_shoulder_lift,err_pos_shoulder_lift,js_pos_shoulder_lift,js_vel_shoulder_lift,isaac_pos_shoulder_lift,isaac_vel_shoulder_lift,isaac_lag_shoulder_lift,ref_pos_elbow_flex,ref_vel_elbow_flex,fb_pos_elbow_flex,err_pos_elbow_flex,js_pos_elbow_flex,js_vel_elbow_flex,isaac_pos_elbow_flex,isaac_vel_elbow_flex,isaac_lag_elbow_flex,ref_pos_wrist_flex,ref_vel_wrist_flex,fb_pos_wrist_flex,err_pos_wrist_flex,js_pos_wrist_flex,js_vel_wrist_flex,isaac_pos_wrist_flex,isaac_vel_wrist_flex,isaac_lag_wrist_flex,ref_pos_wrist_roll,ref_vel_wrist_roll,fb_pos_wrist_roll,err_pos_wrist_roll,js_pos_wrist_roll,js_vel_wrist_roll,isaac_pos_wrist_roll,isaac_vel_wrist_roll,isaac_lag_wrist_roll,tcp_x,tcp_y,tcp_z,cup_red_x,cup_red_y,cup_red_z,cup_green_x,cup_green_y,cup_green_z,cup_blue_x,cup_blue_y,cup_blue_z,contact_cup_red_hit,contact_cup_red_impulse_n,contact_cup_green_hit,contact_cup_green_impulse_n,contact_cup_blue_hit,contact_cup_blue_impulse_n,contact_n_events,contact_events_json,attached_lego_xyz,physics_rate_hz,sim_time_s,render_fps,app_dt_ms
1777039776.4040701,1413266740374,4.100292289496677e-05,0.03999632797813298,-0.0004885000568845127,0.0005295029797794795,-0.0004885000568845127,0.013599063889768281,-0.0005750515265390277,0.21928536891937256,0.0006160544494339945,0.00424762080749498,-0.00012637611088913152,0.004249293874265643,-1.6730667706625624e-06,0.004249293874265643,-4.296886471831922e-05,0.006443267222493887,0.7298392057418823,-0.0021956464149989066,-0.007118655987509724,-1.1809350887170895e-05,-0.007118499645995387,-1.5634151433706334e-07,-0.007118499645995387,-4.015271534403942e-06,-0.006581480149179697,-0.5234666466712952,-0.0005371758383300269,1.5703748797499526,-0.00020123731521811365,1.570377543888473,-2.6641385204584367e-06,1.570377543888473,-6.842225886677275e-05,1.5704283714294434,0.04628290981054306,-5.349167949075806e-05,-1.5127159109610329,-0.001059217655031891,-1.5127018882011214,-1.4022759911469507e-05,-1.5127018882011214,-0.0003601422753570217,-1.5127003192901611,-0.12450826913118362,-1.5591670871728525e-05,0.23259512782247627,0.007919866736695173,0.07529999541762046,-0.04914291203022003,-0.2800198793411255,1.862645149230957e-08,0.0388491153717041,-0.28001973032951355,7.450580596923828e-09,0.12684112787246704,-0.2800197899341583,7.450580596923828e-09,0,0.0,0,0.0,0,0.0,0,,,120.0,1413.8333333323762,,
1777039776.51536,1413283407041,0.009214011158194263,0.1400007160000085,0.006624111168058185,0.002589899990136078,0.006624111168058185,0.12008497200000431,-0.0005750600248575211,0.22014236450195312,0.009789071183051784,0.004218636919109899,-0.0004423592590662896,0.0042268202075488835,-8.183288438984651e-06,0.0042268202075488835,-0.00037943162547049447,0.006443349178880453,0.7296198606491089,-0.0022247122597705542,-0.007121364417968662,-4.1336734227375884e-05,-0.007120599721825482,-7.646961431798799e-07,-0.007120599721825482,-3.5456394182017696e-05,-0.006581486668437719,-0.5234019756317139,-0.0005398777495309428,1.5703287267243369,-0.0007043988695924217,1.5703417575335892,-1.3030809252301268e-05,1.5703417575335892,-0.0006041948994924994,1.5704283714294434,0.04629042372107506,-9.964470510648304e-05,-1.5129588385687358,-0.0037076211142745247,-1.5128902505774624,-6.858799127340554e-05,-1.5128902505774624,-0.003180195004818214,-1.5127003192901611,-0.12447580695152283,-0.00025851927857467594,0.2325950754463919,0.007919866099545876,0.07529998070829685,-0.04914291203022003,-0.2800198793411255,1.862645149230957e-08,0.0388491153717041,-0.28001973032951355,7.450580596923828e-09,0.12684112787246704,-0.2800197899341583,7.450580596923828e-09,0,0.0,0,0.0,0,0.0,0,,,120.0,1413.849999999043,,
1777039776.610133,1413300073709,0.023616308977343053,0.22001090000001924,0.019413769718186986,0.004202539259156066,0.023616308977343053,0.22001090000001924,-0.0005750519339926541,0.22026212513446808,0.024191360911335707,0.00417313008190108,-0.0006951668640787952,0.004186408815081819,-1.3278733180738592e-05,0.00417313008190108,-0.0006951668640787952,0.006443034391850233,0.7293586134910583,-0.002269904309949153,-0.007125616853057729,-6.496061134726692e-05,-0.007124376007629245,-1.240845428483739e-06,-0.007125616853057729,-6.496061134726692e-05,-0.00658140005543828,-0.5234039425849915,-0.0005442167976194489,1.5702562630784833,-0.001106961690543768,1.5702774077125123,-2.1144634029024445e-05,1.5702562630784833,-0.001106961690543768,1.5704282522201538,0.04628187045454979,-0.00017198914167049217,-1.5133402527858486,-0.005826520617295681,-1.5132289574743956,-0.00011129531145304128,-1.5133402527858486,-0.005826520617295681,-1.5127002000808716,-0.12443731725215912,-0.0006400527049770233,0.23259506284065776,0.007919855741194602,0.07530005309795054,-0.04914291203022003,-0.2800198793411255,1.862645149230957e-08,0.0388491153717041,-0.28001973032951355,7.450580596923828e-09,0.12684112787246704,-0.2800197899341583,7.450580596923828e-09,0,0.0,0,0.0,0,0.0,0,,,120.0,1413.8666666657095,,
1777039776.708229,1413316740376,0.057213596758363926,0.3399990759999563,0.0506146507606104,0.0065989459977535275,0.0506146507606104,0.3200023119999831,0.00017111933266278356,0.3376636803150177,0.05704247742570114,0.00406697297246567,-0.001074292643921505,0.0040878236148451305,-2.0850642379460597e-05,0.0040878236148451305,-0.0010111090120124547,0.006448986008763313,0.826728343963623,-0.0023820130362976434,-0.0071355368177225,-0.00010038842545731637,-0.007133588407138018,-1.948410584481225e-06,-0.007133588407138018,-9.448416337576731e-05,-0.006591050885617733,-0.547608494758606,-0.0005444859321047666,1.5700872218606179,-0.001710669571142922,1.5701204237629662,-3.3201902348345413e-05,1.5701204237629662,-0.0016100579574370498,1.570420265197754,0.04547501355409622,-0.00033304333713601864,-1.5142300054751072,-0.009004152185977575,-1.514055246429495,-0.00017475904561226052,-1.514055246429495,-0.008474580434194964,-1.512719750404358,-0.13170841336250305,-0.0015102550707493112,0.23260632261562728,0.0077636584305363285,0.0752923221833848,-0.04914291203022003,-0.2800198793411255,1.862645149230957e-08,0.0388491153717041,-0.28001973032951355,7.450580596923828e-09,0.12684112787246704,-0.2800197899341583,7.450580596923828e-09,0,0.0,0,0.0,0,0.0,0,,,120.0,1413.8833333323762,,
1777039776.8026075,1413333407044,0.09624755800130202,0.44007646399978917,0.08761398861795225,0.008633569383349776,0.08761398861795225,0.42000018499978864,0.008588896133005619,2.347486972808838,0.0876586618682964,0.003943637644853156,-0.0013905064496058785,0.003970917072163482,-2.7279427310325857e-05,0.003970917072163482,-0.0013270715747210296,0.006408109329640865,1.111754298210144,-0.0024644716847877094,-0.007147062019363173,-0.00012993736283507882,-0.007144512864092907,-2.54915527026639e-06,-0.007144512864092907,-0.00012400962308480246,-0.006661501247435808,-0.5818414688110352,-0.00048556077192736524,1.569890826592356,-0.0022141984172492388,1.5699342654881563,-4.343889580038507e-05,1.5699342654881563,-0.0021131867321793614,1.5703593492507935,0.0413685068488121,-0.0004685226584375535,-1.5152637368945807,-0.011654488894327008,-1.5150350951772253,-0.0002286417173553712,-1.5150350951772253,-0.011122811356931389,-1.5129464864730835,-0.10869677364826202,-0.002317250421497219,0.23270776999055068,0.005970824616673417,0.07525106685472828,-0.04914291203022003,-0.2800198793411255,1.862645149230957e-08,0.0388491153717041,-0.28001973032951355,7.450580596923828e-09,0.12684112787246704,-0.2800197899341583,7.450580596923828e-09,0,0.0,0,0.0,0,0.0,0,,,120.0,1413.8999999990428,,
1777039776.8973706,1413350073711,0.13461515840080823,0.520002398999614,0.12441340341845218,0.010201754982356051,0.12441340341845218,0.49999898499995266,0.026386413723230362,4.195372581481934,0.10822874467757787,0.003822407812822332,-0.0016430478536562463,0.0038546422249318363,-3.2234412109504416e-05,0.0038546422249318363,-0.0015798432097909698,0.006548157427459955,1.6854286193847656,-0.0027257496146376233,-0.007158390470716628,-0.00015353636452126914,-0.0071553782915906505,-3.0121791259772254e-06,-0.0071553782915906505,-0.00014763013895522127,-0.006779576651751995,-0.6445517539978027,-0.00037881381896463263,1.569697784048554,-0.0026163373481990454,1.5697491131051664,-5.1329056612425816e-05,1.5697491131051664,-0.00251569227575314,1.57022225856781,0.03979991376399994,-0.0005244745192560796,-1.5162798211647868,-0.01377115724181703,-1.516009649388128,-0.00027017177665866754,-1.516009649388128,-0.01324140937893741,-1.5134217739105225,-0.12637130916118622,-0.0028580472542643065,0.23282704119215109,0.0023396657728869574,0.07515927809034831,-0.04914291203022003,-0.2800198793411255,1.862645149230957e-08,0.0388491153717041,-0.28001973032951355,7.450580596923828e-09,0.12684112787246704,-0.2800197899341583,7.450580596923828e-09,0,0.0,0,0.0,0,0.0,0,,,120.0,1413.9166666657095,,
1777039777.0029945,1413366740379,0.19161573934876192,0.620002872248878,0.1794124775207899,0.012203261827972017,0.19161573934876192,0.620002872248878,0.05404268577694893,6.258702754974365,0.137573053571813,0.003642303485681019,-0.0019590186323543983,0.0036808620446273383,-3.855855894631952e-05,0.003642303485681019,-0.0019590186323543983,0.005760602653026581,2.235767364501953,-0.002118299167345562,-0.007175220512253331,-0.0001830625919822203,-0.007171617366460202,-3.603145793128898e-06,-0.007175220512253331,-0.0001830625919822203,-0.006941539701074362,-0.5964751839637756,-0.00023368081117896948,1.5694109916239611,-0.003119479205822916,1.5694723910516408,-6.139942767968698e-05,1.5694109916239611,-0.003119479205822916,1.5700759887695312,-0.0717545747756958,-0.000664997145570112,-1.5177893602834893,-0.016419457026627674,-1.5174661828561957,-0.0003231774272935972,-1.5177893602834893,-0.016419457026627674,-1.5141645669937134,-0.01351926475763321,-0.0036247932897759405,0.2329808615587492,-0.003384786876917733,0.0750977203932483,-0.04914291203022003,-0.2800198793411255,1.862645149230957e-08,0.0388491153717041,-0.28001973032951355,7.450580596923828e-09,0.12684112787246704,-0.2800197899341583,7.450580596923828e-09,0,0.0,0,0.0,0,0.0,0,,,120.0,1413.9333333323762,,
1777039777.1037192,1413383407047,0.25861649800628284,0.7200034218595598,0.24441522976469365,0.014201268241589182,0.25861649800628284,0.7200034218595598,0.08944939076900482,5.596010208129883,0.169167107237278,0.0034306016686944736,-0.0022749896523311607,0.003475473314187704,-4.4871645493230194e-05,0.0034306016686944736,-0.0022749896523311607,0.0059886835515499115,1.679332971572876,-0.002558081882855438,-0.007195003215033611,-0.00021258884198968408,-0.007190810136113977,-4.193078919634274e-06,-0.007195003215033611,-0.00021258884198968408,-0.006932890973985195,-0.49035072326660156,-0.0002621122410484157,1.5690738843575893,-0.0036226214476457507,1.569145336544279,-7.145218668958009e-05,1.5690738843575893,-0.0036226214476457507,1.5698747634887695,-0.04010525718331337,-0.0008008791311802099,-1.519563732833633,-0.019067758833710827,-1.5191876424571955,-0.0003760903764375989,-1.519563732833633,-0.019067758833710827,-1.5151491165161133,-0.09767462313175201,-0.004414616317519826,0.2327599005456714,-0.010317427110232688,0.07508183730890934,-0.04914291203022003,-0.2800198793411255,1.862645149230957e-08,0.0388491153717041,-0.28001973032951355,7.450580596923828e-09,0.12684112787246704,-0.2800197899341583,7.450580596923828e-09,0,0.0,0,0.0,0,0.0,0,,,120.0,1413.9499999990428,,
1777039777.202198,1413400073714,0.3522132168457569,0.839999024365114,0.3356156216829813,0.01659759516277559,0.3194143813493098,0.800000433859784,0.1348772943019867,6.084685802459717,0.2173359225437702,0.0031348647869140897,-0.0026541388976504964,0.003187308089407534,-5.244330249344446e-05,0.003238499032387834,-0.0025277556378703577,0.005895910784602165,1.5581445693969727,-0.0027610459976880755,-0.007222638664349574,-0.0002480188488563678,-0.007217738043840917,-4.900620508657e-06,-0.007212954451406819,-0.00023620882993341863,-0.006946193054318428,-0.4392016530036926,-0.00027644561003114555,1.5686029623163835,-0.004226366693930534,1.5686864713697999,-8.350905341636405e-05,1.5687679862056039,-0.0040251179950535785,1.5696333646774292,-0.044669028371572495,-0.0010304023610456792,-1.5220424428067723,-0.02224558707759824,-1.5216028908099692,-0.0004395519968030115,-1.5211738354275774,-0.021186309504341458,-1.5163944959640503,-0.08104488253593445,-0.005647946842721963,0.23213619346233227,-0.019210931994148833,0.0751130426366146,-0.04914291203022003,-0.2800198793411255,1.862645149230957e-08,0.0388491153717041,-0.28001973032951355,7.450580596923828e-09,0.12684112787246704,-0.2800197899341583,7.450580596923828e-09,0,0.0,0,0.0,0,0.0,0,,,120.0,1413.9666666657095,,
1777039777.2985547,1413416740382,0.42268563168354695,0.9200777727133138,0.40441671360926484,0.018268918074282103,0.40441671360926484,0.9000029287137488,0.1916639357805252,7.607117652893066,0.23102169590302174,0.0029121936027734765,-0.002907163144942628,0.0029699177722933043,-5.7724169519827746e-05,0.0029699177722933043,-0.0028437328042183892,0.005594462621957064,1.4622925519943237,-0.002682269019183587,-0.007243446411379288,-0.00027166297034590735,-0.007238052314601546,-5.394096777741782e-06,-0.007238052314601546,-0.00026573565429513886,-0.006988100241869688,-0.3754936754703522,-0.0002553461695096,1.5682483877772802,-0.00462927448918097,1.5683403059160443,-9.191813876419097e-05,1.5683403059160443,-0.004528270024166539,1.5693459510803223,-0.0721736028790474,-0.001097563303042115,-1.5239087547849648,-0.02436630236150913,-1.52342494135656,-0.00048381342840486674,-1.52342494135656,-0.023834662827050924,-1.5179246664047241,-0.04173043370246887,-0.005984088380240671,0.23078173109627892,-0.030290335065452745,0.07517010779110353,-0.04914291203022003,-0.2800198793411255,1.862645149230957e-08,0.0388491153717041,-0.28001973032951355,7.450580596923828e-09,0.12684112787246704,-0.2800197899341583,7.450580596923828e-09,0,0.0,0,0.0,0,0.0,0,,,120.0,1413.983333332376,,
1777039777.3953469,1413433407049,0.5196183420990734,1.020004180578781,0.49940656450457477,0.02021177759449866,0.49940656450457477,0.9999924867136596,0.25760334730148315,8.621049880981445,0.2620149947975903,0.0026059160123167602,-0.003222899899778364,0.002669779021139616,-6.386300882285558e-05,0.002669779021139616,-0.00315966909408144,0.005359997972846031,1.1454626321792603,-0.002754081960529271,-0.007272066848494627,-0.00030116732919663276,-0.007266099101310486,-5.967747184140899e-06,-0.007266099101310486,-0.0002952586589095595,-0.006997625809162855,-0.33422785997390747,-0.0002744410393317716,1.5677606810455216,-0.005132043694612246,1.5678623744775042,-0.00010169343198263014,1.5678623744775042,-0.00503135696289418,1.5690131187438965,-0.0629880353808403,-0.0012524376983749086,-1.526475811397734,-0.02701264068220787,-1.5259405454683352,-0.0005352659293986761,-1.5259405454683352,-0.02648267354477495,-1.519705057144165,-0.0025603026151657104,-0.006770754253568878,0.22842724031746314,-0.042900030291886077,0.07524038881346354,-0.04914291203022003,-0.2800198793411255,1.862645149230957e-08,0.0388491153717041,-0.28001973032951355,7.450580596923828e-09,0.12684112787246704,-0.2800197899341583,7.450580596923828e-09,0,0.0,0,0.0,0,0.0,0,,,120.0,1413.9999999990428,,
1777039777.4921079,1413450073717,0.6266179161410852,1.1200034162141905,0.6044148921112443,0.022203024029840868,0.6044148921112443,1.1000007292126008,0.3338696360588074,9.87750244140625,0.2927482800822778,0.0022678302250010163,-0.00353886676799688,0.00233798496091587,-7.015473591485358e-05,0.00233798496091587,-0.0034756644212220523,0.005074147135019302,0.8475372791290283,-0.002806316910018286,-0.007303659636595874,-0.0003306931912386503,-0.007297103952242342,-6.555684353531412e-06,-0.007297103952242342,-0.0003247871803264049,-0.007019535638391972,-0.2784635126590729,-0.0002841239982039022,1.5672223239488114,-0.00563517932530995,1.5673340361276862,-0.00011171217887473439,1.5673340361276862,-0.005534537910640347,1.5686289072036743,-0.06388828903436661,-0.0014065832548628698,-1.5293094674765806,-0.029660907691449634,-1.528721467621682,-0.0005879998548985466,-1.528721467621682,-0.0291311790815655,-1.52175772190094,0.03514006733894348,-0.007551745575640645,0.22466214289686715,-0.057283679025250195,0.07532252927621082,-0.04914291203022003,-0.2800198793411255,1.862645149230957e-08,0.0388491153717041,-0.28001973032951355,7.450580596923828e-09,0.12684112787246704,-0.2800197899341583,7.450580596923828e-09,0,0.0,0,0.0,0,0.0,0,,,120.0,1414.0166666657094,,
1777039777.5897439,1413466740384,0.7436170302424031,1.2200023832830924,0.7194133426324261,0.024203687609977043,0.7194133426324261,1.1999993772126432,0.41623955965042114,3.587803840637207,0.32737747059198197,0.0018981489626190022,-0.0038548327876277468,0.0019746251809107697,-7.647621829176749e-05,0.0019746251809107697,-0.003791629432693519,0.004643271677196026,2.248288154602051,-0.0027451227145770234,-0.007338204897667525,-0.0003602189739834449,-0.007331058495630167,-7.1464020373578074e-06,-0.007331058495630167,-0.0003543128688628746,-0.007340149022638798,-0.4516875147819519,1.9441249712731645e-06,1.5666336552185933,-0.006138313604738727,1.5667554335257305,-0.00012177830713722138,1.5667554335257305,-0.0060376705847471485,1.5681730508804321,-0.10561622679233551,-0.001539395661838805,-1.5324079401000579,-0.032309167588276365,-1.531766956926615,-0.000640983173442855,-1.531766956926615,-0.031779430528534484,-1.5236518383026123,-0.7177834510803223,-0.00875610179744557,0.21963696986093098,-0.0718352697139887,0.0753340793789529,-0.04914291203022003,-0.2800198793411255,1.862645149230957e-08,0.0388491153717041,-0.28001973032951355,7.450580596923828e-09,0.12684112787246704,-0.2800197899341583,7.450580596923828e-09,0,0.0,0,0.0,0,0.0,0,,,120.0,1414.033333332376,,
1777039777.68206,1413483407052,0.84452782670064,1.3000875038426898,0.818614688117242,0.025913138583397943,0.84452782670064,1.3000875038426898,0.49863171577453613,10.000033378601074,0.34589611092610384,0.001579301842201061,-0.004107877169150572,0.0016611794004832115,-8.187755828215049e-05,0.001579301842201061,-0.004107877169150572,0.00484061986207962,0.0006618797779083252,-0.0032613180198785593,-0.007367999907957764,-0.00038386497693771197,-0.007360348771926304,-7.651136031459546e-06,-0.007367999907957764,-0.00038386497693771197,-0.00698511116206646,-0.2149948924779892,-0.0003828887458913041,1.5661259331655444,-0.00654125346109336,1.5662563123953621,-0.0001303792298177342,1.5661259331655444,-0.00654125346109336,1.5678139925003052,-0.018723152577877045,-0.0016880593347607942,-1.5350803478583621,-0.03443005162665245,-1.5343940935127134,-0.0006862543456487291,-1.5350803478583621,-0.03443005162665245,-1.5261198282241821,-0.09953965991735458,-0.008960519634179986,0.2128104284303148,-0.0871837263683288,0.0755011334693432,-0.04914291203022003,-0.2800198793411255,1.862645149230957e-08,0.0388491153717041,-0.28001973032951355,7.450580596923828e-09,0.12684112787246704,-0.2800197899341583,7.450580596923828e-09,0,0.0,0,0.0,0,0.0,0,,,120.0,1414.0499999990427,,
1777039777.778393,1413500073719,0.9517007501726784,1.3576346550153546,0.9245024651631678,0.027198285009510603,0.9517007501726784,1.3576346550153546,0.5989734530448914,10.000080108642578,0.35272729712778705,0.0012406683239335216,-0.004289708490314198,0.0013266065501685922,-8.593822623507064e-05,0.0012406683239335216,-0.004289708490314198,0.004490727558732033,-0.10613124072551727,-0.003250059234798511,-0.007399643879363802,-0.0004008563992785584,-0.007391613289871123,-8.030589492679513e-06,-0.007399643879363802,-0.0004008563992785584,-0.007025117985904217,-0.17201131582260132,-0.0003745258934595855,1.5655867038794198,-0.006830795896242182,1.565723549188238,-0.0001368453088181898,1.5655867038794198,-0.006830795896242182,1.5672807693481445,-0.003081139177083969,-0.001694065468724748,-1.537918594728066,-0.035954065494978316,-1.5371983060134475,-0.0007202887146184889,-1.537918594728066,-0.035954065494978316,-1.5288746356964111,-0.24122941493988037,-0.009043959031654891,0.20331972223529896,-0.10419697149895327,0.07559426677841563,-0.04914291203022003,-0.2800198793411255,1.862645149230957e-08,0.0388491153717041,-0.28001973032951355,7.450580596923828e-09,0.12684112787246704,-0.2800197899341583,7.450580596923828e-09,0,0.0,0,0.0,0,0.0,0,,,120.0,1414.0666666657094,,
1777039777.8896244,1413516740387,1.1079507621243703,1.2434005947905842,1.0828855701361826,0.025065191988187685,1.1079507621243703,1.2434005947905842,0.7127949595451355,10.000118255615234,0.39515580257923477,0.0007469662808951068,-0.003928763948850602,0.0008261645883969598,-7.919830750185302e-05,0.0007469662808951068,-0.003928763948850602,0.00434873066842556,-0.10952817648649216,-0.0036017643875304534,-0.007445778394969134,-0.000367127550439524,-0.007438377624393282,-7.40077057585168e-06,-0.007445778394969134,-0.000367127550439524,-0.0071302056312561035,-0.16940240561962128,-0.0003155727637130304,1.5648005483872283,-0.006256039243635053,1.5649266612629853,-0.000126112875757034,1.5648005483872283,-0.006256039243635053,1.5666682720184326,0.0034667602740228176,-0.0018677236312043544,-1.5420565438755343,-0.03292881944077948,-1.541392745591469,-0.0006637982840651535,-1.5420565438755343,-0.03292881944077948,-1.5319336652755737,-0.4068452715873718,-0.010122878599960528,0.1904036340775134,-0.12243148778269576,0.07564475574494954,-0.04914291203022003,-0.2800198793411255,1.862645149230957e-08,0.0388491153717041,-0.28001973032951355,7.450580596923828e-09,0.12684112787246704,-0.2800197899341583,7.450580596923828e-09,0,0.0,0,0.0,0,0.0,0,,,120.0,1414.083333332376,,
1777039777.9884565,1413533407054,1.2499618644303878,1.123397896789125,1.2272400158976577,0.02272184853273007,1.2272400158976577,1.143445027790604,0.8362395763397217,10.000133514404297,0.41372228809066613,0.0002982548186246512,-0.0035495922839438435,0.000370048880603267,-7.179406197861579e-05,0.000370048880603267,-0.0036129350601064062,0.0040838154964149,-0.14177583158016205,-0.0037855606777902487,-0.007487708717620873,-0.0003316954485511366,-0.007480999844689467,-6.708872931406214e-06,-0.007480999844689467,-0.0003376145820380263,-0.007218062411993742,-0.09440472722053528,-0.00026964630562713136,1.5640860344704903,-0.005652258297104522,1.564200357060251,-0.00011432258976062926,1.564200357060251,-0.005753123327117171,1.5660121440887451,-0.002801488619297743,-0.0019261096182547899,-1.5458174057940612,-0.029750803287778925,-1.545215665975995,-0.0006017398180662159,-1.545215665975995,-0.030281708902514262,-1.5352455377578735,-0.518694281578064,-0.010571868036187704,0.1742744808907569,-0.14025446761431934,0.07575583022494235,-0.04914291203022003,-0.2800198793411255,1.862645149230957e-08,0.0388491153717041,-0.28001973032951355,7.450580596923828e-09,0.12684112787246704,-0.2800197899341583,7.450580596923828e-09,0,0.0,0,0.0,0,0.0,0,,,120.0,1414.0999999990427,,
1777039778.0854397,1413550073722,1.3573021156617988,1.0233974457897448,1.3366297823811093,0.020672333280689514,1.3366297823811093,1.043401647790475,0.9682268500328064,10.000138282775879,0.3890752656289924,-4.090740396506307e-05,-0.003233621575548492,2.4410819358994283e-05,-6.531822332405735e-05,2.4410819358994283e-05,-0.0032968287092553323,0.004013868048787117,0.00982876680791378,-0.00405477545275218,-0.007519402094367936,-0.00030216922765972346,-0.007513298363107851,-6.103731260084962e-06,-0.007513298363107851,-0.0003080756858916548,-0.007277070078998804,-0.21080735325813293,-0.0002423320153691318,1.5635459632923525,-0.005149116551431312,1.5636499739618053,-0.00010401066945275872,1.5636499739618053,-0.005249765588661114,1.5653233528137207,0.06570995599031448,-0.001777389521368189,-1.5486600839834845,-0.027102504092208112,-1.548112621216557,-0.00054746276692752,-1.548112621216557,-0.027632272823477893,-1.5387672185897827,-0.5912495851516724,-0.009892865393701822,0.15469190094737725,-0.15695887296270766,0.07587038380314447,-0.04914291203022003,-0.2800198793411255,1.862645149230957e-08,0.0388491153717041,-0.28001973032951355,7.450580596923828e-09,0.12684112787246704,-0.2800197899341583,7.450580596923828e-09,0,0.0,0,0.0,0,0.0,0,,,120.0,1414.1166666657093,,
1777039778.182804,1413566740389,1.4546428408884187,0.9233963837917684,1.435970736786998,0.018672104101420617,1.435970736786998,0.9434008107906632,1.1005374193191528,10.000093460083008,0.35410542156926583,-0.0003484741958964583,-0.0029176489365852596,-0.0002894760823760087,-5.89981135204496e-05,-0.0002894760823760087,-0.002980856781217175,0.004252929240465164,0.3922766149044037,-0.004601403436361623,-0.007548143002294344,-0.0002726428263643159,-0.007542629860456534,-5.513141837810119e-06,-0.007542629860456534,-0.00027854935103031094,-0.007342461496591568,-0.05923791974782944,-0.00020568150570277575,1.56305620367701,-0.004645971731586828,1.563150150403839,-9.394672682905281e-05,1.563150150403839,-0.004746621900938881,1.5646559000015259,0.007901914417743683,-0.0015996963245159534,-1.5512379460004813,-0.024454188715639213,-1.5507434550479213,-0.0004944909525599339,-1.5507434550479213,-0.02498396340579241,-1.5422025918960571,-0.46673455834388733,-0.009035354104424131,0.1327732102699377,-0.17113985649549,0.07592153348914009,-0.04914291203022003,-0.2800198793411255,1.862645149230957e-08,0.0388491153717041,-0.28001973032951355,7.450580596923828e-09,0.12684112787246704,-0.2800197899341583,7.450580596923828e-09,0,0.0,0,0.0,0,0.0,0,,,120.0,1414.133333332376,,
1777039778.2778134,1413583407057,1.5253132232411033,0.8433979587906208,1.508245995363011,0.01706722787809234,1.508245995363011,0.8633971117897671,1.227237343788147,9.300177574157715,0.2980758794529563,-0.0005717708965752005,-0.0026648784863971707,-0.0005178436989566739,-5.3927197618526524e-05,-0.0005178436989566739,-0.002728069666809914,0.0023825904354453087,0.27066540718078613,-0.002954361332020509,-0.007569009201386182,-0.0002490224212166941,-0.00756396991671,-5.039284676182018e-06,-0.00756396991671,-0.0002549273886763397,-0.007727982010692358,-0.8364424109458923,0.00015897280930617617,1.562700633085188,-0.004243468074811802,1.5627865050461898,-8.587196100173777e-05,1.5627865050461898,-0.004344091708506944,1.5640238523483276,0.11718053370714188,-0.0013232192631396078,-1.5531095007271336,-0.02233560062468631,-1.5526575115069996,-0.0004519892201340081,-1.5526575115069996,-0.022865235643996697,-1.5453389883041382,-0.6589409112930298,-0.007770512422995424,0.11139354042574072,-0.1815135210635409,0.0760939849257973,-0.04914291203022003,-0.2800198793411255,1.862645149230957e-08,0.0388491153717041,-0.28001973032951355,7.450580596923828e-09,0.12684112787246704,-0.2800197899341583,7.450580596923828e-09,0,0.0,0,0.0,0,0.0,0,,,120.0,1414.1499999990426,,
1777039778.3742816,1413600073724,1.5896551471129454,0.7633061437901658,1.5741090834214742,0.015546063691471268,1.5896551471129454,0.7633061437901658,1.346126914024353,6.3892693519592285,0.2435282330885924,-0.0007750716123432868,-0.0024118129524974777,-0.000725950826304194,-4.91207860390928e-05,-0.0007750716123432868,-0.0024118129524974777,0.003020728239789605,2.5379059314727783,-0.003795799852132892,-0.007588006854275069,-0.00022537444165562676,-0.007583416709871131,-4.590144403938089e-06,-0.007588006854275069,-0.00022537444165562676,-0.007861706428229809,-1.14402437210083,0.00027369957395474015,1.5623769034662391,-0.003840494536038342,1.5624551218497147,-7.821838347554788e-05,1.5623769034662391,-0.003840494536038342,1.5633940696716309,0.11433383077383041,-0.0010171662053917174,-1.5548134596946017,-0.02021453929829075,-1.554401755271702,-0.000411704422899728,-1.5548134596946017,-0.02021453929829075,-1.5482147932052612,-0.5806455612182617,-0.006598666489340488,0.08963114753917607,-0.1888171574606627,0.07597599442501296,-0.04914291203022003,-0.2800198793411255,1.862645149230957e-08,0.0388491153717041,-0.28001973032951355,7.450580596923828e-09,0.12684112787246704,-0.2800197899341583,7.450580596923828e-09,0,0.0,0,0.0,0,0.0,0,,,120.0,1414.1666666657093,,
1777039778.4744918,1413616740392,1.6740482226530433,0.6433118357907677,1.6609747670553285,0.013073455597714778,1.6609747670553285,0.6633227187888158,1.4585864543914795,6.006286144256592,0.21546176826156382,-0.0010417278083461642,-0.002032667797420037,-0.0010004197043816066,-4.130810396455755e-05,-0.0010004197043816066,-0.0020958960410261715,0.0021442382130771875,2.0137200355529785,-0.003185966021423352,-0.007612924827796205,-0.00018994481700630226,-0.007609064747827221,-3.860079968984187e-06,-0.007609064747827221,-0.00019585324787573817,-0.008236962370574474,-0.3043109178543091,0.0006240375427782694,1.5619522885877497,-0.003236755802967748,1.5620180663038057,-6.577771605598137e-05,1.5620180663038057,-0.003337438454994231,1.562802791595459,0.38978898525238037,-0.0008505030077092801,-1.5570484307555412,-0.017036745336638293,-1.5567022080975756,-0.00034622265796557805,-1.5567022080975756,-0.017566691000035297,-1.5508323907852173,-0.36278262734413147,-0.006216039970323939,0.06879678932395818,-0.19338706451375448,0.07575927956419531,-0.04914291203022003,-0.2800198793411255,1.862645149230957e-08,0.0388491153717041,-0.28001973032951355,7.450580596923828e-09,0.12684112787246704,-0.2800197899341583,7.450580596923828e-09,0,0.0,0,0.0,0,0.0,0,,,120.0,1414.183333332376,,
1777039778.5714183,1413633407060,1.7222653998941015,0.5633966307887963,1.7107958460152268,0.011469553878874716,1.7222653998941015,0.5633966307887963,1.5516467094421387,2.682382345199585,0.17061869045196287,-0.00119407927773879,-0.0017801602968668042,-0.0011578390105413054,-3.6240267197484724e-05,-0.00119407927773879,-0.0017801602968668042,0.0027862703427672386,2.8812685012817383,-0.003980349620506029,-0.007627161473848823,-0.00016634898346863438,-0.007623774963308428,-3.3865105403957374e-06,-0.007627161473848823,-0.00016634898346863438,-0.007969341240823269,-0.475836843252182,0.0003421797669744455,1.561709688934589,-0.0028346708588102136,1.5617673967879333,-5.7707853344357574e-05,1.561709688934589,-0.0028346708588102136,1.5624151229858398,0.2748774588108063,-0.0007054340512508972,-1.5583253601135998,-0.014920361150343661,-1.5580216133803857,-0.0003037467332140942,-1.5583253601135998,-0.014920361150343661,-1.5531885623931885,-0.21036368608474731,-0.0051367977204113124,0.05025041857744431,-0.19541826132319992,0.07571702955284837,-0.04914291203022003,-0.2800198793411255,1.862645149230957e-08,0.0388491153717041,-0.28001973032951355,7.450580596923828e-09,0.12684112787246704,-0.2800197899341583,7.450580596923828e-09,0,0.0,0,0.0,0,0.0,0,,,120.0,1414.1999999990426,,
1777039778.663608,1413650073727,1.7826718720186743,0.4433991647905471,1.7736020457764847,0.00906982624218955,1.7736020457764847,0.46340314178979264,1.6089967489242554,1.219316005706787,0.1736751230944189,-0.0013849451748234396,-0.0014010051634834307,-0.001356287309842555,-2.8657864980884736e-05,-0.001356287309842555,-0.0014642115862544777,0.002159800846129656,1.6579029560089111,-0.0035447460209530957,-0.007644997141802284,-0.00013091842638543485,-0.007642319176949152,-2.677964853131827e-06,-0.007642319176949152,-0.00013682481818348203,-0.007747395895421505,-0.5115507245063782,0.00010239875361922092,1.5614057601269586,-0.0022309162365714065,1.5614513940032342,-4.5633876275541496e-05,1.5614513940032342,-0.002331564141748279,1.5621917247772217,0.3982815146446228,-0.000785964650263038,-1.5599250970141436,-0.011742483555785544,-1.5596849019620103,-0.0002401950521333518,-1.5596849019620103,-0.01227224632851952,-1.5550148487091064,-0.1447506994009018,-0.004910248305037168,0.03824617954668163,-0.19578335178131867,0.07595031480149518,-0.04914291203022003,-0.2800198793411255,1.862645149230957e-08,0.0388491153717041,-0.28001973032951355,7.450580596923828e-09,0.12684112787246704,-0.2800197899341583,7.450580596923828e-09,0,0.0,0,0.0,0,0.0,0,,,120.0,1414.2166666657092,,
1777039778.7563386,1413666740395,1.814959514013392,0.3633559347909485,1.8074755991510176,0.00748391486237443,1.8074755991510176,0.3833997457903742,1.6638026237487793,6.206167221069336,0.15115689026461276,-0.0014869642058530994,-0.0011480931432625591,-0.0014633173336939965,-2.3646872159102965e-05,-0.0014633173336939965,-0.0012114254292386632,0.002421770477667451,1.262681245803833,-0.003908734683520551,-0.007654530419303264,-0.00010728479207492888,-0.007652320712035436,-2.2097072678280497e-06,-0.007652320712035436,-0.00011320294529474536,-0.007490863557904959,-0.6606090664863586,-0.00016366686139830493,1.5612433082540458,-0.0018281871482180823,1.561280962784108,-3.765453006221442e-05,1.561280962784108,-0.001929035473944325,1.561906099319458,0.3161253333091736,-0.0006627910654122271,-1.5607801665209995,-0.009622708899752945,-1.5605819709577629,-0.00019819556323663612,-1.5605819709577629,-0.010153526591238079,-1.5567764043807983,-0.2048371136188507,-0.00400376214020115,0.0275352202719775,-0.19549782954983616,0.07592432559675077,-0.04914291203022003,-0.2800198793411255,1.862645149230957e-08,0.0388491153717041,-0.28001973032951355,7.450580596923828e-09,0.12684112787246704,-0.2800197899341583,7.450580596923828e-09,0,0.0,0,0.0,0,0.0,0,,,120.0,1414.2333333323759,,
1777039778.8497295,1413683407062,1.8408161646163745,0.2833976607909956,1.8349473093948916,0.005868855221482949,1.8408161646163745,0.2833976607909956,1.7244048118591309,3.914470911026001,0.11641135275724368,-0.001568663279468336,-0.0008954495579052099,-0.0015501194996826507,-1.854377978568523e-05,-0.001568663279468336,-0.0008954495579052099,0.002433308633044362,3.305297374725342,-0.004001971912512698,-0.007662164876644063,-8.367624194696186e-05,-0.007660432033302682,-1.7328433413810532e-06,-0.007662164876644063,-8.367624194696186e-05,-0.007558219600468874,-1.1011884212493896,-0.00010394527617518887,1.5611132132375574,-0.0014258855069864144,1.5611427417649968,-2.9528527439426355e-05,1.5611132132375574,-0.0014258855069864144,1.561581015586853,0.24021826684474945,-0.0004678023492956651,-1.5614649249026633,-0.007505184122640792,-1.5613095007580058,-0.0001554241446575233,-1.5614649249026633,-0.007505184122640792,-1.5583879947662354,-0.1954708695411682,-0.0030769301364279578,0.015637628791090038,-0.19450913385906743,0.07598162353053678,-0.04914291203022003,-0.2800198793411255,1.862645149230957e-08,0.0388491153717041,-0.28001973032951355,7.450580596923828e-09,0.12684112787246704,-0.2800197899341583,7.450580596923828e-09,0,0.0,0,0.0,0,0.0,0,,,120.0,1414.2499999990425,,
1777039778.9473982,1413700073730,1.8676364493376547,0.16332074179051534,1.8641555180481728,0.0034809312894819033,1.8641555180481728,0.18339991079045193,1.7745087146759033,1.8229691982269287,0.0931277346617514,-0.001653407140901526,-0.0005160433774396536,-0.0016424084672513452,-1.0998673650180904e-05,-0.0016424084672513452,-0.0005794873838365508,0.0011574714444577694,1.7941761016845703,-0.0028108785853592955,-0.0076700838574400194,-4.822222550047589e-05,-0.0076690560746137055,-1.0277828263139874e-06,-0.0076690560746137055,-5.4150818554757574e-05,-0.00778559036552906,-0.3019033968448639,0.00011550650808904092,1.5609782697974117,-0.0008217311252322471,1.5609957837368789,-1.751393946713975e-05,1.5609957837368789,-0.0009227573510576355,1.5613415241241455,0.21625259518623352,-0.0003632543267337862,-1.5621752030838365,-0.0043252023844119886,-1.5620830180242529,-9.218505958363821e-05,-1.5620830180242529,-0.004856956457296172,-1.5595451593399048,-0.26722997426986694,-0.0026300437439317204,0.006033464563101328,-0.19326974118381204,0.0759880319250852,-0.04914291203022003,-0.2800198793411255,1.862645149230957e-08,0.0388491153717041,-0.28001973032951355,7.450580596923828e-09,0.12684112787246704,-0.2800197899341583,7.450580596923828e-09,0,0.0,0,0.0,0,0.0,0,,,120.0,1414.2666666657092,,
1777039779.0464482,1413716740397,1.8774958449705637,0.08339588379063509,1.8756275442061379,0.0018683007644257899,1.8774958449705637,0.08339588379063509,1.8159568309783936,1.0281003713607788,0.0615390139921701,-0.0016845598026280135,-0.00026350537637812336,-0.001678656546091354,-5.903256536659565e-06,-0.0016845598026280135,-0.00026350537637812336,0.0028339559212327003,0.630313515663147,-0.004518515723860713,-0.007672994951244139,-2.4623541810407386e-05,-0.007672443315121393,-5.516361227461686e-07,-0.007672994951244139,-2.4623541810407386e-05,-0.007561447564512491,-0.07262013852596283,-0.00011154738673164761,1.5609286632858355,-0.0004195976131594305,1.5609380634445216,-9.400158686112547e-06,1.5609286632858355,-0.0004195976131594305,1.5611339807510376,0.2768825590610504,-0.00020531746520213723,-1.5624363082014885,-0.0022085625589557626,-1.5623868302305186,-4.947797096988005e-05,-1.5624363082014885,-0.0022085625589557626,-1.5606396198272705,-0.15210995078086853,-0.0017966883742179807,-0.0015948778815543007,-0.19164007860423354,0.07592743644315122,-0.04914291203022003,-0.2800198793411255,1.862645149230957e-08,0.0388491153717041,-0.28001973032951355,7.450580596923828e-09,0.12684112787246704,-0.2800197899341583,7.450580596923828e-09,0,0.0,0,0.0,0,0.0,0,,,120.0,1414.2833333323758,,
1777039779.1471813,1413733407065,1.880973281687169,1.8814820285034204e-16,1.8809675039648566,5.777722312361178e-06,1.880973281687169,1.8814820285034204e-16,1.844693899154663,5.017293930053711,0.036279382532505844,-0.0016955474345013222,-5.944905282307446e-19,-0.0016955291786735322,-1.8255827790008422e-08,-0.0016955474345013222,-5.944905282307446e-19,0.002166386693716049,-1.2759730815887451,-0.0038619341282173716,-0.007674021702259802,-5.555280343403442e-20,-0.007674019996324444,-1.7059353582538073e-09,-0.007674021702259802,-5.555280343403442e-20,-0.00727887824177742,0.08424036204814911,-0.00039514346048238197,1.5609111669289435,-9.46647882896822e-19,1.5609111959989457,-2.907000218321798e-08,1.5609111669289435,-9.46647882896822e-19,1.5610941648483276,0.2301136553287506,-0.00018299791938414245,-1.5625284007147442,-4.982704870596916e-18,-1.5625282477040616,-1.5301068256867723e-07,-1.5625284007147442,-4.982704870596916e-18,-1.561517357826233,-0.1833057403564453,-0.001011042888511282,-0.007337757318256193,-0.19034841578780384,0.07619124887371316,-0.04914291203022003,-0.2800198793411255,1.862645149230957e-08,0.0388491153717041,-0.28001973032951355,7.450580596923828e-09,0.12684112787246704,-0.2800197899341583,7.450580596923828e-09,0,0.0,0,0.0,0,0.0,0,,,120.0,1414.2999999990425,,
1777039779.2514167,1413750073732,1.880973281687169,1.8814820285034204e-16,1.880973281687169,0.0,1.880973281687169,1.8814820285034204e-16,1.8666294813156128,5.102582931518555,0.014343800371556137,-0.0016955474345013222,-5.944905282307446e-19,-0.0016955474345013222,0.0,-0.0016955474345013222,-5.944905282307446e-19,0.002838023006916046,-2.172128438949585,-0.004533570441417369,-0.007674021702259802,-5.555280343403442e-20,-0.007674021702259802,0.0,-0.007674021702259802,-5.555280343403442e-20,-0.007078459486365318,0.26174867153167725,-0.0005955622158944837,1.5609111669289435,-9.46647882896822e-19,1.5609111669289435,0.0,1.5609111669289435,-9.46647882896822e-19,1.5610047578811646,0.41612786054611206,-9.359095222105651e-05,-1.5625284007147442,-4.982704870596916e-18,-1.5625284007147442,0.0,-1.5625284007147442,-4.982704870596916e-18,-1.5621055364608765,-0.19792361557483673,-0.0004228642538677274,-0.011387865560304059,-0.1892728806576282,0.07612546691218813,-0.04914291203022003,-0.2800198793411255,1.862645149230957e-08,0.0388491153717041,-0.28001973032951355,7.450580596923828e-09,0.12684112787246704,-0.2800197899341583,7.450580596923828e-09,0,0.0,0,0.0,0,0.0,0,,,120.0,1414.3166666657091,,
1777039779.3424435,1413766740400,1.880973281687169,1.8814820285034204e-16,1.880973281687169,0.0,1.880973281687169,1.8814820285034204e-16,1.878279685974121,2.125670909881592,0.002693595713047836,-0.0016955474345013222,-5.944905282307446e-19,-0.0016955474345013222,0.0,-0.0016955474345013222,-5.944905282307446e-19,0.0018235283205285668,-3.4540412425994873,-0.0035190757550298893,-0.007674021702259802,-5.555280343403442e-20,-0.007674021702259802,0.0,-0.007674021702259802,-5.555280343403442e-20,-0.006961730308830738,0.7956135272979736,-0.000712291393429064,1.5609111669289435,-9.46647882896822e-19,1.5609111669289435,0.0,1.5609111669289435,-9.46647882896822e-19,1.5610191822052002,0.4175647795200348,-0.00010801527625670104,-1.5625284007147442,-4.982704870596916e-18,-1.5625284007147442,0.0,-1.5625284007147442,-4.982704870596916e-18,-1.5624430179595947,-0.26335781812667847,-8.53827551494657e-05,-0.013394241115500673,-0.18874187204456197,0.07630066024420894,-0.04914291203022003,-0.2800198793411255,1.862645149230957e-08,0.0388491153717041,-0.28001973032951355,7.450580596923828e-09,0.12684112787246704,-0.2800197899341583,7.450580596923828e-09,0,0.0,0,0.0,0,0.0,0,,,120.0,1414.3333333323758,,
1777039779.4370215,1413783407067,1.880973281687169,1.8814820285034204e-16,1.880973281687169,0.0,1.880973281687169,1.8814820285034204e-16,1.8818718194961548,2.8330836296081543,-0.0008985378089858553,-0.0016955474345013222,-5.944905282307446e-19,-0.0016955474345013222,0.0,-0.0016955474345013222,-5.944905282307446e-19,0.0022731360513716936,-3.0310964584350586,-0.003968683485873016,-0.007674021702259802,-5.555280343403442e-20,-0.007674021702259802,0.0,-0.007674021702259802,-5.555280343403442e-20,-0.006841189227998257,0.36765405535697937,-0.0008328324742615453,1.5609111669289435,-9.46647882896822e-19,1.5609111669289435,0.0,1.5609111669289435,-9.46647882896822e-19,1.5610154867172241,0.5251915454864502,-0.00010431978828062682,-1.5625284007147442,-4.982704870596916e-18,-1.5625284007147442,0.0,-1.5625284007147442,-4.982704870596916e-18,-1.5625296831130981,-0.2320323884487152,1.2823983539522743e-06,-0.014119385287169621,-0.18849196892235007,0.07624742869297918,-0.04914291203022003,-0.2800198793411255,1.862645149230957e-08,0.0388491153717041,-0.28001973032951355,7.450580596923828e-09,0.12684112787246704,-0.2800197899341583,7.450580596923828e-09,0,0.0,0,0.0,0,0.0,0,,,120.0,1414.3499999990424,,
1777039779.5324438,1413800073735,1.880973281687169,1.8814820285034204e-16,1.880973281687169,0.0,1.880973281687169,1.8814820285034204e-16,1.8824517726898193,-0.47815996408462524,-0.0014784910026504061,-0.0016955474345013222,-5.944905282307446e-19,-0.0016955474345013222,0.0,-0.0016955474345013222,-5.944905282307446e-19,0.002442643977701664,-1.6301265954971313,-0.004138191412202986,-0.007674021702259802,-5.555280343403442e-20,-0.007674021702259802,0.0,-0.007674021702259802,-5.555280343403442e-20,-0.0070215677842497826,0.5215362906455994,-0.0006524539180100195,1.5609111669289435,-9.46647882896822e-19,1.5609111669289435,0.0,1.5609111669289435,-9.46647882896822e-19,1.5609358549118042,0.37023550271987915,-2.468798286070495e-05,-1.5625284007147442,-4.982704870596916e-18,-1.5625284007147442,0.0,-1.5625284007147442,-4.982704870596916e-18,-1.5625193119049072,-0.1640154868364334,-9.088809836965694e-06,-0.013892172590745759,-0.18859642372876517,0.07608000770567416,-0.04914291203022003,-0.2800198793411255,1.862645149230957e-08,0.0388491153717041,-0.28001973032951355,7.450580596923828e-09,0.12684112787246704,-0.2800197899341583,7.450580596923828e-09,0,0.0,0,0.0,0,0.0,0,,,120.0,1414.366666665709,,
1777039779.623221,1413816740402,1.880973281687169,1.8814820285034204e-16,1.880973281687169,0.0,1.880973281687169,1.8814820285034204e-16,1.8827228546142578,1.3496419191360474,-0.0017495729270888827,-0.0016955474345013222,-5.944905282307446e-19,-0.0016955474345013222,0.0,-0.0016955474345013222,-5.944905282307446e-19,0.002028663642704487,-3.2125415802001953,-0.0037242110772058093,-0.007674021702259802,-5.555280343403442e-20,-0.007674021702259802,0.0,-0.007674021702259802,-5.555280343403442e-20,-0.007040153723210096,0.8551987409591675,-0.0006338679790497057,1.5609111669289435,-9.46647882896822e-19,1.5609111669289435,0.0,1.5609111669289435,-9.46647882896822e-19,1.560954213142395,0.4104001522064209,-4.304621345152526e-05,-1.5625284007147442,-4.982704870596916e-18,-1.5625284007147442,0.0,-1.5625284007147442,-4.982704870596916e-18,-1.5625457763671875,-0.2271948605775833,1.7375652443307743e-05,-0.014017072956241635,-0.18855944045466247,0.07618828575016166,-0.04914291203022003,-0.2800198793411255,1.862645149230957e-08,0.0388491153717041,-0.28001973032951355,7.450580596923828e-09,0.12684112787246704,-0.2800197899341583,7.450580596923828e-09,0,0.0,0,0.0,0,0.0,0,,,120.0,1414.3833333323757,,
