inbarajaldrin/isaac-sim-mcp/docs/notes/2026-04-24-no-collision-baseline/motion_csv/20260424T070955_drop_sweep.csv
t_wall,t_sim_ns,ref_pos_shoulder_pan,ref_vel_shoulder_pan,fb_pos_shoulder_pan,err_pos_shoulder_pan,js_pos_shoulder_pan,js_vel_shoulder_pan,isaac_pos_shoulder_pan,isaac_vel_shoulder_pan,isaac_lag_shoulder_pan,ref_pos_shoulder_lift,ref_vel_shoulder_lift,fb_pos_shoulder_lift,err_pos_shoulder_lift,js_pos_shoulder_lift,js_vel_shoulder_lift,isaac_pos_shoulder_lift,isaac_vel_shoulder_lift,isaac_lag_shoulder_lift,ref_pos_elbow_flex,ref_vel_elbow_flex,fb_pos_elbow_flex,err_pos_elbow_flex,js_pos_elbow_flex,js_vel_elbow_flex,isaac_pos_elbow_flex,isaac_vel_elbow_flex,isaac_lag_elbow_flex,ref_pos_wrist_flex,ref_vel_wrist_flex,fb_pos_wrist_flex,err_pos_wrist_flex,js_pos_wrist_flex,js_vel_wrist_flex,isaac_pos_wrist_flex,isaac_vel_wrist_flex,isaac_lag_wrist_flex,ref_pos_wrist_roll,ref_vel_wrist_roll,fb_pos_wrist_roll,err_pos_wrist_roll,js_pos_wrist_roll,js_vel_wrist_roll,isaac_pos_wrist_roll,isaac_vel_wrist_roll,isaac_lag_wrist_roll,tcp_x,tcp_y,tcp_z,cup_red_x,cup_red_y,cup_red_z,cup_green_x,cup_green_y,cup_green_z,cup_blue_x,cup_blue_y,cup_blue_z,contact_cup_red_hit,contact_cup_red_impulse_n,contact_cup_green_hit,contact_cup_green_impulse_n,contact_cup_blue_hit,contact_cup_blue_impulse_n,contact_n_events,contact_events_json,attached_lego_xyz,physics_rate_hz,sim_time_s,render_fps,app_dt_ms
1777039795.6824074,1419583407370,1.8809627883455602,-0.0006696737697816096,1.8809716515225052,-8.863176945039797e-06,1.8809716515225052,-0.00022742998641456978,1.8825641870498657,0.9894250631332397,-0.0016013987043055344,-0.0022052727209788993,-0.03253011927779517,-0.0017747344257572912,-0.00043053829522160807,-0.0017747344257572912,-0.01104765472275451,0.0018152777338400483,-2.5622315406799316,-0.004020550454818948,-0.0076438282765834455,0.0019269119361224859,-0.007669331084394749,2.5502807811303256e-05,-0.007669331084394749,0.000654404540286039,-0.007055231835693121,0.6688434481620789,-0.0005885964408903245,1.5604498576032564,-0.029440264759591987,1.5608395014681382,-0.0003896438648818279,1.5608395014681382,-0.00999829964449171,1.560957670211792,0.31347304582595825,-0.0005078126085356072,-1.5631546871097683,-0.03996892379615367,-1.562625695741305,-0.0005289913684634051,-1.562625695741305,-0.013573970201867971,-1.562538981437683,-0.19509753584861755,-0.0006157056720852427,-0.013819355477772678,-0.188614763411367,0.07622227251220631,-0.04914291203022003,-0.2800198793411255,1.862645149230957e-08,0.0388491153717041,-0.28001973032951355,7.450580596923828e-09,0.12684112787246704,-0.2800197899341583,7.450580596923828e-09,0,0.0,0,0.0,0,0.0,0,,,120.0,1420.1333333323705,,
1777039795.7595737,1419583407370,1.8808895055583237,-0.0016755043474120698,1.8809200981923102,-3.05926339865259e-05,1.8809200981923102,-0.0013939742913132286,1.882918119430542,1.4434813261032104,-0.00202861387221831,-0.005765062453588305,-0.08138941486490633,-0.0042789925527535536,-0.0014860699008347519,-0.0042789925527535536,-0.06771379141971873,0.002528756856918335,-1.6148383617401123,-0.00829381931050664,-0.007432965190983464,0.004821077772200626,-0.007520992099381106,8.802690839764243e-05,-0.007520992099381106,0.004011006286590213,-0.007086165715008974,0.41770923137664795,-0.0003467994759744899,1.557228192434385,-0.07365868848464135,1.5585731088473327,-0.0013449164129477609,1.5585731088473327,-0.061282036203080134,1.5609112977981567,0.35237109661102295,-0.0036831053637718103,-1.567528509515336,-0.10000108800000039,-1.5657026135167689,-0.0018258959985670842,-1.5657026135167689,-0.08319819998478874,-1.5625261068344116,-0.1591145545244217,-0.005002402680924334,-0.013871819683329536,-0.1885954801532428,0.07604456076634737,-0.04914291203022003,-0.2800198793411255,1.862645149230957e-08,0.0388491153717041,-0.28001973032951355,7.450580596923828e-09,0.12684112787246704,-0.2800197899341583,7.450580596923828e-09,0,0.0,0,0.0,0,0.0,0,,,120.0,1420.1499999990372,,
1777039795.854848,1419600074037,1.8806381740385887,-0.0033510243606193132,1.8807018513165052,-6.367727791656286e-05,1.8807018513165052,-0.0030158840100096298,1.8825370073318481,0.36311689019203186,-0.001898833293259461,-0.017973759709410838,-0.16277959071256068,-0.01488056786071955,-0.0030931918486912877,-0.01488056786071955,-0.14649978990027926,0.0016708218026906252,-1.8754818439483643,-0.019644581512101463,-0.006709786641717941,0.0096422006209879,-0.006893010940499669,0.00018322429878172859,-0.006893010940499669,0.00867787146390747,-0.007102189119905233,0.28414246439933777,0.00039240247818729274,1.5461791312086395,-0.1473180656705256,1.5489785180230577,-0.00279938681441827,1.5489785180230577,-0.13258459229913383,1.5609488487243652,0.3840414881706238,-0.014769717515725755,-1.5825290229195834,-0.20000311099999896,-1.5787284973748883,-0.0038005255446951214,-1.5787284973748883,-0.18000053700001745,-1.562536597251892,-0.16596820950508118,-0.019992425667691327,-0.013738529777218591,-0.18864253167179407,0.07623133918338335,-0.04914291203022003,-0.2800198793411255,1.862645149230957e-08,0.0388491153717041,-0.28001973032951355,7.450580596923828e-09,0.12684112787246704,-0.2800197899341583,7.450580596923828e-09,0,0.0,0,0.0,0,0.0,0,,,120.0,1420.1666666657038,,
1777039795.9497082,1419616740705,1.8803160057272879,-0.004693094387594248,1.8804069618554873,-9.095612819942644e-05,1.8803160057272879,-0.004693094387594248,1.882918119430542,1.897128701210022,-0.0026021137032541386,-0.0336234298432523,-0.22797207700743713,-0.029205138679763747,-0.00441829116348855,-0.0336234298432523,-0.22797207700743713,0.002354968572035432,-1.863050937652588,-0.03597839841528773,-0.005782783087880286,0.013503858148719626,-0.006044499250292334,0.00026171616241204773,-0.005782783087880286,0.013503858148719626,-0.007060606963932514,0.3168662190437317,0.0012778238760522281,1.532015935918572,-0.206318281454139,1.5360145582576812,-0.003998622339109081,1.532015935918572,-0.206318281454139,1.560810923576355,0.4204239249229431,-0.028794987657782878,-1.6017573715054894,-0.28010344800005543,-1.5963287303955482,-0.005428641109941124,-1.6017573715054894,-0.28010344800005543,-1.5626798868179321,-0.17247267067432404,-0.03907748468755723,-0.01390043185511485,-0.1886048643885253,0.07610516508415029,-0.04914291203022003,-0.2800198793411255,1.862645149230957e-08,0.0388491153717041,-0.28001973032951355,7.450580596923828e-09,0.12684112787246704,-0.2800197899341583,7.450580596923828e-09,0,0.0,0,0.0,0,0.0,0,,,120.0,1420.1833333323705,,
1777039796.0488229,1419633407372,1.879763566191219,-0.0063668823452047545,1.8798876017086206,-0.00012403551740147734,1.879763566191219,-0.0063668823452047545,1.8827167749404907,1.2289624214172363,-0.0029532087492716297,-0.0604587708904473,-0.3092781164017014,-0.05443361303313162,-0.00602515785731568,-0.0604587708904473,-0.3092781164017014,-0.0018778711091727018,-3.2543625831604004,-0.0585808997812746,-0.004193199645773019,0.018319997199724467,-0.004550098078672665,0.0003568984328996463,-0.004193199645773019,0.018319997199724467,-0.006809082813560963,0.6727277040481567,0.0026158831677879435,1.5077295341812516,-0.2799015138389476,1.5131823959129587,-0.005452861731707115,1.5077295341812516,-0.2799015138389476,1.5575850009918213,0.30220702290534973,-0.04985546681056974,-1.634729267249239,-0.3800020946961642,-1.627326310217254,-0.0074029570319851246,-1.634729267249239,-0.3800020946961642,-1.567137360572815,-0.421709269285202,-0.06759190667642412,-0.014087817682306355,-0.18922640173302013,0.07687207850085072,-0.04914291203022003,-0.2800198793411255,1.862645149230957e-08,0.0388491153717041,-0.28001973032951355,7.450580596923828e-09,0.12684112787246704,-0.2800197899341583,7.450580596923828e-09,0,0.0,0,0.0,0,0.0,0,,,120.0,1420.1999999990371,,
1777039796.1396303,1419650074040,1.87920059896346,-0.007707272498178855,1.879351410603566,-0.0001508116401061077,1.87920059896346,-0.007707272498178855,1.8828504085540771,4.670065879821777,-0.0036498095906172257,-0.08780550581609624,-0.3743890010201367,-0.08047966917351883,-0.00732583664257741,-0.08780550581609624,-0.3743890010201367,-0.012187734246253967,-3.9551730155944824,-0.07561777156984227,-0.002573323939440147,0.022176821076432835,-0.003007267693169377,0.0004339437537292301,-0.002573323939440147,0.022176821076432835,-0.006039906293153763,0.49408090114593506,0.003466582353713616,1.4829803130165116,-0.3388278788340078,1.4896103093132123,-0.006629996296700691,1.4829803130165116,-0.3388278788340078,1.5476595163345337,0.07749208807945251,-0.06467920331802213,-1.6683294995442093,-0.4600021698078582,-1.6593284318257098,-0.009001067718499511,-1.6683294995442093,-0.4600021698078582,-1.5806434154510498,-0.6258249878883362,-0.08768608409315948,-0.014963786406515628,-0.19104171758098237,0.07864409928112484,-0.04914291203022003,-0.2800198793411255,1.862645149230957e-08,0.0388491153717041,-0.28001973032951355,7.450580596923828e-09,0.12684112787246704,-0.2800197899341583,7.450580596923828e-09,0,0.0,0,0.0,0,0.0,0,,,120.0,1420.2166666657038,,
1777039796.2365277,1419666740708,1.878346082728593,-0.009382784363515785,1.8785304266392981,-0.00018434391070520917,1.878346082728593,-0.009382784363515785,1.8822344541549683,2.5360777378082275,-0.0038883714263753255,-0.1293145454409258,-0.45577878107392794,-0.12035984290652313,-0.00895470253440267,-0.1293145454409258,-0.45577878107392794,-0.0317520871758461,-3.135802984237671,-0.0975624582650797,-0.0001145483282279824,0.026997920480488193,-0.0006449774683923991,0.0005304291401644168,-0.0001145483282279824,0.026997920480488193,-0.005337361246347427,0.5498756170272827,0.005222812918119445,1.445413985452946,-0.41248689782030895,1.4535181307591756,-0.008104145306229604,1.445413985452946,-0.41248689782030895,1.5303703546524048,-0.13359171152114868,-0.08495636919945881,-1.7193305926373088,-0.5600037065060335,-1.7083281791460343,-0.01100241349127451,-1.7193305926373088,-0.5600037065060335,-1.6039386987686157,-0.8411665558815002,-0.11539189386869309,-0.015692623646790357,-0.19453449798154623,0.08186262907435209,-0.04914291203022003,-0.2800198793411255,1.862645149230957e-08,0.0388491153717041,-0.28001973032951355,7.450580596923828e-09,0.12684112787246704,-0.2800197899341583,7.450580596923828e-09,0,0.0,0,0.0,0,0.0,0,,,120.0,1420.2333333323704,,
1777039796.3326714,1419683407375,1.8773401521285837,-0.010182332549431895,1.877546194387936,-0.00020604225935216824,1.8773401521285837,-0.010182332549431895,1.8819111585617065,3.563894748687744,-0.004571006433122804,-0.17817869972135955,-0.49461768895924785,-0.16816997670491848,-0.010008723016441068,-0.17817869972135955,-0.49461768895924785,-0.060048624873161316,-4.093930244445801,-0.11813007484819824,0.0027799053111034148,0.029298531632604968,0.002187041581307976,0.0005928637297954388,0.0027799053111034148,0.029298531632604968,-0.003987038508057594,0.5907528400421143,0.006766943819161009,1.4011911645347457,-0.44763671455943377,1.410249214798662,-0.009058050263916373,1.4011911645347457,-0.44763671455943377,1.5058462619781494,-0.42463913559913635,-0.10465509744340373,-1.7793687265931077,-0.6077240771674318,-1.7670712651505345,-0.012297461442573265,-1.7793687265931077,-0.6077240771674318,-1.6372425556182861,-1.1800810098648071,-0.1421261709748216,-0.01735716047751081,-0.19904354766613067,0.08724805108174134,-0.04914291203022003,-0.2800198793411255,1.862645149230957e-08,0.0388491153717041,-0.28001973032951355,7.450580596923828e-09,0.12684112787246704,-0.2800197899341583,7.450580596923828e-09,0,0.0,0,0.0,0,0.0,0,,,120.0,1420.249999999037,,
1777039796.4295204,1419700074043,1.876412837144055,-0.008414260810835598,1.876584520535538,-0.00017168339148310174,1.876412837144055,-0.008414260810835598,1.8806774616241455,3.30130672454834,-0.004264624480090573,-0.22322401643622436,-0.40873171410923875,-0.21488431215766077,-0.008339704278563592,-0.22322401643622436,-0.40873171410923875,-0.09546094387769699,-4.231808662414551,-0.12776307255852737,0.0054481512435288456,0.024211101467632824,0.004954151342057066,0.0004939999014717793,0.0054481512435288456,0.024211101467632824,-0.002015874721109867,0.5771931409835815,0.007464025964638713,1.3604244511101609,-0.3699085692327357,1.3679720134132982,-0.007547562303137356,1.3604244511101609,-0.3699085692327357,1.4739418029785156,-0.4658365547657013,-0.11351735186835477,-1.8347147527104828,-0.502198181162371,-1.8244679718134968,-0.01024678089698594,-1.8347147527104828,-0.502198181162371,-1.680511236190796,-1.4014252424240112,-0.1542035165196869,-0.01894636628586019,-0.20485488701562304,0.09410644187161149,-0.04914291203022003,-0.2800198793411255,1.862645149230957e-08,0.0388491153717041,-0.28001973032951355,7.450580596923828e-09,0.12684112787246704,-0.2800197899341583,7.450580596923828e-09,0,0.0,0,0.0,0,0.0,0,,,120.0,1420.2666666657037,,
1777039796.5219126,1419716740710,1.8756553067436657,-0.0067390764645125405,1.8757933918839749,-0.0001380851403092187,1.8756553067436657,-0.0067390764645125405,1.8790796995162964,2.2356791496276855,-0.0034243927726307355,-0.2600218654691518,-0.32735784363967013,-0.25331423215940735,-0.006707633309744443,-0.2600218654691518,-0.32735784363967013,-0.13291522860527039,-4.331987380981445,-0.1271066368638814,0.007627860881838765,0.019390944463064795,0.007230536218584241,0.00039732466325452433,0.007627860881838765,0.019390944463064795,-0.00016495453019160777,0.649185836315155,0.007792815412030373,1.3271218244317387,-0.2962639486680219,1.3331923370807324,-0.00607051264899372,1.3271218244317387,-0.2962639486680219,1.441815733909607,-0.725088894367218,-0.11469390947786828,-1.8799273266730856,-0.4022161921625552,-1.8716858295448309,-0.008241497128254727,-1.8799273266730856,-0.4022161921625552,-1.7241572141647339,-1.352130651473999,-0.1557701125083517,-0.020311530539140994,-0.2104075656464926,0.10209962234727833,-0.04914291203022003,-0.2800198793411255,1.862645149230957e-08,0.0388491153717041,-0.28001973032951355,7.450580596923828e-09,0.12684112787246704,-0.2800197899341583,7.450580596923828e-09,0,0.0,0,0.0,0,0.0,0,,,120.0,1420.2833333323704,,
1777039796.6157615,1419733407378,1.8750650738511074,-0.005063260929084161,1.8751697018751665,-0.00010462802405908356,1.8751697018751665,-0.005398394879361632,1.8787999153137207,6.752757549285889,-0.0037348414626132698,-0.2886930592106108,-0.24595331248301563,-0.28361064108988493,-0.005082418120725851,-0.28361064108988493,-0.26223280239134134,-0.1785280555486679,-6.474663734436035,-0.11016500366194287,0.009326190512035011,0.01456897128182058,0.009025134986921191,0.0003010555251138202,0.009025134986921191,0.015533282022597527,0.0030609876848757267,0.2160128951072693,0.006265202827159285,1.3011739474038677,-0.2225915797038545,1.3057736149862507,-0.004599667582382949,1.3057736149862507,-0.23732477170230848,1.3996976613998413,-0.6097794771194458,-0.0985237139959736,-1.9151548875686115,-0.3021965311623161,-1.9089102506881632,-0.0062446368804482955,-1.9089102506881632,-0.32219872316259196,-1.7815372943878174,-1.726714849472046,-0.13361759318079414,-0.02293807483732425,-0.21677571171970603,0.11261485705103196,-0.04914291203022003,-0.2800198793411255,1.862645149230957e-08,0.0388491153717041,-0.28001973032951355,7.450580596923828e-09,0.12684112787246704,-0.2800197899341583,7.450580596923828e-09,0,0.0,0,0.0,0,0.0,0,,,120.0,1420.299999999037,,
1777039796.7097907,1419750074045,1.8746425271085214,-0.0033877997589395266,1.874713640438392,-7.111332987053132e-05,1.874713640438392,-0.0037229256166237514,1.8766077756881714,3.9594333171844482,-0.0019652485796499697,-0.3092187189531605,-0.16456599500035649,-0.30576431293136425,-0.0034544060217962524,-0.30576431293136425,-0.18084509180195416,-0.22380295395851135,-4.468740463256836,-0.08541576499464915,0.010542021859499687,0.00974801774743342,0.010337401146652925,0.00020462071284676163,0.010337401146652925,0.010712305202650272,0.004977671895176172,0.5589073300361633,0.005564349964323515,1.28259790555091,-0.14893478938283122,1.285724196819637,-0.0031262912687268773,1.285724196819637,-0.16366762561356746,1.3601411581039429,-0.8151652216911316,-0.07754325255303285,-1.9403742396130979,-0.20219802016214347,-1.9361298994719778,-0.004244340141120073,-1.9361298994719778,-0.22219972916224578,-1.8350024223327637,-1.5833029747009277,-0.10537181728033418,-0.023849309830218407,-0.22265154980173654,0.12364974124659366,-0.04914291203022003,-0.2800198793411255,1.862645149230957e-08,0.0388491153717041,-0.28001973032951355,7.450580596923828e-09,0.12684112787246704,-0.2800197899341583,7.450580596923828e-09,0,0.0,0,0.0,0,0.0,0,,,120.0,1420.3166666657037,,
1777039796.8069384,1419766740713,1.8743441984281135,-0.0033401982409867054,1.8744087485764087,-6.4550148295206e-05,1.8744087485764087,-0.0030810489682079278,1.8749228715896606,0.4973808228969574,-0.0005786731615471385,-0.32212440224893457,-0.10224303577087003,-0.3199781163745018,-0.002146285874432774,-0.3199781163745018,-0.11188158205399276,-0.2563362717628479,-1.4583406448364258,-0.06578813048608667,0.01159857200789786,0.0171085449636117,0.011289236065941175,0.00030933594195668365,0.011289236065941175,0.01358591824281585,0.006618474144488573,-0.05358362942934036,0.004980097863409286,1.2685251386134564,-0.18307711406623856,1.2719602509936943,-0.003435112380237859,1.2719602509936943,-0.15826350286799346,1.3318040370941162,-0.7090675234794617,-0.06327889848065982,-1.9558135416899638,-0.10982261835757944,-1.953436939195099,-0.0023766024948648212,-1.953436939195099,-0.12751761136072634,-1.8734101057052612,-1.0625115633010864,-0.08240343598470257,-0.02484328233445535,-0.22629580208417804,0.13229401076079084,-0.04914291203022003,-0.2800198793411255,1.862645149230957e-08,0.0388491153717041,-0.28001973032951355,7.450580596923828e-09,0.12684112787246704,-0.2800197899341583,7.450580596923828e-09,0,0.0,0,0.0,0,0.0,0,,,120.0,1420.3333333323703,,
1777039796.9045982,1419783407380,1.8740111940195405,-0.003232875084849589,1.874076538558972,-6.534453943141116e-05,1.874076538558972,-0.003297405025407431,1.8758479356765747,1.3918089866638184,-0.00183674165703418,-0.3290056140217694,-0.03442256021063224,-0.3281772826008666,-0.0008283314209028281,-0.3281772826008666,-0.048378111521100754,-0.2825433909893036,-1.5088039636611938,-0.04646222303246583,0.013718014980991854,0.024621622986220545,0.013236912163221126,0.0004811028177707285,0.013236912163221126,0.023455375185102368,0.0090363509953022,-0.1711379438638687,0.004681663985689654,1.2482732604641127,-0.2161617248273276,1.2525623889093256,-0.0042891284452128975,1.2525623889093256,-0.212464813805134,1.3059030771255493,-0.6219891309738159,-0.05762981666143663,-1.9618209850656139,-0.010008908806671848,-1.961420896509413,-0.00040008855620077277,-1.961420896509413,-0.030004885441132004,-1.908735990524292,-0.8532888293266296,-0.05308499454132187,-0.026439270057921176,-0.22911028100206812,0.13942170577169716,-0.04914291203022003,-0.2800198793411255,1.862645149230957e-08,0.0388491153717041,-0.28001973032951355,7.450580596923828e-09,0.12684112787246704,-0.2800197899341583,7.450580596923828e-09,0,0.0,0,0.0,0,0.0,0,,,120.0,1420.349999999037,,
1777039797.002628,1419800074048,1.8737200202675888,-0.0024544471772779118,1.8737716312785337,-5.161101094497411e-05,1.8737716312785337,-0.0026747667144162096,1.8748875856399536,-0.04296792298555374,-0.0011675653723648427,-0.32881555840058535,0.039331579172420056,-0.32945135759457284,0.0006357991939874852,-0.32945135759457284,0.023974664802732987,-0.30447080731391907,-1.1726574897766113,-0.024344751086666283,0.016346684928223422,0.026872131045745127,0.015805523560865512,0.0005411613673579098,0.015805523560865512,0.02692454156515972,0.010367260314524174,-0.1294853389263153,0.005979424613699248,1.2268175713205902,-0.20364200750440117,1.2309841868108633,-0.0041666154902730845,1.2309841868108633,-0.2105171922739621,1.2862972021102905,-0.4363340139389038,-0.05947963078970031,-1.9578132985516932,0.09007420511922079,-1.9594220020497355,0.0016087034980423187,-1.9594220020497355,0.06997998900084085,-1.9353572130203247,-0.6390746831893921,-0.022456085531368464,-0.02661232006496693,-0.23118414957137684,0.14552770091512512,-0.04914291203022003,-0.2800198793411255,1.862645149230957e-08,0.0388491153717041,-0.28001973032951355,7.450580596923828e-09,0.12684112787246704,-0.2800197899341583,7.450580596923828e-09,0,0.0,0,0.0,0,0.0,0,,,120.0,1420.3666666657036,,
1777039797.0967476,1419816740715,1.8735623953158491,-0.0017273523559439604,1.87359656619445,-3.417087860091428e-05,1.87359656619445,-0.001718187615936831,1.8747050762176514,0.5125412940979004,-0.001142680901802251,-0.3232231499352198,0.09781603849239459,-0.3250585957673145,0.0018354458320947176,-0.3250585957673145,0.08541033562841731,-0.3184320330619812,-1.023045539855957,-0.004791116873238577,0.018455537047838397,0.02767414635169347,0.017920521070956364,0.0005350159768820334,0.017920521070956364,0.02604223642556801,0.011622477322816849,0.01929418556392193,0.006833059725021549,1.2118880541447539,-0.1856646621761902,1.2155007915629705,-0.0036127374182166605,1.2155007915629705,-0.17750227627701118,1.2709933519363403,-0.3978483974933624,-0.059105297791586464,-1.9474535392399237,0.1680319081258331,-1.9506290239351707,0.0031754846952469773,-1.9506290239351707,0.1494057058407909,-1.9524593353271484,-0.39821887016296387,0.005005796087224734,-0.02707440429252036,-0.23271680037327408,0.14958866077330285,-0.04914291203022003,-0.2800198793411255,1.862645149230957e-08,0.0388491153717041,-0.28001973032951355,7.450580596923828e-09,0.12684112787246704,-0.2800197899341583,7.450580596923828e-09,0,0.0,0,0.0,0,0.0,0,,,120.0,1420.3833333323703,,
1777039797.1898232,1419833407383,1.8733948492366648,-0.00249392611469853,1.8734428663907934,-4.801715412861007e-05,1.8733948492366648,-0.00249392611469853,1.8748142719268799,0.4778338074684143,-0.0014194226902151108,-0.3137213797877844,0.1393681800026607,-0.3164047244708507,0.002683344683066302,-0.3137213797877844,0.1393681800026607,-0.32573214173316956,-0.5132337212562561,0.01201076194538514,0.02114156666220444,0.039723498720247476,0.020376744741722075,0.0007648219204823663,0.02114156666220444,0.039723498720247476,0.013735121116042137,0.038403186947107315,0.007406445546162304,1.193870881736932,-0.2669385414982972,1.1990104201596998,-0.005139538422767931,1.193870881736932,-0.2669385414982972,1.2515286207199097,-0.5396413207054138,-0.05765773898297777,-1.9311342226029995,0.23983113932930342,-1.935751844879051,0.004617622276051447,-1.9311342226029995,0.23983113932930342,-1.9600739479064941,-0.12350521981716156,0.028939725303494646,-0.027693238382920003,-0.2347919545531878,0.15244450734629825,-0.04914291203022003,-0.2800198793411255,1.862645149230957e-08,0.0388491153717041,-0.28001973032951355,7.450580596923828e-09,0.12684112787246704,-0.2800197899341583,7.450580596923828e-09,0,0.0,0,0.0,0,0.0,0,,,120.0,1420.399999999037,,
1777039797.2810307,1419850074050,1.8731654686624004,-0.003241252232457102,1.8732283990890062,-6.293042660576731e-05,1.8731654686624004,-0.003241252232457102,1.8746657371520996,-0.09385897219181061,-0.001500268489699197,-0.3009028953207649,0.1811310374852468,-0.30441963904910846,0.003516743728343541,-0.3009028953207649,0.1811310374852468,-0.3270818889141083,-0.004426237195730209,0.026178993593343358,0.02479516285117285,0.05162698211030473,0.023792800870198114,0.0010023619809747357,0.02479516285117285,0.05162698211030473,0.015877416357398033,0.04716905578970909,0.008917746493774817,1.1693190252961028,-0.3469289400598293,1.1760548127739152,-0.006735787477812449,1.1693190252961028,-0.3469289400598293,1.2338533401489258,-0.5017808675765991,-0.06453431485282302,-1.9090755881705048,0.3116985748624712,-1.9151273616462154,0.00605177347571062,-1.9090755881705048,0.3116985748624712,-1.9591761827468872,0.0996122658252716,0.050100594576382385,-0.02818663847831087,-0.236767244365608,0.15392771671716532,-0.04914291203022003,-0.2800198793411255,1.862645149230957e-08,0.0388491153717041,-0.28001973032951355,7.450580596923828e-09,0.12684112787246704,-0.2800197899341583,7.450580596923828e-09,0,0.0,0,0.0,0,0.0,0,,,120.0,1420.4166666657036,,
1777039797.3835087,1419866740718,1.8727092116742392,-0.004362460075681391,1.8727945885788055,-8.537690456633662e-05,1.8727092116742392,-0.004362460075681391,1.8746042251586914,-1.654411792755127,-0.0018950134844522015,-0.27540586648792703,0.24378754346329395,-0.28017698770658794,0.004771121218660912,-0.27540586648792703,0.24378754346329395,-0.3218829333782196,1.3974801301956177,0.04647706689029257,0.032062468718207796,0.0694856901381038,0.03070257704408244,0.0013598916741253547,0.032062468718207796,0.0694856901381038,0.018273519352078438,-0.018710076808929443,0.013788949366129358,1.120483346383975,-0.46693794298168806,1.1296217030690996,-0.009138356685124638,1.120483346383975,-0.46693794298168806,1.2151027917861938,-0.48911887407302856,-0.0946194454022189,-1.8651991346330177,0.41952075647379905,-1.8734094982736118,0.008210363640594132,-1.8651991346330177,0.41952075647379905,-1.94881010055542,0.22130680084228516,0.08361096592240225,-0.028606554907890082,-0.23917645573272517,0.153703471928627,-0.04914291203022003,-0.2800198793411255,1.862645149230957e-08,0.0388491153717041,-0.28001973032951355,7.450580596923828e-09,0.12684112787246704,-0.2800197899341583,7.450580596923828e-09,0,0.0,0,0.0,0,0.0,0,,,120.0,1420.4333333323702,,
1777039797.4760382,1419883407386,1.872330309474117,-0.005109891047505639,1.872430654968147,-0.00010034549403004078,1.872330309474117,-0.005109891047505639,1.874753713607788,-1.5103907585144043,-0.0024234041336710366,-0.2542316585918634,0.28555626051046595,-0.2598392701374589,0.00560761154559547,-0.2542316585918634,0.28555626051046595,-0.30968359112739563,0.973808765411377,0.05545193253553221,0.03809765996663678,0.08139084365405033,0.03649934713761901,0.0015983128290177687,0.03809765996663678,0.08139084365405033,0.021982453763484955,0.23072463274002075,0.01611520620315182,1.0799273731837153,-0.5469395646475104,1.0906678998035049,-0.010740526619789525,1.0799273731837153,-0.5469395646475104,1.192000389099121,-0.6811724901199341,-0.11207301591540575,-1.8287615891042506,0.4913982754135934,-1.8384114235633833,0.0096498344591327,-1.8287615891042506,0.4913982754135934,-1.9291397333145142,0.5436453819274902,0.10037814421026359,-0.0292766146199829,-0.2421606332731412,0.15206324391619758,-0.04914291203022003,-0.2800198793411255,1.862645149230957e-08,0.0388491153717041,-0.28001973032951355,7.450580596923828e-09,0.12684112787246704,-0.2800197899341583,7.450580596923828e-09,0,0.0,0,0.0,0,0.0,0,,,120.0,1420.449999999037,,
1777039797.5708258,1419900074053,1.871772624044657,-0.00604413339517853,1.871891643681565,-0.00011901963690785777,1.871772624044657,-0.00604413339517853,1.874853253364563,0.3623296022415161,-0.0030806293199059365,-0.2230664998248148,0.3377645656840597,-0.22971767929733922,0.0066511794725244155,-0.2230664998248148,0.3377645656840597,-0.2925700545310974,0.8648849725723267,0.06950355470628261,0.04698052795253948,0.09627154700907681,0.0450847715520475,0.0018957564004919783,0.04698052795253948,0.09627154700907681,0.026791905984282494,0.18281081318855286,0.020188621968256985,1.0202352538873312,-0.6469366288042712,1.032974576074112,-0.012739322186780866,1.0202352538873312,-0.6469366288042712,1.1598032712936401,-0.9295082688331604,-0.13956801740630898,-1.775131158296178,0.5812407151440656,-1.7865768121803618,0.011445653884183837,-1.775131158296178,0.5812407151440656,-1.9004355669021606,0.7650136947631836,0.1253044086059827,-0.03064909645942547,-0.24597671755721162,0.15023347980264948,-0.04914291203022003,-0.2800198793411255,1.862645149230957e-08,0.0388491153717041,-0.28001973032951355,7.450580596923828e-09,0.12684112787246704,-0.2800197899341583,7.450580596923828e-09,0,0.0,0,0.0,0,0.0,0,,,120.0,1420.4666666657035,,
1777039797.66583,1419916740721,1.871102495128695,-0.005026512875980511,1.8712048602163327,-0.00010236508763772356,1.8712048602163327,-0.005213306421367111,1.8747528791427612,0.5745675563812256,-0.0036503840140662547,-0.18561765688021947,0.280896834576004,-0.19133812946190198,0.005720472581682512,-0.19133812946190198,0.29133542628222714,-0.27440524101257324,0.8181870579719543,0.08878758413235377,0.05765440677305629,0.08006278799499557,0.05602392565983995,0.0016304811132163421,0.05602392565983995,0.0830380538288138,0.031926605850458145,0.20915323495864868,0.025727800922598146,0.9485076937208845,-0.5380151432828874,0.9594643884815262,-0.01095669476064165,0.9594643884815262,-0.5580086772825564,1.1256071329116821,-0.9973306655883789,-0.17709943919079763,-1.7106874763180195,0.48338012212737486,-1.7205315272107033,0.009844050892683809,-1.7205315272107033,0.5013433282325934,-1.869748830795288,0.8784965872764587,0.15906135447726855,-0.031708149549078066,-0.24999173302374988,0.14826204781438718,-0.04914291203022003,-0.2800198793411255,1.862645149230957e-08,0.0388491153717041,-0.28001973032951355,7.450580596923828e-09,0.12684112787246704,-0.2800197899341583,7.450580596923828e-09,0,0.0,0,0.0,0,0.0,0,,,120.0,1420.4833333323702,,
1777039797.7639503,1419933407388,1.8707302548475166,-0.004279062374790212,1.8708177083859374,-8.745353842076753e-05,1.8707302548475166,-0.004279062374790212,1.8738899230957031,0.37476861476898193,-0.0031596682481864757,-0.16481573728615745,0.23912702616863185,-0.16970290712360808,0.004887169837450633,-0.16481573728615745,0.23912702616863185,-0.2491939663887024,1.3590025901794434,0.08437822910254494,0.06358348632591859,0.06815732341345664,0.06219051782493154,0.0013929685009870518,0.06358348632591859,0.06815732341345664,0.03900260105729103,0.2874666452407837,0.02458088526862756,0.908664782112957,-0.45801143128266975,0.9180254122685526,-0.009360630155595628,0.908664782112957,-0.45801143128266975,1.0767148733139038,-1.3720396757125854,-0.16805009120094683,-1.6748905815290862,0.41150072512502467,-1.683300646941358,0.00841006541227185,-1.6748905815290862,0.41150072512502467,-1.8258494138717651,1.2737430334091187,0.15095883234267893,-0.03286505965649783,-0.255715750991358,0.14555849168833895,-0.04914291203022003,-0.2800198793411255,1.862645149230957e-08,0.0388491153717041,-0.28001973032951355,7.450580596923828e-09,0.12684112787246704,-0.2800197899341583,7.450580596923828e-09,0,0.0,0,0.0,0,0.0,0,,,120.0,1420.4999999990368,,
1777039797.8603232,1419950074056,1.8703490553825315,-0.0033447738382816,1.870417815916669,-6.876053413740202e-05,1.870417815916669,-0.0035316185816697955,1.8738179206848145,0.6458850502967834,-0.003468865302282964,-0.14351315123926797,0.1869161398224269,-0.1473556991168207,0.0038425478775527266,-0.1473556991168207,0.19735759262779454,-0.21758884191513062,1.7579905986785889,0.07407569067586264,0.06965526863343971,0.05327588435816546,0.06856004413030321,0.0010952245031364966,0.06856004413030321,0.05625196567847704,0.04785756394267082,0.28596851229667664,0.021797704690768888,0.8678629200997624,-0.3580094232825425,0.8752227358486075,-0.007359815748845144,0.8752227358486075,-0.3780084372822033,1.0171996355056763,-1.626258134841919,-0.14933671540591387,-1.638232117005919,0.3216538435946505,-1.64484454916499,0.0066124321590708135,-1.64484454916499,0.3396219732101706,-1.772384524345398,1.5438017845153809,0.13415240733947886,-0.034808821342393874,-0.2623658234537709,0.1417648056978132,-0.04914291203022003,-0.2800198793411255,1.862645149230957e-08,0.0388491153717041,-0.28001973032951355,7.450580596923828e-09,0.12684112787246704,-0.2800197899341583,7.450580596923828e-09,0,0.0,0,0.0,0,0.0,0,,,120.0,1420.5166666657035,,
1777039797.9572618,1419966740723,1.8701111469492377,-0.0025965551897094187,1.8701650841461548,-5.393719691704213e-05,1.8701111469492377,-0.0025965551897094187,1.8741023540496826,0.859063982963562,-0.003991207100444871,-0.1302181040602804,0.14510340500870808,-0.13323227874842647,0.0030141746881460763,-0.1302181040602804,0.14510340500870808,-0.18611449003219604,1.3104496002197266,0.05589638597191565,0.07344469739393622,0.04135818465202493,0.07258558045372158,0.0008591169402146354,0.07344469739393622,0.04135818465202493,0.05675577372312546,0.3365972638130188,0.016688923670810762,0.8423982803014789,-0.27792349228300883,0.8481714732574285,-0.00577319295594958,0.8423982803014789,-0.27792349228300883,0.9589048624038696,-1.5500472784042358,-0.11650658210239073,-1.6153533916590532,0.2497005768686679,-1.6205403213411504,0.005186929682097219,-1.6153533916590532,0.2497005768686679,-1.7199809551239014,1.4305603504180908,0.10462756346484814,-0.03693545186020889,-0.26848515097514014,0.13792294545421208,-0.04914291203022003,-0.2800198793411255,1.862645149230957e-08,0.0388491153717041,-0.28001973032951355,7.450580596923828e-09,0.12684112787246704,-0.2800197899341583,7.450580596923828e-09,0,0.0,0,0.0,0,0.0,0,,,120.0,1420.5333333323701,,
1777039798.052347,1419983407391,1.8698669449984422,-0.0014761737074919566,1.8698983629082786,-3.1417909836406466e-05,1.8698983629082786,-0.0016631731380014273,1.8738149404525757,0.29428160190582275,-0.0039479954541334905,-0.116571355973203,0.08249307859138036,-0.11832708437587118,0.0017557284026681746,-0.11832708437587118,0.09294317577971035,-0.15972137451171875,0.9164634346961975,0.043150018538515744,0.07733436991575728,0.023512638981088768,0.07683394237946344,0.0005004275362938404,0.07683394237946344,0.02649118417181463,0.0643475279211998,0.3723350763320923,0.012986841994557477,0.8162600109311718,-0.15800293928260342,0.8196228415218167,-0.003362830590644905,0.8196228415218167,-0.17801851028247048,0.9088301062583923,-1.3453015089035034,-0.09257009532722049,-1.5918694433015366,0.14195786315767572,-1.5948907810499149,0.0030213377483783166,-1.5948907810499149,0.15994086842276883,-1.6749660968780518,1.2198052406311035,0.08309665357651519,-0.03838814307462346,-0.2735961369356485,0.1347441094524453,-0.04914291203022003,-0.2800198793411255,1.862645149230957e-08,0.0388491153717041,-0.28001973032951355,7.450580596923828e-09,0.12684112787246704,-0.2800197899341583,7.450580596923828e-09,0,0.0,0,0.0,0,0.0,0,,,120.0,1420.5499999990368,,
1777039798.1532664,1420000074058,1.8697787536051353,-0.0007288331417726507,1.869795202644335,-1.6449039199617488e-05,1.8697787536051353,-0.0007288331417726507,1.8733857870101929,-0.7720383405685425,-0.003607033405057525,-0.11164295255950554,0.0407294137155681,-0.11256217492243276,0.0009192223629272134,-0.11164295255950554,0.0407294137155681,-0.14143237471580505,1.0874004364013672,0.02978942215629951,0.07873909104143408,0.011608925463298041,0.07847708913858467,0.00026200190284940417,0.07873909104143408,0.011608925463298041,0.06971614807844162,0.2603645324707031,0.009022942962992456,0.8068204041346814,-0.07801099428224856,0.8085810346951704,-0.0017606305604890293,0.8068204041346814,-0.07801099428224856,0.8739370107650757,-1.0037832260131836,-0.06711660663039432,-1.5833884212650933,0.07008903822546764,-1.5849702611556167,0.0015818398905234066,-1.5833884212650933,0.07008903822546764,-1.6435847282409668,0.8650754690170288,0.060196306975873526,-0.03951390967091795,-0.27700479187455984,0.1325620081703165,-0.04914291203022003,-0.2800198793411255,1.862645149230957e-08,0.0388491153717041,-0.28001973032951355,7.450580596923828e-09,0.12684112787246704,-0.2800197899341583,7.450580596923828e-09,0,0.0,0,0.0,0,0.0,0,,,120.0,1420.5666666657035,,
1777039798.2490864,1420016740726,1.8697503251061045,-1.3022931434143436e-18,1.8697503251061045,0.0,1.8697503251061045,-1.3022931434143436e-18,1.8723301887512207,0.3072439730167389,-0.0025798636451161983,-0.11005428152925276,7.277610357335305e-17,-0.11005428152925276,0.0,-0.11005428152925276,7.277610357335305e-17,-0.12437465786933899,0.7571390867233276,0.014320376340086233,0.07919190295040744,2.0743052374691862e-17,0.07919190295040744,0.0,0.07919190295040744,2.0743052374691862e-17,0.07465686649084091,0.16734610497951508,0.00453503645956653,0.8037775465202089,-1.393915522426201e-16,0.8037775465202089,0.0,0.8037775465202089,-1.393915522426201e-16,0.8389412760734558,-0.9000561833381653,-0.03516372955324687,-1.5806545634849485,1.252364480587391e-16,-1.5806545634849485,0.0,-1.5806545634849485,1.252364480587391e-16,-1.6121703386306763,0.8320296406745911,0.03151577514572779,-0.03999875005271969,-0.2805413200005563,0.13066129758613865,-0.04914291203022003,-0.2800198793411255,1.862645149230957e-08,0.0388491153717041,-0.28001973032951355,7.450580596923828e-09,0.12684112787246704,-0.2800197899341583,7.450580596923828e-09,0,0.0,0,0.0,0,0.0,0,,,120.0,1420.58333333237,,
1777039798.3482318,1420033407393,1.8697503251061045,-1.3022931434143436e-18,1.8697503251061045,0.0,1.8697503251061045,-1.3022931434143436e-18,1.8726404905319214,-0.18610110878944397,-0.002890165425816882,-0.11005428152925276,7.277610357335305e-17,-0.11005428152925276,0.0,-0.11005428152925276,7.277610357335305e-17,-0.1135643795132637,0.5561316609382629,0.003510097984010946,0.07919190295040744,2.0743052374691862e-17,0.07919190295040744,0.0,0.07919190295040744,2.0743052374691862e-17,0.07785481959581375,0.13639232516288757,0.0013370833545936905,0.8037775465202089,-1.393915522426201e-16,0.8037775465202089,0.0,0.8037775465202089,-1.393915522426201e-16,0.8199008107185364,-0.544282853603363,-0.016123264198327436,-1.5806545634849485,1.252364480587391e-16,-1.5806545634849485,0.0,-1.5806545634849485,1.252364480587391e-16,-1.595017433166504,0.4459752142429352,0.014362869681555424,-0.04082487770454579,-0.28222783689228137,0.12917424014332865,-0.04914291203022003,-0.2800198793411255,1.862645149230957e-08,0.0388491153717041,-0.28001973032951355,7.450580596923828e-09,0.12684112787246704,-0.2800197899341583,7.450580596923828e-09,0,0.0,0,0.0,0,0.0,0,,,120.0,1420.5999999990368,,
1777039798.443647,1420050074061,1.8697503251061045,-1.3022931434143436e-18,1.8697503251061045,0.0,1.8697503251061045,-1.3022931434143436e-18,1.872096300125122,-0.6801158785820007,-0.0023459750190175654,-0.11005428152925276,7.277610357335305e-17,-0.11005428152925276,0.0,-0.11005428152925276,7.277610357335305e-17,-0.10808257758617401,0.3873768746852875,-0.0019717039430787453,0.07919190295040744,2.0743052374691862e-17,0.07919190295040744,0.0,0.07919190295040744,2.0743052374691862e-17,0.07953456044197083,0.05828618258237839,-0.00034265749156338343,0.8037775465202089,-1.393915522426201e-16,0.8037775465202089,0.0,0.8037775465202089,-1.393915522426201e-16,0.8080281019210815,-0.34469175338745117,-0.004250555400872602,-1.5806545634849485,1.252364480587391e-16,-1.5806545634849485,0.0,-1.5806545634849485,1.252364480587391e-16,-1.5843597650527954,0.2674546241760254,0.0037052015678469274,-0.04108916475815527,-0.28334192056561375,0.1286709377975622,-0.04914291203022003,-0.2800198793411255,1.862645149230957e-08,0.0388491153717041,-0.28001973032951355,7.450580596923828e-09,0.12684112787246704,-0.2800197899341583,7.450580596923828e-09,0,0.0,0,0.0,0,0.0,0,,,120.0,1420.6166666657034,,
1777039798.5395656,1420066740728,1.8697503251061045,-1.3022931434143436e-18,1.8697503251061045,0.0,1.8697503251061045,-1.3022931434143436e-18,1.8718781471252441,-0.09293109178543091,-0.0021278220191396358,-0.11005428152925276,7.277610357335305e-17,-0.11005428152925276,0.0,-0.11005428152925276,7.277610357335305e-17,-0.10663297772407532,0.035609759390354156,-0.003421303805177439,0.07919190295040744,2.0743052374691862e-17,0.07919190295040744,0.0,0.07919190295040744,2.0743052374691862e-17,0.08004564046859741,-0.00863291323184967,-0.0008537375181899703,0.8037775465202089,-1.393915522426201e-16,0.8037775465202089,0.0,0.8037775465202089,-1.393915522426201e-16,0.8046998977661133,-0.08194082230329514,-0.0009223512459043404,-1.5806545634849485,1.252364480587391e-16,-1.5806545634849485,0.0,-1.5806545634849485,1.252364480587391e-16,-1.581368327140808,0.06821008026599884,0.0007137636558596228,-0.04118524721500717,-0.28362210899060863,0.12858055884240804,-0.04914291203022003,-0.2800198793411255,1.862645149230957e-08,0.0388491153717041,-0.28001973032951355,7.450580596923828e-09,0.12684112787246704,-0.2800197899341583,7.450580596923828e-09,0,0.0,0,0.0,0,0.0,0,,,120.0,1420.63333333237,,
1777039798.6344335,1420083407396,1.8697503251061045,-1.3022931434143436e-18,1.8697503251061045,0.0,1.8697503251061045,-1.3022931434143436e-18,1.8715029954910278,-0.012308232486248016,-0.0017526703849233272,-0.11005428152925276,7.277610357335305e-17,-0.11005428152925276,0.0,-0.11005428152925276,7.277610357335305e-17,-0.10676949471235275,-0.27288147807121277,-0.003284786816900004,0.07919190295040744,2.0743052374691862e-17,0.07919190295040744,0.0,0.07919190295040744,2.0743052374691862e-17,0.08006896823644638,0.02086082473397255,-0.0008770652860389389,0.8037775465202089,-1.393915522426201e-16,0.8037775465202089,0.0,0.8037775465202089,-1.393915522426201e-16,0.8040520548820496,-0.04082787036895752,-0.00027450836184061966,-1.5806545634849485,1.252364480587391e-16,-1.5806545634849485,0.0,-1.5806545634849485,1.252364480587391e-16,-1.5807925462722778,0.013864802196621895,0.00013798278732934932,-0.0410860830801959,-0.2837105263532852,0.1286995405006227,-0.04914291203022003,-0.2800198793411255,1.862645149230957e-08,0.0388491153717041,-0.28001973032951355,7.450580596923828e-09,0.12684112787246704,-0.2800197899341583,7.450580596923828e-09,0,0.0,0,0.0,0,0.0,0,,,120.0,1420.6499999990367,,
1777039798.727353,1420100074063,1.8697503251061045,-1.3022931434143436e-18,1.8697503251061045,0.0,1.8697503251061045,-1.3022931434143436e-18,1.8714016675949097,0.20117667317390442,-0.001651342488805163,-0.11005428152925276,7.277610357335305e-17,-0.11005428152925276,0.0,-0.11005428152925276,7.277610357335305e-17,-0.10685690492391586,-0.1301640421152115,-0.0031973766053368935,0.07919190295040744,2.0743052374691862e-17,0.07919190295040744,0.0,0.07919190295040744,2.0743052374691862e-17,0.08006062358617783,0.056500133126974106,-0.0008687206357703842,0.8037775465202089,-1.393915522426201e-16,0.8037775465202089,0.0,0.8037775465202089,-1.393915522426201e-16,0.8039257526397705,-0.04304429143667221,-0.00014820611956156693,-1.5806545634849485,1.252364480587391e-16,-1.5806545634849485,0.0,-1.5806545634849485,1.252364480587391e-16,-1.5806831121444702,0.0047198450192809105,2.8548659521732134e-05,-0.04102980230080666,-0.2837333366668419,0.12873638800344714,-0.04914291203022003,-0.2800198793411255,1.862645149230957e-08,0.0388491153717041,-0.28001973032951355,7.450580596923828e-09,0.12684112787246704,-0.2800197899341583,7.450580596923828e-09,0,0.0,0,0.0,0,0.0,0,,,120.0,1420.6666666657034,,
