inbarajaldrin/isaac-sim-mcp/docs/notes/2026-04-24-no-collision-baseline/motion_csv/20260424T070805_drop_sweep.csv
t_wall,t_sim_ns,ref_pos_shoulder_pan,ref_vel_shoulder_pan,fb_pos_shoulder_pan,err_pos_shoulder_pan,js_pos_shoulder_pan,js_vel_shoulder_pan,isaac_pos_shoulder_pan,isaac_vel_shoulder_pan,isaac_lag_shoulder_pan,ref_pos_shoulder_lift,ref_vel_shoulder_lift,fb_pos_shoulder_lift,err_pos_shoulder_lift,js_pos_shoulder_lift,js_vel_shoulder_lift,isaac_pos_shoulder_lift,isaac_vel_shoulder_lift,isaac_lag_shoulder_lift,ref_pos_elbow_flex,ref_vel_elbow_flex,fb_pos_elbow_flex,err_pos_elbow_flex,js_pos_elbow_flex,js_vel_elbow_flex,isaac_pos_elbow_flex,isaac_vel_elbow_flex,isaac_lag_elbow_flex,ref_pos_wrist_flex,ref_vel_wrist_flex,fb_pos_wrist_flex,err_pos_wrist_flex,js_pos_wrist_flex,js_vel_wrist_flex,isaac_pos_wrist_flex,isaac_vel_wrist_flex,isaac_lag_wrist_flex,ref_pos_wrist_roll,ref_vel_wrist_roll,fb_pos_wrist_roll,err_pos_wrist_roll,js_pos_wrist_roll,js_vel_wrist_roll,isaac_pos_wrist_roll,isaac_vel_wrist_roll,isaac_lag_wrist_roll,tcp_x,tcp_y,tcp_z,cup_red_x,cup_red_y,cup_red_z,cup_green_x,cup_green_y,cup_green_z,cup_blue_x,cup_blue_y,cup_blue_z,contact_cup_red_hit,contact_cup_red_impulse_n,contact_cup_green_hit,contact_cup_green_impulse_n,contact_cup_blue_hit,contact_cup_blue_impulse_n,contact_n_events,contact_events_json,attached_lego_xyz,physics_rate_hz,sim_time_s,render_fps,app_dt_ms
1777039685.0875962,1384350072199,1.5727139406367485,-0.01201219429232005,1.5728729726867514,-0.0001590320500028941,1.5728729726867514,-0.004084192027628204,1.574796199798584,-0.07233553379774094,-0.0020822591618354647,0.011816913144699147,-0.03999757783048174,0.012346449767462252,-0.0005295366227631056,0.012346449767462252,-0.01359932952500894,0.015758687630295753,0.030111059546470642,-0.003941774485596607,-0.01331565710338317,-0.0009731673380816951,-0.013302773129564176,-1.2883973818994185e-05,-0.013302773129564176,-0.00033088061906247216,-0.012827640399336815,0.0011388882994651794,-0.00048801670404635504,1.567914319765425,-0.0025603902153472206,1.567948217327756,-3.3897562330853503e-05,1.567948217327756,-0.0008705424713130449,1.5679548978805542,-0.02195931226015091,-4.057811512914178e-05,-1.5739769815985207,-0.0005886983815960706,-1.5739691876927464,-7.793905774322596e-06,-1.5739691876927464,-0.00020015970257270733,-1.5739659070968628,-0.0019978154450654984,-1.1074501657937219e-05,0.045862059217035324,-0.19517841833781882,0.07468160701314963,-0.049156203866004944,-0.2799960970878601,2.2351741790771484e-08,0.038835763931274414,-0.2799961566925049,7.450580596923828e-09,0.12682770192623138,-0.2799961566925049,7.450580596923828e-09,0,0.0,0,0.0,0,0.0,0,,,120.0,1384.8999999990692,,
1777039685.1995778,1384350072199,1.570739844042611,-0.03603969767998085,1.571400713098951,-0.0006608690563398856,1.570739844042611,-0.03603969767998085,1.5746793746948242,-0.6976220607757568,-0.003939530652213197,0.0052436693020355704,-0.12000310499999706,0.0074441966056594,-0.00220052730362383,0.0052436693020355704,-0.12000310499999706,0.01571885496377945,0.1559179127216339,-0.01047518566174388,-0.013475588443226766,-0.002919754359860218,-0.013422048168675116,-5.354027455165e-05,-0.013475588443226766,-0.002919754359860218,-0.01282291579991579,0.0020528584718704224,-0.0006526726433109756,1.5674935425551362,-0.00768183456396077,1.567634406299452,-0.00014086374431587778,1.5674935425551362,-0.00768183456396077,1.5679575204849243,-0.02159535512328148,-0.0004639779297881397,-1.5740737289072808,-0.0017662477962920391,-1.5740413407744842,-3.2388132796601354e-05,-1.5740737289072808,-0.0017662477962920391,-1.573962926864624,0.003301427233964205,-0.00011080204265678795,0.046010615924732455,-0.19517044380671109,0.07468646712512353,-0.049156203866004944,-0.2799960970878601,2.2351741790771484e-08,0.038835763931274414,-0.2799961566925049,7.450580596923828e-09,0.12682770192623138,-0.2799961566925049,7.450580596923828e-09,0,0.0,0,0.0,0,0.0,0,,,120.0,1384.9166666657359,,
1777039685.3022726,1384366738867,1.5627514704401593,-0.07808357797216847,1.56425304812764,-0.0015015776874807152,1.56425304812764,-0.07207723904050735,1.5747032165527344,0.46630290150642395,-0.011951746112575101,-0.021355600334090126,-0.2599986239999942,-0.016355725293614162,-0.004999875040475964,-0.016355725293614162,-0.23999902999998265,0.01571415551006794,-0.11726734042167664,-0.037069755844158066,-0.014122766143246925,-0.006325937282886612,-0.014001115899712091,-0.00012165024353483385,-0.014001115899712091,-0.005839334025604501,-0.01281649712473154,-0.03093148022890091,-0.0013062690185153842,1.5657908267056844,-0.016643456154112307,1.566110886864973,-0.0003200601592885377,1.566110886864973,-0.015363209510045982,1.567960262298584,-0.01385471224784851,-0.0021694355928996156,-1.5744652262887675,-0.003826750955160761,-1.5743916363739734,-7.358991479411436e-05,-1.5743916363739734,-0.0035323899148242545,-1.5739641189575195,-0.0025956418830901384,-0.0005011073312479741,0.04585897056126723,-0.19518445651818792,0.07468519822554859,-0.049156203866004944,-0.2799960970878601,2.2351741790771484e-08,0.038835763931274414,-0.2799961566925049,7.450580596923828e-09,0.12682770192623138,-0.2799961566925049,7.450580596923828e-09,0,0.0,0,0.0,0,0.0,0,,,120.0,1384.9333333324025,,
1777039685.406141,1384383405534,1.5534414226109723,-0.10811609010985931,1.5555435593149691,-0.0021021367039968375,1.5555435593149691,-0.10210998362822776,1.5743213891983032,-0.6594821214675903,-0.020879966587330934,-0.05235571185337882,-0.35999931600001883,-0.04535612673326717,-0.0069995851201116455,-0.04535612673326717,-0.34000049600004123,0.014244478195905685,0.13756555318832397,-0.0666001900492845,-0.014877019216653629,-0.008759019797344076,-0.014706714713518825,-0.00017030450313480425,-0.014706714713518825,-0.008272435371991174,-0.012831715866923332,-0.1579703539609909,-0.002045303349730297,1.563806396984841,-0.023044863619576635,1.5642544658486346,-0.00044806886379356037,1.5642544658486346,-0.021764666522059457,1.5678492784500122,0.05751366168260574,-0.0040428814651711775,-1.5749214968048983,-0.005298596220075419,-1.574818474455657,-0.0001030223492413107,-1.574818474455657,-0.005004246571764821,-1.573988676071167,0.017562568187713623,-0.0009328207337313543,0.04605212694994105,-0.19525597837396325,0.0749413751868263,-0.049156203866004944,-0.2799960970878601,2.2351741790771484e-08,0.038835763931274414,-0.2799961566925049,7.450580596923828e-09,0.12682770192623138,-0.2799961566925049,7.450580596923828e-09,0,0.0,0,0.0,0,0.0,0,,,120.0,1384.9499999990692,,
1777039685.5087028,1384400072202,1.5438308278481032,-0.13214256240262476,1.5464137900497197,-0.0025829622016164677,1.5438308278481032,-0.13214256240262476,1.5717883110046387,1.0147819519042969,-0.027957483156535456,-0.08435656887170997,-0.4400014098836279,-0.07575595609621129,-0.008600612775498687,-0.08435656887170997,-0.4400014098836279,0.004763403441756964,-0.455676406621933,-0.08911997231346694,-0.015655621085318094,-0.010705523285021596,-0.015446362527810502,-0.00020925855750759254,-0.015655621085318094,-0.010705523285021596,-0.013026939705014229,-0.28247395157814026,-0.0026286813803038656,1.5617579059102162,-0.028166088191093532,1.5623084623686518,-0.0005505564584356026,1.5617579059102162,-0.028166088191093532,1.567225694656372,0.048891469836235046,-0.005467788746155833,-1.5753924966443442,-0.006476095102464855,-1.575265909808433,-0.00012658683591126874,-1.5753924966443442,-0.006476095102464855,-1.5741463899612427,0.05712653696537018,-0.0012461066831015444,0.046379153559464474,-0.19575392732882146,0.0765694955120148,-0.049156203866004944,-0.2799960970878601,2.2351741790771484e-08,0.038835763931274414,-0.2799961566925049,7.450580596923828e-09,0.12682770192623138,-0.2799961566925049,7.450580596923828e-09,0,0.0,0,0.0,0,0.0,0,,,120.0,1384.9666666657358,,
1777039685.6132262,1384416738869,1.5258117325944627,-0.16818070344417624,1.5291150183590019,-0.003303285764539199,1.5291150183590019,-0.16217473090658702,1.56540846824646,0.21333622932434082,-0.039596735651997284,-0.14435561211919856,-0.5599993316701165,-0.13335650352603207,-0.010999108593166496,-0.13335650352603207,-0.540000957670046,-0.015196750871837139,-1.7556266784667969,-0.12915886124736142,-0.017115437213486618,-0.01362515153389314,-0.016847821677459657,-0.0002676155360269612,-0.016847821677459657,-0.013138577960010722,-0.01351875253021717,-0.10679006576538086,-0.0035966846832694473,1.5579171492546018,-0.03584759095873343,1.558621242140896,-0.0007040928862942497,1.558621242140896,-0.03456742241128756,1.5660029649734497,0.13348466157913208,-0.008085815718847922,-1.5762755836104314,-0.008242266610424287,-1.576113694871687,-0.00016188873874445342,-1.576113694871687,-0.0079479235264823,-1.5744292736053467,-0.01903717592358589,-0.001846310005084728,0.04775543506619375,-0.19668842643716922,0.0800707537530782,-0.049156203866004944,-0.2799960970878601,2.2351741790771484e-08,0.038835763931274414,-0.2799961566925049,7.450580596923828e-09,0.12682770192623138,-0.2799961566925049,7.450580596923828e-09,0,0.0,0,0.0,0,0.0,0,,,120.0,1384.9833333324025,,
1777039685.7152712,1384433405537,1.5074912748635327,-0.19821418591560186,1.511395857831735,-0.003904582968202286,1.511395857831735,-0.19220717216869712,1.554908037185669,1.6890345811843872,-0.04741676232213621,-0.2053581164202827,-0.6600032546369959,-0.19235683977043183,-0.013001276649850874,-0.19235683977043183,-0.6400014136723796,-0.05080965533852577,-3.508511543273926,-0.15454846108175693,-0.01859966820813868,-0.016058312659896146,-0.01828333860831581,-0.00031632959982286907,-0.01828333860831581,-0.01557165473248947,-0.014393278397619724,-0.22589148581027985,-0.004206389810518955,1.554012157412697,-0.04224920525012742,1.5548444163475343,-0.0008322589348372933,1.5548444163475343,-0.040968814769690866,1.5637491941452026,0.27473968267440796,-0.009737036732505588,-1.5771734398683173,-0.009714159429840745,-1.5769820825177574,-0.00019135735055986203,-1.5769820825177574,-0.009419765317918698,-1.5749619007110596,-0.10456546396017075,-0.0022115391572576915,0.049712287903863214,-0.19823714152242033,0.08628290685304897,-0.049156203866004944,-0.2799960970878601,2.2351741790771484e-08,0.038835763931274414,-0.2799961566925049,7.450580596923828e-09,0.12682770192623138,-0.2799961566925049,7.450580596923828e-09,0,0.0,0,0.0,0,0.0,0,,,120.0,1384.9999999990691,,
1777039685.8203962,1384450072204,1.4861500183498795,-0.224766883524257,1.4906384056203108,-0.004488387270431327,1.4906384056203108,-0.2232116181424174,1.5405527353286743,1.5539673566818237,-0.05440271697879484,-0.2764191189009507,-0.7484170417739979,-0.26147392114493934,-0.014945197756011386,-0.26147392114493934,-0.7432384002499862,-0.09529281407594681,-3.6183338165283203,-0.18112630482500391,-0.020328629069684488,-0.018209478169030287,-0.019965002592627182,-0.0003636264770573057,-0.019965002592627182,-0.018083478419541478,-0.01570742391049862,-0.24376222491264343,-0.004621205159185869,1.549463284573068,-0.04790889285537229,1.55041998095761,-0.0009566963845419885,1.55041998095761,-0.047577389204245736,1.5610737800598145,0.08897770941257477,-0.01161049548674642,-1.5782193406309157,-0.011015464564343635,-1.5779993719675909,-0.00021996866332485432,-1.5779993719675909,-0.010939243501739556,-1.5755761861801147,-0.11878043413162231,-0.0026431544508009885,0.05266886637632981,-0.19978013147103224,0.09415501365298497,-0.049156203866004944,-0.2799960970878601,2.2351741790771484e-08,0.038835763931274414,-0.2799961566925049,7.450580596923828e-09,0.12682770192623138,-0.2799961566925049,7.450580596923828e-09,0,0.0,0,0.0,0,0.0,0,,,120.0,1385.0166666657358,,
1777039685.9274943,1384466738872,1.4610306860652968,-0.19145364983634744,1.4649209873083,-0.003890301243003158,1.4649209873083,-0.19746188050291344,1.5250681638717651,0.2543102502822876,-0.06403747780646829,-0.360060160966384,-0.6374923743245849,-0.3471064388599657,-0.012953722106418264,-0.3471064388599657,-0.6574982673246424,-0.14720819890499115,-2.677738666534424,-0.21285196206139284,-0.022363670556601066,-0.015510608157279764,-0.02204849799005261,-0.00031517256654845643,-0.02204849799005261,-0.01599736467336993,-0.017054816707968712,-0.3088233470916748,-0.005308853848632354,1.5441091177129351,-0.040808202049019526,1.5449383325087447,-0.0008292147958095519,1.5449383325087447,-0.04208885191495921,1.5577794313430786,-0.07517469674348831,-0.013670313630143482,-1.5794503988291804,-0.009382836396629473,-1.5792597414030727,-0.00019065742610768766,-1.5792597414030727,-0.009677290147842198,-1.576346755027771,0.03673367202281952,-0.0031036438014093726,0.05565914657028762,-0.20119058291499659,0.10330943800405651,-0.049156203866004944,-0.2799960970878601,2.2351741790771484e-08,0.038835763931274414,-0.2799961566925049,7.450580596923828e-09,0.12682770192623138,-0.2799961566925049,7.450580596923828e-09,0,0.0,0,0.0,0,0.0,0,,,120.0,1385.0333333324024,,
1777039686.0320888,1384483405539,1.44338622717629,-0.161420026203069,1.4466640725488378,-0.0032778453725477164,1.4466640725488378,-0.16740743667436025,1.5058306455612183,3.100847005844116,-0.0624444183849282,-0.4188117595931814,-0.5374879813241616,-0.40789736108994257,-0.010914398503238831,-0.40789736108994257,-0.5574245483244145,-0.20934532582759857,-5.3249192237854,-0.20946643376558283,-0.023793135537855954,-0.013077435595051654,-0.023527581053952522,-0.0002655544839034324,-0.023527581053952522,-0.013562505364035046,-0.01853620447218418,-0.8636041879653931,-0.005256931065671773,1.5403482145178122,-0.03440655766906429,1.5410468848036105,-0.0006986702857982863,1.5410468848036105,-0.03568276972598593,1.553904414176941,0.45041152834892273,-0.013556199659128687,-1.5803151254677381,-0.007910936659071732,-1.580154483521814,-0.00016064194592413372,-1.580154483521814,-0.008204370045897184,-1.5772472620010376,-0.14804688096046448,-0.0030678634667005156,0.05965924886239853,-0.20211363591565873,0.11435891325189018,-0.049156203866004944,-0.2799960970878601,2.2351741790771484e-08,0.038835763931274414,-0.2799961566925049,7.450580596923828e-09,0.12682770192623138,-0.2799961566925049,7.450580596923828e-09,0,0.0,0,0.0,0,0.0,0,,,120.0,1385.049999999069,,
1777039686.1361954,1384500072207,1.428747391350232,-0.13139126840382298,1.431435789975388,-0.002688398625156019,1.431435789975388,-0.13739884106250735,1.482204794883728,-1.4864686727523804,-0.05345740353349604,-0.46755539136032304,-0.43749979032430497,-0.458603701882762,-0.008951689477561031,-0.458603701882762,-0.45750349232422266,-0.2829258143901825,-5.254386901855469,-0.18462957697014054,-0.024979100112418728,-0.010644657238138946,-0.024761299628171043,-0.00021780048424768425,-0.024761299628171043,-0.011131360445756633,-0.020396409556269646,-0.34024161100387573,-0.004582690556149082,1.537227957627111,-0.02800595043799478,1.537800987780244,-0.0005730301531330362,1.537800987780244,-0.029286460050074476,1.5485371351242065,0.2607709467411041,-0.01130917749709548,-1.5810325513392764,-0.006439275388244303,-1.580900797233307,-0.0001317541059695504,-1.580900797233307,-0.00673369689153316,-1.5784165859222412,-0.09774191677570343,-0.0026159654170352376,0.06431635742019037,-0.20233673732608823,0.12773214857560766,-0.049156203866004944,-0.2799960970878601,2.2351741790771484e-08,0.038835763931274414,-0.2799961566925049,7.450580596923828e-09,0.12682770192623138,-0.2799961566925049,7.450580596923828e-09,0,0.0,0,0.0,0,0.0,0,,,120.0,1385.0666666657357,,
1777039686.250389,1384516738874,1.4151420077722807,-0.09535011806128516,1.4171092603265345,-0.0019672525542537844,1.4171092603265345,-0.10135712881557711,1.45830237865448,-1.2060256004333496,-0.04316037088219926,-0.5128578877510492,-0.3174918483244157,-0.5063074328353103,-0.0065504549157389125,-0.5063074328353103,-0.3374936793244138,-0.3647140562534332,-3.815117597579956,-0.148143831497616,-0.026081339603216694,-0.007724785190894075,-0.02592196273293239,-0.00015937687028430222,-0.02592196273293239,-0.008211442875854331,-0.02282221056520939,-0.2641109824180603,-0.003259129038007305,1.5343279803089571,-0.020323806240132088,1.5347472987172708,-0.0004193184083136625,1.5347472987172708,-0.021604196082727,1.5441796779632568,-0.39624089002609253,-0.009851697654299718,-1.5816993293731996,-0.004672956399280412,-1.5816029174798607,-9.64118933388658e-05,-1.5816029174798607,-0.004967350364563207,-1.579477310180664,-0.13140323758125305,-0.002222019192535507,0.0691894933685901,-0.2009950719940418,0.1424956048936019,-0.049156203866004944,-0.2799960970878601,2.2351741790771484e-08,0.038835763931274414,-0.2799961566925049,7.450580596923828e-09,0.12682770192623138,-0.2799961566925049,7.450580596923828e-09,0,0.0,0,0.0,0,0.0,0,,,120.0,1385.0833333324024,,
1777039686.3554761,1384533405542,1.4071088167385049,-0.06531875887010917,1.4084759065236057,-0.0013670897851008057,1.4084759065236057,-0.07132795657043478,1.4378044605255127,-0.596953272819519,-0.030695643787007842,-0.5396063881316921,-0.21749499538998693,-0.5350543238917909,-0.004552064239901288,-0.5350543238917909,-0.23750410832420812,-0.43107175827026367,-2.873781204223633,-0.10853462986142848,-0.026732148185262063,-0.005291796022942402,-0.02662139347261692,-0.00011075471264514192,-0.02662139347261692,-0.00577863094262774,-0.02473490685224533,-0.31718915700912476,-0.0019972413330167325,1.5326157116575907,-0.013922644721598114,1.532907105821229,-0.00029139416363821447,1.532907105821229,-0.015203500512834008,1.5398468971252441,-0.11464985460042953,-0.007231185467653445,-1.582093023185134,-0.003201167638721781,-1.5820260243067943,-6.699887833971907e-05,-1.5820260243067943,-0.003495668782399811,-1.5804566144943237,-0.008268926292657852,-0.001636408690810276,0.07307866765410354,-0.19902499741859872,0.15471444263692724,-0.049156203866004944,-0.2799960970878601,2.2351741790771484e-08,0.038835763931274414,-0.2799961566925049,7.450580596923828e-09,0.12682770192623138,-0.2799961566925049,7.450580596923828e-09,0,0.0,0,0.0,0,0.0,0,,,120.0,1385.099999999069,,
1777039686.4587896,1384550072209,1.4016992481132626,-0.04628657615967835,1.4026536890653594,-0.0009544409520967356,1.4026536890653594,-0.04899104014286628,1.423940658569336,-0.09362399578094482,-0.022241410456073307,-0.5581947705461975,-0.170485207487284,-0.554739223553707,-0.0034555469924905102,-0.554739223553707,-0.17443188594380862,-0.47791314125061035,-1.76707124710083,-0.08028162929558713,-0.026402278619268492,0.01807486686897134,-0.02669508932770165,0.0002928107084331569,-0.02669508932770165,0.011108619839012374,-0.0256058219820261,-0.12027601152658463,-0.0007964566372423917,1.5289118738517948,-0.0823416825238573,1.5303444560663209,-0.0014325822145260236,1.5303444560663209,-0.060512207953588304,1.536752462387085,-0.20484066009521484,-0.007840588535290127,-1.5823623359445693,-0.0023877222674798283,-1.5823135372153672,-4.879872920215966e-05,-1.5823135372153672,-0.0024833846863469653,-1.5811482667922974,0.09725578129291534,-0.001214069152271957,0.07544010600467986,-0.19720044412599988,0.1631627211610858,-0.049156203866004944,-0.2799960970878601,2.2351741790771484e-08,0.038835763931274414,-0.2799961566925049,7.450580596923828e-09,0.12682770192623138,-0.2799961566925049,7.450580596923828e-09,0,0.0,0,0.0,0,0.0,0,,,120.0,1385.1166666657357,,
1777039686.5638835,1384566738877,1.3982223512463947,-0.019681806577116212,1.3986842937749513,-0.00046194252855658036,1.3982223512463947,-0.019681806577116212,1.4140816926956177,-0.14783260226249695,-0.015859341449222963,-0.5725075704865601,-0.10131882753448508,-0.5702770618388374,-0.002230508647722673,-0.5725075704865601,-0.10131882753448508,-0.5132020711898804,-1.962188482284546,-0.05930549929667972,-0.023035142092421333,0.046134133964168475,-0.02392119823313217,0.0008860561407108385,-0.023035142092421333,0.046134133964168475,-0.026102719828486443,-0.2172790914773941,0.00306757773606511,1.5160537785236137,-0.1626925483715218,1.51921893626756,-0.003165157743946434,1.5160537785236137,-0.1626925483715218,1.5344228744506836,0.042094793170690536,-0.018369095927069923,-1.5825526770491036,-0.0012254524528691683,-1.5825249903617367,-2.7686687366967888e-05,-1.5825526770491036,-0.0012254524528691683,-1.5816915035247803,-0.0342324934899807,-0.0008611735243233554,0.0772775169544607,-0.19546381426622006,0.16940868545891252,-0.049156203866004944,-0.2799960970878601,2.2351741790771484e-08,0.038835763931274414,-0.2799961566925049,7.450580596923828e-09,0.12682770192623138,-0.2799961566925049,7.450580596923828e-09,0,0.0,0,0.0,0,0.0,0,,,120.0,1385.1333333324023,,
1777039686.6705468,1384583405544,1.3981683358987451,0.018080416575598644,1.3978666626927887,0.0003016732059564209,1.3978666626927887,0.012070012915061322,1.4066150188446045,0.25731343030929565,-0.008446682945859374,-0.5774679295240753,0.018671497132070555,-0.5776409950824143,0.00017306555833895843,-0.5776409950824143,-0.0013376903211057194,-0.5391137599945068,-1.4142224788665771,-0.038354169529568494,-0.016663179745476816,0.0568607223562541,-0.017796599647146978,0.0011334199016701622,-0.017796599647146978,0.056368533110485355,-0.02653641812503338,-0.3425634503364563,0.009873238379556563,1.4948677112968098,-0.1801050857895534,1.498486111828323,-0.0036184005315131884,1.498486111828323,-0.1813687424213669,1.532717227935791,0.11663900315761566,-0.03784951663898117,-1.5825901764980754,0.0005833051709080456,-1.5825988994772786,8.722979203179548e-06,-1.5825988994772786,0.0002887736571068049,-1.5820846557617188,0.010146642103791237,-0.0005055207363566794,0.07847899894023397,-0.194086525343022,0.17398776944162692,-0.049156203866004944,-0.2799960970878601,2.2351741790771484e-08,0.038835763931274414,-0.2799961566925049,7.450580596923828e-09,0.12682770192623138,-0.2799961566925049,7.450580596923828e-09,0,0.0,0,0.0,0,0.0,0,,,120.0,1385.149999999069,,
1777039686.7753232,1384600072212,1.4013841143675858,0.04471140545884926,1.4005350774440837,0.0008490369235021333,1.4005350774440837,0.04019489351477854,1.4015893936157227,0.3154085576534271,-0.00020527924813684706,-0.5708872523672567,0.10202780520925454,-0.5728246858466464,0.001937433479389683,-0.5728246858466464,0.091721490833179,-0.5577194094657898,-0.9166961908340454,-0.013167842901466886,-0.010897897687380755,0.0661117220765292,-0.012153310988377247,0.001255413300996492,-0.012153310988377247,0.059433462260324484,-0.025641849264502525,-0.28970131278038025,0.01474395157712177,1.4772729505373952,-0.19798478725182744,1.4810325369995838,-0.0037595864621886577,1.4810325369995838,-0.17798540125197093,1.5276697874069214,-0.040690645575523376,-0.05039683686952623,-1.582462664637559,0.0018496751257647554,-1.5824977886168243,3.512397926530575e-05,-1.5824977886168243,0.0016628306346897338,-1.5823534727096558,-0.00998661108314991,-0.00010919192790326271,0.07937494373723213,-0.19348397933677436,0.17733589739515837,-0.049156203866004944,-0.2799960970878601,2.2351741790771484e-08,0.038835763931274414,-0.2799961566925049,7.450580596923828e-09,0.12682770192623138,-0.2799961566925049,7.450580596923828e-09,0,0.0,0,0.0,0,0.0,0,,,120.0,1385.1666666657356,,
1777039686.8822706,1384616738880,1.4083753761013424,0.07181098417547334,1.4069844169694927,0.0013909591318497228,1.4069844169694927,0.06729465720111247,1.39863121509552,-0.07274527847766876,0.009744161005822427,-0.5549337594493234,0.16386684851771105,-0.558107815507324,0.003174056058000585,-0.558107815507324,0.15356095622754026,-0.5719492435455322,-0.6000710129737854,0.01701548409620879,-0.0005603932416358674,0.10618203071741393,-0.002617110148673921,0.0020567169070380537,-0.002617110148673921,0.09950404440338007,-0.02135387621819973,-0.026986628770828247,0.020793482976563863,1.4463152239176524,-0.3179833485084403,1.4524744744482285,-0.006159250530576088,1.4524744744482285,-0.2979847815655893,1.5119327306747437,-0.38104063272476196,-0.06561750675709122,-1.5821734417246596,0.00297076304854845,-1.5822309845927653,5.754286810577547e-05,-1.5822309845927653,0.0027839262095270207,-1.5825399160385132,-0.003410655539482832,0.0003664743138536153,0.08015146929719827,-0.194316146833314,0.1802781316753055,-0.049156203866004944,-0.2799960970878601,2.2351741790771484e-08,0.038835763931274414,-0.2799961566925049,7.450580596923828e-09,0.12682770192623138,-0.2799961566925049,7.450580596923828e-09,0,0.0,0,0.0,0,0.0,0,,,120.0,1385.1833333324023,,
1777039686.982091,1384633405547,1.4148432477655242,0.08987835533747852,1.4130904766971564,0.0017527710683677977,1.4148432477655242,0.08987835533747852,1.398739218711853,-0.592174232006073,0.016104029053671143,-0.5401746002706004,0.20509512588101836,-0.5441742818575375,0.003999681586937087,-0.5401746002706004,0.20509512588101836,-0.575355589389801,0.2865205407142639,0.035180989119200645,0.009003209814469715,0.13289702678291668,0.006411506141849677,0.0025917036726200385,0.009003209814469715,0.13289702678291668,-0.016133522614836693,0.08521240949630737,0.02513673242930641,1.4176750999433867,-0.3979867525392643,1.425436475447257,-0.007761375503870349,1.4176750999433867,-0.3979867525392643,1.4943804740905762,-0.47869688272476196,-0.07670537414718948,-1.581905871040824,0.003718195760260234,-1.581978381779707,7.251073888303594e-05,-1.581905871040824,0.003718195760260234,-1.5825592279434204,-0.0004819571040570736,0.0006533569025963804,0.08045920561788968,-0.19613597967025911,0.18138454420923222,-0.049156203866004944,-0.2799960970878601,2.2351741790771484e-08,0.038835763931274414,-0.2799961566925049,7.450580596923828e-09,0.12682770192623138,-0.2799961566925049,7.450580596923828e-09,0,0.0,0,0.0,0,0.0,0,,,120.0,1385.199999999069,,
1777039687.0837204,1384650072215,1.4249695202007968,0.11248023146089352,1.4227557078164441,0.002213812384352698,1.4249695202007968,0.11248023146089352,1.402659296989441,-0.19861936569213867,0.022310223211355895,-0.5170672668974038,0.25667077622834605,-0.5221190074186997,0.005051740521295867,-0.5170672668974038,0.25667077622834605,-0.5682529211044312,0.7689265012741089,0.051185654207027365,0.0239762419086649,0.16631688771872186,0.02070282771866372,0.0032734141900011803,0.0239762419086649,0.16631688771872186,-0.009973958134651184,0.07109328359365463,0.03395020004331609,1.3728353577528492,-0.49806921673073784,1.3826382518787095,-0.009802894125860329,1.3728353577528492,-0.49806921673073784,1.4761048555374146,-0.49961546063423157,-0.1032694977845654,-1.5814869552396316,0.004653217319794236,-1.5815785388894503,9.158364981876055e-05,-1.5814869552396316,0.004653217319794236,-1.5824350118637085,-0.004146175924688578,0.0009480566240769317,0.08011240872570505,-0.19881457675314784,0.1805654462025508,-0.049156203866004944,-0.2799960970878601,2.2351741790771484e-08,0.038835763931274414,-0.2799961566925049,7.450580596923828e-09,0.12682770192623138,-0.2799961566925049,7.450580596923828e-09,0,0.0,0,0.0,0,0.0,0,,,120.0,1385.2166666657356,,
1777039687.1841545,1384666738882,1.4373355614326877,0.1350448230394731,1.4346792223054314,0.0026563391272562686,1.4373355614326877,0.1350448230394731,1.4088571071624756,-0.1419481337070465,0.028478454270212117,-0.4888489625728366,0.30816134626477676,-0.49491051327257524,0.006061550699738627,-0.4888489625728366,0.30816134626477676,-0.5549965500831604,1.1206347942352295,0.06614758751032379,0.04226106817882231,0.19968161852743452,0.038333319714646194,0.003927748464176116,0.04226106817882231,0.19968161852743452,-0.0013059665216132998,0.13389326632022858,0.04356703470043561,1.318077784884861,-0.5979865827196464,1.3298402139917358,-0.01176242910687475,1.318077784884861,-0.5979865827196464,1.450416922569275,-0.7098978161811829,-0.13233913768441385,-1.5809753819925803,0.005586696447493791,-1.5810852726202345,0.00010989062765420776,-1.5809753819925803,0.005586696447493791,-1.582203984260559,-0.012616650201380253,0.0012286022679788289,0.07950398702979222,-0.2026763258999847,0.17891484259825557,-0.049156203866004944,-0.2799960970878601,2.2351741790771484e-08,0.038835763931274414,-0.2799961566925049,7.450580596923828e-09,0.12682770192623138,-0.2799961566925049,7.450580596923828e-09,0,0.0,0,0.0,0,0.0,0,,,120.0,1385.2333333324023,,
1777039687.2856073,1384683405550,1.45516607488547,0.16214349195221417,1.4519690757615384,0.0031969991239315654,1.4519690757615384,0.15762787409390797,1.4171671867370605,0.15770095586776733,0.03799888814840946,-0.4481611753142651,0.3699983134744904,-0.4554564683278308,0.00729529301356574,-0.4554564683278308,0.3596940393297027,-0.5365020632743835,1.268504023551941,0.08834088796011846,0.0686258388178716,0.23975058190304688,0.06389865309442579,0.004727185723445812,0.06389865309442579,0.2330736441108126,0.010511883534491062,0.20114000141620636,0.058113955283380536,1.2391232010082975,-0.7179811153100821,1.253279705034511,-0.01415650402621349,1.253279705034511,-0.6979856883756704,1.4152264595031738,-0.9511022567749023,-0.1761032584948763,-1.5802377478950882,0.0067077467324243535,-1.580370005194897,0.0001322572998088134,-1.580370005194897,0.006520939228962757,-1.5818766355514526,0.007285526022315025,0.0016388876563644406,0.07866480545245542,-0.20792023047703861,0.1765058420597958,-0.049156203866004944,-0.2799960970878601,2.2351741790771484e-08,0.038835763931274414,-0.2799961566925049,7.450580596923828e-09,0.12682770192623138,-0.2799961566925049,7.450580596923828e-09,0,0.0,0,0.0,0,0.0,0,,,120.0,1385.249999999069,,
1777039687.3931372,1384700072217,1.4725325758217942,0.1851385964828157,1.4688667157356237,0.003665860086170536,1.4688667157356237,0.18096212258656041,1.427631139755249,0.7260406017303467,0.044901436066545175,-0.40853222702883685,0.4224712791917899,-0.41689742277604774,0.008365195747210896,-0.41689742277604774,0.4129409040945232,-0.5128488540649414,1.6452800035476685,0.10431662703610456,0.09430450562696328,0.2737518830083575,0.08888404700569709,0.005420458621266194,0.08888404700569709,0.2675764143856274,0.02559351734817028,0.3545815944671631,0.068710988278793,1.1622232924077702,-0.8198048184928051,1.178455940918974,-0.016232648511203873,1.178455940918974,-0.8013111413800608,1.3701227903366089,-1.2546993494033813,-0.20789949792883866,-1.5795193096247226,0.007659035837032008,-1.5796709633279855,0.0001516537032628662,-1.5796709633279855,0.0074862584483502545,-1.581449270248413,0.006856407504528761,0.001929960623690441,0.07739272995895227,-0.21439146369284934,0.1733844727412775,-0.049156203866004944,-0.2799960970878601,2.2351741790771484e-08,0.038835763931274414,-0.2799961566925049,7.450580596923828e-09,0.12682770192623138,-0.2799961566925049,7.450580596923828e-09,0,0.0,0,0.0,0,0.0,0,,,120.0,1385.2666666657356,,
1777039687.500166,1384716738885,1.490513682991084,0.1691957875685136,1.4870758726145876,0.0034378103764964862,1.4870758726145876,0.17372378467770963,1.4423705339431763,1.600503921508789,0.04814314904790784,-0.36750079710871436,0.38609108076804544,-0.37534560189263766,0.007844804783923298,-0.37534560189263766,0.39642360336053667,-0.478976845741272,1.755164384841919,0.11147604863255761,0.12089194897849026,0.2501783330104217,0.11580869199226324,0.005083256986227025,0.11580869199226324,0.25687357516116,0.047336649149656296,0.5114145278930664,0.07355529982883396,1.082601870514861,-0.7492091036253612,1.0978247012225464,-0.015222830707685375,1.0978247012225464,-0.7692593466258194,1.3047856092453003,-1.7400561571121216,-0.22218373873043928,-1.578775445585482,0.006999494568284415,-1.578917665054435,0.00014221946895287552,-1.578917665054435,0.007186814191464608,-1.5808281898498535,0.02954075112938881,0.002052744264371409,0.07521227529234785,-0.22345751397600727,0.16870011631289117,-0.049156203866004944,-0.2799960970878601,2.2351741790771484e-08,0.038835763931274414,-0.2799961566925049,7.450580596923828e-09,0.12682770192623138,-0.2799961566925049,7.450580596923828e-09,0,0.0,0,0.0,0,0.0,0,,,120.0,1385.2833333324022,,
1777039687.6014886,1384733405552,1.506296626842128,0.14662404387144856,1.5033183765566198,0.0029782502855082438,1.506296626842128,0.14662404387144856,1.459011435508728,1.0936295986175537,0.047285191333400034,-0.3314853978087545,0.3345841901766475,-0.33828152369376757,0.006796125885013049,-0.3314853978087545,0.3345841901766475,-0.44247889518737793,1.6898986101150513,0.1109934973786234,0.14422911735245195,0.21680302684931804,0.13982538069668848,0.004403736655763463,0.14422911735245195,0.21680302684931804,0.07044752687215805,0.6145607233047485,0.0737815904802939,1.012714047743728,-0.6492600676265395,1.0259019187826208,-0.013187871038892851,1.012714047743728,-0.6492600676265395,1.236130714416504,-1.8467727899551392,-0.22341666667277593,-1.5781225178066967,0.006065719563158697,-1.5782457256418085,0.0001232078351118826,-1.5781225178066967,0.006065719563158697,-1.580198049545288,0.028419308364391327,0.0020755317385914296,0.07246712547364131,-0.2326433828978824,0.16315738951194517,-0.049156203866004944,-0.2799960970878601,2.2351741790771484e-08,0.038835763931274414,-0.2799961566925049,7.450580596923828e-09,0.12682770192623138,-0.2799961566925049,7.450580596923828e-09,0,0.0,0,0.0,0,0.0,0,,,120.0,1385.2999999990689,,
1777039687.7064703,1384750072220,1.5198294903765164,0.12404147940833195,1.517301290505648,0.002528199870868386,1.5198294903765164,0.12404147940833195,1.4764753580093384,1.0329316854476929,0.043354132367178,-0.3006044995135607,0.28305260747367605,-0.3063736468107175,0.005769147297156774,-0.3006044995135607,0.28305260747367605,-0.40231433510780334,2.054133415222168,0.10170983559424263,0.1642392446052943,0.1834117207554987,0.1605009669667042,0.0037382776385900818,0.1642392446052943,0.1834117207554987,0.0962793231010437,0.7735496759414673,0.06795992150425059,0.9527897156797405,-0.5492631166260487,0.9639847364675486,-0.011195020787808097,0.9527897156797405,-0.5492631166260487,1.1588420867919922,-2.088650941848755,-0.20605237111225172,-1.5775626740531166,0.00513149691158068,-1.5776672636621014,0.00010458960898485081,-1.5775626740531166,0.00513149691158068,-1.579466462135315,0.050253044813871384,0.0019037880821983766,0.06944830673478727,-0.24235853521478856,0.15677988197001425,-0.049156203866004944,-0.2799960970878601,2.2351741790771484e-08,0.038835763931274414,-0.2799961566925049,7.450580596923828e-09,0.12682770192623138,-0.2799961566925049,7.450580596923828e-09,0,0.0,0,0.0,0,0.0,0,,,120.0,1385.3166666657355,,
1777039687.8077965,1384766738887,1.5330885896295523,0.09694130568060233,1.5311024726336944,0.001986116995857934,1.5311024726336944,0.10146268476763672,1.4944250583648682,1.1637883186340332,0.03866353126468414,-0.27034830913090874,0.2212122063981051,-0.2748804672211464,0.004532158090237659,-0.2748804672211464,0.2315296272001187,-0.36204978823661804,1.924861192703247,0.0917014791057093,0.18384457518718733,0.14334053231207636,0.1809078387215331,0.0029367364656542327,0.1809078387215331,0.15002598884238413,0.12217294424772263,0.7738659381866455,0.061671630939464706,0.8940776282867571,-0.4292619206245725,0.9028722735645518,-0.008794645277794721,0.9028722735645518,-0.44928285862559764,1.0815125703811646,-2.073274850845337,-0.18743494209440748,-1.5770141557091575,0.004010384373646553,-1.5770963197826504,8.216407349292965e-05,-1.5770963197826504,0.004197430214549411,-1.5787556171417236,0.03228703886270523,0.0017414614325661493,0.06556998228741266,-0.2515543914756493,0.15012031882194748,-0.049156203866004944,-0.2799960970878601,2.2351741790771484e-08,0.038835763931274414,-0.2799961566925049,7.450580596923828e-09,0.12682770192623138,-0.2799961566925049,7.450580596923828e-09,0,0.0,0,0.0,0,0.0,0,,,120.0,1385.3333333324022,,
1777039687.9150794,1384783405555,1.5401212144488456,0.078874747748644,1.5384976593526276,0.0016235550962180323,1.5401212144488456,0.078874747748644,1.5103787183761597,1.0569651126861572,0.029742496072685976,-0.25430042900258304,0.17998578475985794,-0.2580052502087931,0.003704821206210074,-0.25430042900258304,0.17998578475985794,-0.32601478695869446,1.879447102546692,0.07171435795611142,0.19424324042148636,0.11662673871465691,0.1918425996410065,0.002400640780479857,0.19424324042148636,0.11662673871465691,0.14543417096138,0.6982459425926208,0.04880906946010635,0.8629367434413662,-0.349262117625177,0.870125942864143,-0.0071891994227768485,0.8629367434413662,-0.349262117625177,1.0123908519744873,-1.9043655395507812,-0.14945410853312113,-1.5767232216384521,0.0032629853046321905,-1.5767903868157924,6.716517734028926e-05,-1.5767232216384521,0.0032629853046321905,-1.5781179666519165,0.039563365280628204,0.0013947450134643713,0.061948167087536705,-0.25914870273890706,0.14393907142366502,-0.049156203866004944,-0.2799960970878601,2.2351741790771484e-08,0.038835763931274414,-0.2799961566925049,7.450580596923828e-09,0.12682770192623138,-0.2799961566925049,7.450580596923828e-09,0,0.0,0,0.0,0,0.0,0,,,120.0,1385.3499999990688,,
1777039688.0182097,1384800072222,1.5479602335551248,0.051774653966062074,1.5468796835122016,0.0010805500429231785,1.5468796835122016,0.05629086510122821,1.5251134634017944,0.6466609835624695,0.022846770153330365,-0.2364124224369396,0.11814556611261225,-0.23887815010008961,0.002465727663150008,-0.23887815010008961,0.12845119406711988,-0.291416198015213,1.5532137155532837,0.055003775578273406,0.20583426618299772,0.07655566848068074,0.20423653013792406,0.0015977360450736555,0.20423653013792406,0.08323348351115328,0.1680220067501068,0.7155243158340454,0.037812259432890905,0.828225096287979,-0.22926127562559373,0.8330098367399419,-0.004784740451962866,0.8330098367399419,-0.24925932962552153,0.9445504546165466,-1.7910946607589722,-0.11632535832856761,-1.5763989276802894,0.002141876073974558,-1.5764436291723591,4.4701492069698645e-05,-1.5764436291723591,0.0023287081208243185,-1.5774757862091064,0.023153623566031456,0.001076858528817004,0.058510665672867224,-0.2661401142579669,0.13780436461071185,-0.049156203866004944,-0.2799960970878601,2.2351741790771484e-08,0.038835763931274414,-0.2799961566925049,7.450580596923828e-09,0.12682770192623138,-0.2799961566925049,7.450580596923828e-09,0,0.0,0,0.0,0,0.0,0,,,120.0,1385.3666666657355,,
1777039688.1194212,1384816738890,1.552008468955245,0.029191921935249315,1.551379420492532,0.0006290484627129445,1.551379420492532,0.03370886409033809,1.5372395515441895,0.6881856918334961,0.01476891741105546,-0.2271746771993231,0.0666136010337091,-0.22861011483234336,0.001435437633020259,-0.22861011483234336,0.07692089711648903,-0.2650444805622101,1.4433252811431885,0.03786980336288698,0.21182011724105493,0.043164114615860685,0.21088998595323796,0.0009301312878169654,0.21088998595323796,0.04984301055592166,0.184890478849411,0.46835219860076904,0.026929638391643917,0.8102992669338637,-0.12926358262520138,0.813084731286487,-0.002785464352623279,0.813084731286487,-0.14926487362530594,0.8949874043464661,-1.365270972251892,-0.0846881374126024,-1.5762314554157524,0.0012076464902484544,-1.576257478648134,2.6023232381655603e-05,-1.576257478648134,0.0013945087788143498,-1.5770347118377686,0.04380568116903305,0.0008032564220161742,0.05525303329439433,-0.2710643369145175,0.1328195259385192,-0.049156203866004944,-0.2799960970878601,2.2351741790771484e-08,0.038835763931274414,-0.2799961566925049,7.450580596923828e-09,0.12682770192623138,-0.2799961566925049,7.450580596923828e-09,0,0.0,0,0.0,0,0.0,0,,,120.0,1385.3833333324021,,
1777039688.2222297,1384833405558,1.553885509525115,0.0020915696814683407,1.5537984999208014,8.70096043135149e-05,1.5537984999208014,0.0066086203520947075,1.544904351234436,-1.0042170286178589,0.008981158290678914,-0.22289142267696582,0.004772792576118344,-0.22308997154540594,0.0001985488684401182,-0.22308997154540594,0.015080336282552759,-0.24626995623111725,1.6205554008483887,0.023378533554151426,0.21459556979523248,0.0030926621980683663,0.21446691459597558,0.00012865519925689406,0.21446691459597558,0.009771718592677727,0.19744424521923065,0.3881295323371887,0.017151324576001825,0.801987618617846,-0.009261596099688144,0.8023729023686496,-0.0003852837508036,0.8023729023686496,-0.029263367613042237,0.8569425344467163,-1.0800092220306396,-0.054954915828870354,-1.5761538037468643,8.652656693775284e-05,-1.5761574032646875,3.5995178231384983e-06,-1.5761574032646875,0.00027339334464745725,-1.576670527458191,-0.01987379789352417,0.0005167237113266054,0.053497429413169414,-0.27446894314829506,0.12950999163763607,-0.049156203866004944,-0.2799960970878601,2.2351741790771484e-08,0.038835763931274414,-0.2799961566925049,7.450580596923828e-09,0.12682770192623138,-0.2799961566925049,7.450580596923828e-09,0,0.0,0,0.0,0,0.0,0,,,120.0,1385.3999999990688,,
1777039688.3253593,1384850072225,1.5538951951617814,1.2293052952851916e-19,1.5538951951617814,0.0,1.5538951951617814,1.2293052952851916e-19,1.5507657527923584,-0.27578669786453247,0.00312944236942303,-0.222869320838721,2.8051750984542976e-19,-0.222869320838721,0.0,-0.222869320838721,2.8051750984542976e-19,-0.23258988559246063,0.7179750204086304,0.009720564753739641,0.21460989128910754,1.8176903453391819e-19,0.21460989128910754,0.0,0.21460989128910754,1.8176903453391819e-19,0.20658822357654572,0.28057801723480225,0.008021667712561825,0.8019447300372902,-5.443437638715509e-19,0.8019447300372902,0.0,0.8019447300372902,-5.443437638715509e-19,0.8292068243026733,-0.7456856369972229,-0.027262094265383174,-1.5761534030598143,5.0855378025457195e-21,-1.5761534030598143,0.0,-1.5761534030598143,5.0855378025457195e-21,-1.5764148235321045,-0.01664576679468155,0.00026142047229016363,0.05177490207329122,-0.2769447187174793,0.1270582855091845,-0.049156203866004944,-0.2799960970878601,2.2351741790771484e-08,0.038835763931274414,-0.2799961566925049,7.450580596923828e-09,0.12682770192623138,-0.2799961566925049,7.450580596923828e-09,0,0.0,0,0.0,0,0.0,0,,,120.0,1385.4166666657354,,
1777039688.4282706,1384866738893,1.5538951951617814,1.2293052952851916e-19,1.5538951951617814,0.0,1.5538951951617814,1.2293052952851916e-19,1.5544947385787964,-0.25098663568496704,-0.0005995434170149583,-0.222869320838721,2.8051750984542976e-19,-0.222869320838721,0.0,-0.222869320838721,2.8051750984542976e-19,-0.22359085083007812,0.36958810687065125,0.0007215299913571338,0.21460989128910754,1.8176903453391819e-19,0.21460989128910754,0.0,0.21460989128910754,1.8176903453391819e-19,0.21254226565361023,0.1889602690935135,0.002067625635497311,0.8019447300372902,-5.443437638715509e-19,0.8019447300372902,0.0,0.8019447300372902,-5.443437638715509e-19,0.811552107334137,-0.48229220509529114,-0.009607377296846797,-1.5761534030598143,5.0855378025457195e-21,-1.5761534030598143,0.0,-1.5761534030598143,5.0855378025457195e-21,-1.5762470960617065,0.04183261841535568,9.369300189221441e-05,0.050788318254361316,-0.27840485467564136,0.1254388715430672,-0.049156203866004944,-0.2799960970878601,2.2351741790771484e-08,0.038835763931274414,-0.2799961566925049,7.450580596923828e-09,0.12682770192623138,-0.2799961566925049,7.450580596923828e-09,0,0.0,0,0.0,0,0.0,0,,,120.0,1385.433333332402,,
1777039688.5323737,1384883405560,1.5538951951617814,1.2293052952851916e-19,1.5538951951617814,0.0,1.5538951951617814,1.2293052952851916e-19,1.5560346841812134,-0.04228831082582474,-0.0021394890194319505,-0.222869320838721,2.8051750984542976e-19,-0.222869320838721,0.0,-0.222869320838721,2.8051750984542976e-19,-0.2198692262172699,-0.02579490840435028,-0.0030000946214510937,0.21460989128910754,1.8176903453391819e-19,0.21460989128910754,0.0,0.21460989128910754,1.8176903453391819e-19,0.2151089757680893,0.03621275722980499,-0.0004990844789817539,0.8019447300372902,-5.443437638715509e-19,0.8019447300372902,0.0,0.8019447300372902,-5.443437638715509e-19,0.803900957107544,-0.18649843335151672,-0.00195622707025378,-1.5761534030598143,5.0855378025457195e-21,-1.5761534030598143,0.0,-1.5761534030598143,5.0855378025457195e-21,-1.5761772394180298,0.006535372696816921,2.38363582154566e-05,0.05026897930847924,-0.279014573159198,0.12486677520628758,-0.049156203866004944,-0.2799960970878601,2.2351741790771484e-08,0.038835763931274414,-0.2799961566925049,7.450580596923828e-09,0.12682770192623138,-0.2799961566925049,7.450580596923828e-09,0,0.0,0,0.0,0,0.0,0,,,120.0,1385.4499999990687,,
1777039688.6336038,1384900072228,1.5538951951617814,1.2293052952851916e-19,1.5538951951617814,0.0,1.5538951951617814,1.2293052952851916e-19,1.5558923482894897,-0.34690481424331665,-0.0019971531277083177,-0.222869320838721,2.8051750984542976e-19,-0.222869320838721,0.0,-0.222869320838721,2.8051750984542976e-19,-0.21960186958312988,0.08270090818405151,-0.0032674512555911084,0.21460989128910754,1.8176903453391819e-19,0.21460989128910754,0.0,0.21460989128910754,1.8176903453391819e-19,0.2154988944530487,-0.020464472472667694,-0.0008890031639411655,0.8019447300372902,-5.443437638715509e-19,0.8019447300372902,0.0,0.8019447300372902,-5.443437638715509e-19,0.8024294972419739,-0.048579804599285126,-0.0004847672046837115,-1.5761534030598143,5.0855378025457195e-21,-1.5761534030598143,0.0,-1.5761534030598143,5.0855378025457195e-21,-1.576159119606018,-0.006235825829207897,5.716546203737849e-06,0.05039269735341081,-0.2790906298428487,0.12493933099087848,-0.049156203866004944,-0.2799960970878601,2.2351741790771484e-08,0.038835763931274414,-0.2799961566925049,7.450580596923828e-09,0.12682770192623138,-0.2799961566925049,7.450580596923828e-09,0,0.0,0,0.0,0,0.0,0,,,120.0,1385.4666666657354,,
1777039688.736243,1384916738895,1.5538951951617814,1.2293052952851916e-19,1.5538951951617814,0.0,1.5538951951617814,1.2293052952851916e-19,1.5555716753005981,-0.19064147770404816,-0.001676480138816716,-0.222869320838721,2.8051750984542976e-19,-0.222869320838721,0.0,-0.222869320838721,2.8051750984542976e-19,-0.21993492543697357,0.19587524235248566,-0.0029343954017474194,0.21460989128910754,1.8176903453391819e-19,0.21460989128910754,0.0,0.21460989128910754,1.8176903453391819e-19,0.21546818315982819,-0.04302594065666199,-0.0008582918707206455,0.8019447300372902,-5.443437638715509e-19,0.8019447300372902,0.0,0.8019447300372902,-5.443437638715509e-19,0.8021314144134521,-0.020782306790351868,-0.00018668437616198297,-1.5761534030598143,5.0855378025457195e-21,-1.5761534030598143,0.0,-1.5761534030598143,5.0855378025457195e-21,-1.5761539936065674,-0.011238566599786282,5.905467530542552e-07,0.050470611411528386,-0.27911849150949075,0.1250740900750506,-0.049156203866004944,-0.2799960970878601,2.2351741790771484e-08,0.038835763931274414,-0.2799961566925049,7.450580596923828e-09,0.12682770192623138,-0.2799961566925049,7.450580596923828e-09,0,0.0,0,0.0,0,0.0,0,,,120.0,1385.483333332402,,
