inbarajaldrin/isaac-sim-mcp/docs/notes/2026-04-24-no-collision-baseline/motion_csv/20260424T071018_grasp_home.csv
t_wall,t_sim_ns,ref_pos_shoulder_pan,ref_vel_shoulder_pan,fb_pos_shoulder_pan,err_pos_shoulder_pan,js_pos_shoulder_pan,js_vel_shoulder_pan,isaac_pos_shoulder_pan,isaac_vel_shoulder_pan,isaac_lag_shoulder_pan,ref_pos_shoulder_lift,ref_vel_shoulder_lift,fb_pos_shoulder_lift,err_pos_shoulder_lift,js_pos_shoulder_lift,js_vel_shoulder_lift,isaac_pos_shoulder_lift,isaac_vel_shoulder_lift,isaac_lag_shoulder_lift,ref_pos_elbow_flex,ref_vel_elbow_flex,fb_pos_elbow_flex,err_pos_elbow_flex,js_pos_elbow_flex,js_vel_elbow_flex,isaac_pos_elbow_flex,isaac_vel_elbow_flex,isaac_lag_elbow_flex,ref_pos_wrist_flex,ref_vel_wrist_flex,fb_pos_wrist_flex,err_pos_wrist_flex,js_pos_wrist_flex,js_vel_wrist_flex,isaac_pos_wrist_flex,isaac_vel_wrist_flex,isaac_lag_wrist_flex,ref_pos_wrist_roll,ref_vel_wrist_roll,fb_pos_wrist_roll,err_pos_wrist_roll,js_pos_wrist_roll,js_vel_wrist_roll,isaac_pos_wrist_roll,isaac_vel_wrist_roll,isaac_lag_wrist_roll,tcp_x,tcp_y,tcp_z,cup_red_x,cup_red_y,cup_red_z,cup_green_x,cup_green_y,cup_green_z,cup_blue_x,cup_blue_y,cup_blue_z,contact_cup_red_hit,contact_cup_red_impulse_n,contact_cup_green_hit,contact_cup_green_impulse_n,contact_cup_blue_hit,contact_cup_blue_impulse_n,contact_n_events,contact_events_json,attached_lego_xyz,physics_rate_hz,sim_time_s,render_fps,app_dt_ms
1777039818.4261022,1426283407719,1.8696527284516697,-0.01359971464090306,1.8697503251061045,-9.759665443476173e-05,1.8697503251061045,0.0,0.00012489530490711331,0.08406969904899597,1.8695278331467626,-0.11003726804790008,0.002370762530579646,-0.11005428152925276,1.701348135267622e-05,-0.11005428152925276,0.0,-0.0007492971490137279,0.0004436969757080078,-0.10928797089888635,0.07917142290702242,-0.0028538144824933514,0.07919190295040744,-2.0480043385021074e-05,0.07919190295040744,0.0,0.0005747642717324197,-0.02895832434296608,0.07859665863529,0.8038089268635962,0.004372728941076539,0.8037775465202089,3.1380343387232834e-05,0.8037775465202089,0.0,1.5631424188613892,-0.012198925949633121,-0.759333491997793,-1.5806003571198564,0.007553446388529104,-1.5806545634849485,5.420636509212429e-05,-1.5806545634849485,0.0,-1.5178773403167725,0.0019197087967768312,-0.0627230168030839,0.2331067745895208,0.007486074709443306,0.07514552062258535,-0.04914291203022003,-0.2800198793411255,1.862645149230957e-08,0.0388491153717041,-0.28001973032951355,7.450580596923828e-09,0.12684112787246704,-0.2800197899341583,7.450580596923828e-09,0,0.0,0,0.0,0,0.0,0,,,120.0,1426.8333333323644,,
1777039818.528475,1426283407719,1.8647498067926729,-0.1000051829999993,1.866575144488498,-0.0018253376958250467,1.8647498067926729,-0.1000051829999993,0.00012491599773056805,0.08111831545829773,1.8646248907949423,-0.1091825690143958,0.017433346726777956,-0.10950076997148775,0.00031820095709195195,-0.1091825690143958,0.017433346726777956,-0.000749570201151073,0.0014542937278747559,-0.10843299881324472,0.07814257566967753,-0.020985457938313377,0.0785256112913306,-0.00038303562165306615,0.07814257566967753,-0.020985457938313377,0.0005746472743339837,-0.02895147167146206,0.07756792839534354,0.8053853678405003,0.03215475982462365,0.8047984653075779,0.0005869025329223732,0.8053853678405003,0.03215475982462365,1.5631422996520996,-0.012335438281297684,-0.7577569318115993,-1.57787721498958,0.055544091057134634,-1.5788910296754326,0.0010138146858527097,-1.57787721498958,0.055544091057134634,-1.5178773403167725,0.0018628847319632769,-0.05999987467280743,0.2331068134680223,0.007486103182843988,0.07514551949451122,-0.04914291203022003,-0.2800198793411255,1.862645149230957e-08,0.0388491153717041,-0.28001973032951355,7.450580596923828e-09,0.12684112787246704,-0.2800197899341583,7.450580596923828e-09,0,0.0,0,0.0,0,0.0,0,,,120.0,1426.849999999031,,
1777039818.626774,1426300074387,1.8455320447152102,-0.22008307700001506,1.8497461800913624,-0.004214135376152228,1.8497461800913624,-0.20002072400000184,0.00012490851804614067,0.08076606690883636,1.845407136197164,-0.10583244355530703,0.03836585739798599,-0.10656707031126271,0.0007346267559556752,-0.10656707031126271,0.03486849910602346,-0.0007494388846680522,0.0013291984796524048,-0.10508300467063898,0.07410984930843377,-0.04618304788581311,0.07499415908148424,-0.0008843097730504706,0.07499415908148424,-0.04197308943770501,0.0005747147370129824,-0.028928576037287712,0.07353513457142079,0.811564472817165,0.07076351715090455,0.8102094979366269,0.0013549748805381512,0.8102094979366269,0.06431285006665544,1.5631422996520996,-0.012302489951252937,-0.7515778268349346,-1.5672034369440466,0.12223680915641542,-1.5695440188222887,0.002340581878242043,-1.5695440188222887,0.11109393507304689,-1.5178773403167725,0.001792191993445158,-0.04932609662727416,0.23310675970343453,0.007486130942850092,0.07514544538956897,-0.04914291203022003,-0.2800198793411255,1.862645149230957e-08,0.0388491153717041,-0.28001973032951355,7.450580596923828e-09,0.12684112787246704,-0.2800197899341583,7.450580596923828e-09,0,0.0,0,0.0,0,0.0,0,,,120.0,1426.8666666656977,,
1777039818.7269764,1426316741054,1.8247487101916162,-0.30000538300000007,1.830547902228669,-0.005799192037052814,1.8247487101916162,-0.30000538300000007,0.0008820107323117554,0.009589314460754395,1.8238666994593045,-0.10220940056874074,0.05229826799815819,-0.10322034142684704,0.0010109408581062962,-0.10220940056874074,0.05229826799815819,-0.07228008657693863,-3.292222023010254,-0.02992931399180211,0.06974859742749095,-0.06295424054385401,0.07096552136002095,-0.0012169239325299924,0.06974859742749095,-0.06295424054385401,0.0661419928073883,1.4969855546951294,0.003606604620102649,0.81824695776358,0.09646101079040374,0.8163823381355334,0.0018646196280466265,0.81824695776358,0.09646101079040374,1.436187505722046,-5.7180352210998535,-0.6179405479584659,-1.555660120981619,0.16662662685175697,-1.5588810625458565,0.0032209415642374672,-1.555660120981619,0.16662662685175697,-1.5684928894042969,-1.2198388576507568,0.012832768422677887,0.24651040015320705,0.007393300026953007,0.07894704312026009,-0.04914291203022003,-0.2800198793411255,1.862645149230957e-08,0.0388491153717041,-0.28001973032951355,7.450580596923828e-09,0.12684112787246704,-0.2800197899341583,7.450580596923828e-09,0,0.0,0,0.0,0,0.0,0,,,120.0,1426.8833333323644,,
1777039818.8217132,1426333407722,1.7897177229852244,-0.4000814969970005,1.7975524682901987,-0.0078347453049743,1.7897177229852244,-0.4000814969970005,0.008371291682124138,0.32918044924736023,1.7813464313031002,-0.09610264362044979,0.06974397973070187,-0.09746843114585857,0.0013657875254087792,-0.09610264362044979,0.06974397973070187,-0.10371015220880508,-0.7664810419082642,0.007607508588355294,0.06239756534591036,-0.08395458290524865,0.0640416373142098,-0.0016440719682994376,0.06239756534591036,-0.08395458290524865,0.07553446292877197,0.11233673244714737,-0.013136897582861615,0.8295105037744003,0.12863857712469295,0.8269913908043398,0.0025191129700604664,0.8295105037744003,0.12863857712469295,1.3128283023834229,-7.959690093994141,-0.4833177986090226,-1.5362034859868787,0.22221011384456227,-1.540554998514273,0.004351512527394297,-1.5362034859868787,0.22221011384456227,-1.5747439861297607,-0.14186382293701172,0.03854050014288202,0.26530117557842625,0.005499818623851057,0.08798609187593927,-0.04914291203022003,-0.2800198793411255,1.862645149230957e-08,0.0388491153717041,-0.28001973032951355,7.450580596923828e-09,0.12684112787246704,-0.2800197899341583,7.450580596923828e-09,0,0.0,0,0.0,0,0.0,0,,,120.0,1426.899999999031,,
1777039818.913959,1426350074389,1.7447463507206928,-0.5000077248338772,1.7545481396025138,-0.009801788881820928,1.7545481396025138,-0.48000425283423565,0.022508468478918076,0.8513361811637878,1.7222378822417748,-0.0882630346927146,0.08716356264351223,-0.08997172597244008,0.0017086912797254772,-0.08997172597244008,0.08367646874850009,-0.10289537161588669,0.3283305764198303,0.01463233692317209,0.052960606052654846,-0.10492347259974662,0.05501744972944383,-0.0020568436767889817,0.05501744972944383,-0.10072586995880489,0.07481364160776138,-0.08687861263751984,-0.021853035555106537,0.8439701910703055,0.16076795042202938,0.8408186127431437,0.0031515783271617304,0.8408186127431437,0.1543362154007715,1.165509581565857,-8.8325834274292,-0.32153939049555147,-1.5112258406179837,0.2777103522468802,-1.516669872995532,0.0054440323775482025,-1.516669872995532,0.2666001813849725,-1.5680084228515625,0.2016696184873581,0.05678258223357879,0.2874418375404511,0.0018878035998823289,0.09575594586619414,-0.04914291203022003,-0.2800198793411255,1.862645149230957e-08,0.0388491153717041,-0.28001973032951355,7.450580596923828e-09,0.12684112787246704,-0.2800197899341583,7.450580596923828e-09,0,0.0,0,0.0,0,0.0,0,,,120.0,1426.9166666656977,,
1777039819.0120265,1426366741057,1.701544514934079,-0.5800098062958929,1.7129470049771014,-0.011402490043022295,1.701544514934079,-0.5800098062958929,0.041356753557920456,1.0511292219161987,1.6601877613761586,-0.08073189920645317,0.10110988005579839,-0.0827196318069589,0.0019877326005057344,-0.08073189920645317,0.10110988005579839,-0.09797275066375732,0.3324122428894043,0.017240851457304154,0.04389497284684476,-0.12171140563617097,0.04628771358299127,-0.002392740736146509,0.04389497284684476,-0.12171140563617097,0.07012856751680374,-0.4447334408760071,-0.026233594669958983,0.8578609176509615,0.18649109434032812,0.8541946643855073,0.0036662532654542224,0.8578609176509615,0.18649109434032812,1.0132204294204712,-8.753714561462402,-0.15535951176950968,-1.4872310172620082,0.322144478200978,-1.4935640984706857,0.006333081208677482,-1.4872310172620082,0.322144478200978,-1.5543135404586792,0.36859044432640076,0.06708252319667096,0.308894848607616,-0.0036837184122432195,0.10748710406275352,-0.04914291203022003,-0.2800198793411255,1.862645149230957e-08,0.0388491153717041,-0.28001973032951355,7.450580596923828e-09,0.12684112787246704,-0.2800197899341583,7.450580596923828e-09,0,0.0,0,0.0,0,0.0,0,,,120.0,1426.9333333323643,,
1777039819.1098175,1426383407725,1.6384959638192156,-0.6800797518847403,1.6519528482490324,-0.013456884429816851,1.6384959638192156,-0.6800797518847403,0.06568856537342072,1.4204007387161255,1.5728073984457949,-0.06974099634288462,0.11855451648408935,-0.07208686007803904,0.002345863735154413,-0.06974099634288462,0.11855451648408935,-0.09557724744081497,0.060063332319259644,0.02583625109793035,0.03066463140051623,-0.14271045359594955,0.03348847386258815,-0.0028238424620719224,0.03066463140051623,-0.14271045359594955,0.06205594539642334,-0.623540997505188,-0.03139131399590711,0.8781329771340063,0.21866667734050563,0.873806172524005,0.004326804610001234,0.8781329771340063,0.21866667734050563,0.8750457167625427,-4.3453288078308105,0.0030872603714635627,-1.452213087599859,0.377724539185101,-1.4596872043575375,0.007474116757678617,-1.452213087599859,0.377724539185101,-1.5385007858276367,0.43910089135169983,0.08628769822777782,0.3269385568786308,-0.011477063787161155,0.12196289954924433,-0.04914291203022003,-0.2800198793411255,1.862645149230957e-08,0.0388491153717041,-0.28001973032951355,7.450580596923828e-09,0.12684112787246704,-0.2800197899341583,7.450580596923828e-09,0,0.0,0,0.0,0,0.0,0,,,120.0,1426.949999999031,,
1777039819.2056525,1426400074392,1.5497496578400867,-0.8000006372722597,1.5655528864301793,-0.015803228590092644,1.5655528864301793,-0.779996502781758,0.09642409533262253,1.8866218328475952,1.4533255625074641,-0.054270346958093324,0.1394596567180995,-0.057025235806340585,0.002754888848247261,-0.057025235806340585,0.13597244733473868,-0.09259167313575745,0.5013319849967957,0.03832132617766412,0.012041777909955587,-0.1678750962747702,0.015357985919563982,-0.003316208009608395,0.015357985919563982,-0.1636773546142897,0.05248504504561424,-0.3997213542461395,-0.040443267135658656,0.9066676597222235,0.2572249515411172,0.9015864328845302,0.005081226837693298,0.9015864328845302,0.2507930035085875,0.8504858613014221,-0.4321693181991577,0.0561817984208014,-1.402922313337797,0.44433005279752785,-1.4116996180881396,0.008777304750342552,-1.4116996180881396,0.4332195139802098,-1.5149943828582764,0.6377338767051697,0.11207206952047932,0.3300946981926888,-0.02080502686235752,0.1264828946631592,-0.04914291203022003,-0.2800198793411255,1.862645149230957e-08,0.0388491153717041,-0.28001973032951355,7.450580596923828e-09,0.12684112787246704,-0.2800197899341583,7.450580596923828e-09,0,0.0,0,0.0,0,0.0,0,,,120.0,1426.9666666656976,,
1777039819.3030562,1426416741060,1.4647439671888334,-0.9000067714370885,1.482549832130792,-0.01780586494195857,1.482549832130792,-0.8800002354895254,0.13437701761722565,2.107978582382202,1.3303669495716077,-0.039451778215785924,0.15689316925614574,-0.04255577550863972,0.003103997292853794,-0.04255577550863972,0.15340554124014721,-0.07892417162656784,1.1304712295532227,0.03947239341078192,-0.005796131008016838,-0.18886075380903358,-0.00205968237020206,-0.0037364486378147774,-0.00205968237020206,-0.18466250821790914,0.043378643691539764,-0.4108572006225586,-0.049174774699556605,0.933999618772959,0.28938001719465545,0.9282744823999932,0.005725136372965789,0.9282744823999932,0.28294729701935806,0.8605561256408691,0.40290674567222595,0.07344349313208987,-1.3557091221784165,0.499874672143139,-1.36559871543767,0.009889593259253537,-1.36559871543767,0.48876279952737045,-1.485514760017395,0.7806018590927124,0.12980563783897847,0.3289746740271343,-0.03172243799301144,0.12343904512508712,-0.04914291203022003,-0.2800198793411255,1.862645149230957e-08,0.0388491153717041,-0.28001973032951355,7.450580596923828e-09,0.12684112787246704,-0.2800197899341583,7.450580596923828e-09,0,0.0,0,0.0,0,0.0,0,,,120.0,1426.9833333323643,,
1777039819.4033904,1426433407727,1.3895286544656622,-0.9827291832559174,1.4090013874977512,-0.019472733032088962,1.3895286544656622,-0.9827291832559174,0.1783633977174759,2.578479290008545,1.2111652567481863,-0.02633991154517459,0.17131370671282095,-0.029734484671113386,0.0033945731259387955,-0.02633991154517459,0.17131370671282095,-0.06565648317337036,0.8599941730499268,0.03931657162819577,-0.02157959076598965,-0.2062195310414105,-0.01749336035542273,-0.0040862304105669205,-0.02157959076598965,-0.2062195310414105,0.03103877790272236,-0.5957415103912354,-0.05261836866871201,0.9581836684711383,0.31597783147141706,0.951922582445469,0.006261086025669327,0.9581836684711383,0.31597783147141706,0.8796418309211731,0.6433325409889221,0.07854183754996524,-1.3139336256145357,0.5458197025575509,-1.3247490176194245,0.01081539200488879,-1.3139336256145357,0.5458197025575509,-1.4503687620162964,0.9446752071380615,0.13643513640176064,0.3262476982307156,-0.04425557238180343,0.12075694880177536,-0.04914291203022003,-0.2800198793411255,1.862645149230957e-08,0.0388491153717041,-0.28001973032951355,7.450580596923828e-09,0.12684112787246704,-0.2800197899341583,7.450580596923828e-09,0,0.0,0,0.0,0,0.0,0,,,120.0,1426.999999999031,,
1777039819.505198,1426450074395,1.2766723144332375,-0.8815909022007308,1.2945013014867606,-0.017828987053523093,1.2945013014867606,-0.9015877622014907,0.22821204364299774,2.917067289352417,1.0484602707902397,-0.006666294167759066,0.1536828333111339,-0.009774322209578728,0.003108028041819662,-0.009774322209578728,0.15716877457319625,-0.053455859422683716,0.9842435717582703,0.04678956525492465,-0.045261783086186225,-0.18499629961112402,-0.04152048241885536,-0.003741300667330867,-0.04152048241885536,-0.189192514765733,0.015509559772908688,-0.7077001333236694,-0.06077134285909491,0.9944704728103569,0.28345874557159795,0.9887379019632808,0.005732570847076124,0.9887379019632808,0.2898883546306919,0.90289306640625,0.7447977066040039,0.09157740640410694,-1.251251846139807,0.4896462751033534,-1.261154281700146,0.009902435560338985,-1.261154281700146,0.5007527735809053,-1.4096969366073608,1.1118038892745972,0.15844509046755384,0.3223838437372698,-0.05830572976385817,0.11872507233659342,-0.04914291203022003,-0.2800198793411255,1.862645149230957e-08,0.0388491153717041,-0.28001973032951355,7.450580596923828e-09,0.12684112787246704,-0.2800197899341583,7.450580596923828e-09,0,0.0,0,0.0,0,0.0,0,,,120.0,1427.0166666656976,,
1777039819.6034145,1426466741062,1.1935155439793583,-0.7815938702009203,1.2093451007733,-0.015829556793941713,1.2093451007733,-0.8015909752003604,0.2839106023311615,3.183803081512451,0.9096049416481968,0.007829962611267735,0.136250907502834,0.005070484113838045,0.0027594784974296904,0.005070484113838045,0.13973689147414833,-0.039161454886198044,1.2450220584869385,0.04699141749746578,-0.06271170774304992,-0.16401255210887491,-0.05938997492564764,-0.0033217328174022787,-0.05938997492564764,-0.1682088186749084,-0.002062432235106826,-0.7885985374450684,-0.06064927550794309,1.0212079468244373,0.25130660654566944,1.0161182546547873,0.00508969216964994,1.0161182546547873,0.2577362943793686,0.9295942187309265,0.846467137336731,0.09161372809351076,-1.2050655676735442,0.4341067112105416,-1.2138574954274979,0.008791927753953654,-1.2138574954274979,0.4452133457632959,-1.3634488582611084,1.26267409324646,0.15838329058756417,0.3171686296614872,-0.07361807092775438,0.11621561056333919,-0.04914291203022003,-0.2800198793411255,1.862645149230957e-08,0.0388491153717041,-0.28001973032951355,7.450580596923828e-09,0.12684112787246704,-0.2800197899341583,7.450580596923828e-09,0,0.0,0,0.0,0,0.0,0,,,120.0,1427.0333333323642,,
1777039819.701547,1426483407730,1.1341853100818404,-0.7015899872009144,1.1484219654275132,-0.014236655345672755,1.1484219654275132,-0.7215967162000544,0.34510478377342224,3.4384121894836426,0.7890805263084182,0.018172671937806084,0.12230427603847102,0.015690875080629652,0.002481796857176432,0.015690875080629652,0.12579193770807037,-0.02270064502954483,1.3635528087615967,0.040873316967350914,-0.07516178373487797,-0.14722424103106121,-0.07217431125618769,-0.0029874724786902868,-0.07217431125618769,-0.15142252713283488,-0.021562203764915466,-0.8579858541488647,-0.05359957996996251,1.040284452302293,0.2255828833772166,1.035706927221957,0.004577525080335931,1.035706927221957,0.2320156656245519,0.9595196843147278,0.9372129440307617,0.08076476798756516,-1.1721128364731537,0.3896715846604106,-1.1800200474510996,0.007907210977945889,-1.1800200474510996,0.40078356449931984,-1.311738133430481,1.4135241508483887,0.13962529695732728,0.3103660600529149,-0.08990870104041748,0.11333901323032307,-0.04914291203022003,-0.2800198793411255,1.862645149230957e-08,0.0388491153717041,-0.28001973032951355,7.450580596923828e-09,0.12684112787246704,-0.2800197899341583,7.450580596923828e-09,0,0.0,0,0.0,0,0.0,0,,,120.0,1427.049999999031,,
1777039819.8006032,1426500074397,1.0690264984562845,-0.6015902982007909,1.0812595426301648,-0.01223304417388027,1.0812595426301648,-0.6215922902013562,0.4117259681224823,3.975175380706787,0.6573005303338022,0.029531444766341574,0.10487188705009257,0.027398926288701872,0.002132518477639702,0.027398926288701872,0.10835872294511086,-0.0062093185260891914,1.676455020904541,0.03574076329243077,-0.08883495006145306,-0.1262399359740147,-0.08626792277079268,-0.002567027290660384,-0.08626792277079268,-0.13043722804647312,-0.04090846702456474,-0.9483755826950073,-0.04792648303688832,1.0612350258168448,0.19342989004353675,1.0573017237065414,0.003933302110303405,1.0573017237065414,0.19986114919927678,0.9893108606338501,0.8581134676933289,0.07192416518299471,-1.1359228425394938,0.3341305450374012,-1.142717223581724,0.00679438104223018,-1.142717223581724,0.34523989388987103,-1.2602899074554443,1.3652819395065308,0.12436706491595051,0.3018653506030186,-0.10709207264407924,0.11073904287942363,-0.04914291203022003,-0.2800198793411255,1.862645149230957e-08,0.0388491153717041,-0.28001973032951355,7.450580596923828e-09,0.12684112787246704,-0.2800197899341583,7.450580596923828e-09,0,0.0,0,0.0,0,0.0,0,,,120.0,1427.0666666656975,,
1777039819.9116182,1426516741065,1.0138661283905057,-0.5015876262009449,1.0240992297434646,-0.010233101352958851,1.0138661283905057,-0.5015876262009449,0.48560217022895813,4.611918926239014,0.5282639581615476,0.03914724494875945,0.08743897805199834,0.037363365367474144,0.0017838795812853067,0.03914724494875945,0.08743897805199834,0.00835699774324894,1.6373440027236938,0.03079024720551051,-0.10041000638505605,-0.10525500495327898,-0.09826265450209395,-0.002147351882962098,-0.10041000638505605,-0.10525500495327898,-0.058757469058036804,-0.8245202302932739,-0.04165253732701925,1.078970791085154,0.16127593758304665,1.0756805324566054,0.0032902586285485924,1.078970791085154,0.16127593758304665,1.0164422988891602,0.7530549764633179,0.06252849219599388,-1.1052861042648487,0.2785878486202196,-1.110969692817911,0.005683588553062169,-1.1052861042648487,0.2785878486202196,-1.2133851051330566,1.3416826725006104,0.1080990008682079,0.29173806025205695,-0.12526503072016495,0.10827481048635328,-0.04914291203022003,-0.2800198793411255,1.862645149230957e-08,0.0388491153717041,-0.28001973032951355,7.450580596923828e-09,0.12684112787246704,-0.2800197899341583,7.450580596923828e-09,0,0.0,0,0.0,0,0.0,0,,,120.0,1427.0833333323642,,
1777039820.01471,1426533407732,0.9608766111014672,-0.38159024120079216,0.9687086757545805,-0.007832064653113369,0.9687086757545805,-0.40159088820105227,0.5676379203796387,5.080844879150391,0.3932386907218285,0.048384612453845656,0.06652050206646078,0.04701929223155009,0.001365320222295567,0.04701929223155009,0.0700071034950622,0.023454660549759865,1.6838566064834595,0.02492995190408579,-0.11152952292292044,-0.0800743093124498,-0.10988601347253465,-0.0016435094503857856,-0.10988601347253465,-0.08427131914506143,-0.07668740302324295,-0.8757070302963257,-0.03484211989967749,1.0960085600341083,0.1226930663906872,1.0934903089765426,0.002518251057565646,1.0934903089765426,0.12912389308724015,1.0439413785934448,0.7617471218109131,0.05206718144066347,-1.0758550839408734,0.21193984619548087,-1.0802051076017263,0.004350023660852909,-1.0802051076017263,0.22304844801847493,-1.1658813953399658,1.3239425420761108,0.09002631139909245,0.2789830836196996,-0.14453926944167786,0.10586132804523407,-0.04914291203022003,-0.2800198793411255,1.862645149230957e-08,0.0388491153717041,-0.28001973032951355,7.450580596923828e-09,0.12684112787246704,-0.2800197899341583,7.450580596923828e-09,0,0.0,0,0.0,0,0.0,0,,,120.0,1427.0999999990308,,
1777039820.127942,1426550074400,0.9221959659779734,-0.271035069504186,0.9277178114091268,-0.005521845431153416,0.9277178114091268,-0.28159103860502704,0.6594609618186951,6.068312168121338,0.2627350041592783,0.055115063046850335,0.04546414528924984,0.05416500137709115,0.0009500616697591877,0.05416500137709115,0.04908819779501758,0.0349939800798893,1.1429390907287598,0.020121082966961037,-0.11962769966492165,-0.05421102388252616,-0.11848768824349741,-0.001140011421424239,-0.11848768824349741,-0.05909010621195241,-0.09043169766664505,-0.6908957958221436,-0.0291960019982766,1.1084558016965154,0.08860074791088465,1.106670139846227,0.0017856618502882782,1.106670139846227,0.09054022951236658,1.0649439096450806,0.5907235741615295,0.0435118920514348,-1.0544305994272918,0.14210639865899277,-1.0574382845890178,0.0030076851617260036,-1.0574382845890178,0.15639907637183087,-1.1295887231826782,1.0296754837036133,0.07515812375538644,0.2634965813180613,-0.16501200783054584,0.10408359103278295,-0.04914291203022003,-0.2800198793411255,1.862645149230957e-08,0.0388491153717041,-0.28001973032951355,7.450580596923828e-09,0.12684112787246704,-0.2800197899341583,7.450580596923828e-09,0,0.0,0,0.0,0,0.0,0,,,120.0,1427.1166666656975,,
1777039820.2271743,1426566741067,0.8999631531919379,-0.2866496247635015,0.9056690379364303,-0.005705884744492407,0.8999631531919379,-0.2866496247635015,0.7646641731262207,7.693415641784668,0.13529898006571717,0.05812667603140292,0.029662644799273316,0.05749242972081457,0.0006342463105883447,0.05812667603140292,0.029662644799273316,0.044124145060777664,1.0340720415115356,0.014002530970625253,-0.12300269378395315,-0.02982549217827378,-0.1223435977264885,-0.0006590960574646421,-0.12300269378395315,-0.02982549217827378,-0.10176336765289307,-0.724467933177948,-0.021239326131060082,1.1163089363949883,0.10872543121864638,1.114180423136672,0.0021285132583162003,1.1163089363949883,0.10872543121864638,1.08208429813385,0.5209581851959229,0.034224638261138196,-1.0461655731290402,0.06324615764851724,-1.047631485145076,0.001465912016035853,-1.0461655731290402,0.06324615764851724,-1.0999382734298706,0.8497872352600098,0.05377270030083037,0.24395341743437982,-0.18684377548398978,0.10279267233130424,-0.04914291203022003,-0.2800198793411255,1.862645149230957e-08,0.0388491153717041,-0.28001973032951355,7.450580596923828e-09,0.12684112787246704,-0.2800197899341583,7.450580596923828e-09,0,0.0,0,0.0,0,0.0,0,,,120.0,1427.1333333323641,,
1777039820.3453968,1426583407735,0.8654344904466372,-0.28267430695606044,0.8711206758765332,-0.005686185429895962,0.8654344904466372,-0.28267430695606044,0.8941621780395508,9.135490417480469,-0.028727687592913553,0.06017021405995027,0.004046902443955482,0.06004505470368307,0.000125159356267196,0.06017021405995027,0.004046902443955482,0.05186457559466362,0.8851333260536194,0.008305638465286647,-0.1243112597793013,0.008227196439521526,-0.12441141643181951,0.00010015665251821015,-0.1243112597793013,0.008227196439521526,-0.1109042763710022,-0.6838105916976929,-0.0134069834082991,1.130652728599228,0.12776933210928362,1.1281182382891801,0.002534490310047932,1.130652728599228,0.12776933210928362,1.0958774089813232,0.5158781409263611,0.03477531961790481,-1.0457748677632355,-0.056734170691376457,-1.0448403769385362,-0.0009344908246993189,-1.0457748677632355,-0.056734170691376457,-1.0760436058044434,0.8306758403778076,0.030268738041207888,0.21758726570165676,-0.21069688404445452,0.10177482437212652,-0.04914291203022003,-0.2800198793411255,1.862645149230957e-08,0.0388491153717041,-0.28001973032951355,7.450580596923828e-09,0.12684112787246704,-0.2800197899341583,7.450580596923828e-09,0,0.0,0,0.0,0,0.0,0,,,120.0,1427.1499999990308,,
1777039820.4334774,1426600074402,0.8384462616011934,-0.26690545777569646,0.8436576240377384,-0.005211362436544964,0.8436576240377384,-0.25878847371314895,0.9943508505821228,4.824902534484863,-0.1559045889809294,0.05945202155418309,-0.016901611967451616,0.05976929932579592,-0.0003172777716128339,0.05976929932579592,-0.014236532004073762,0.05810536816716194,-0.3132656514644623,0.0013466533870211475,-0.12187625809007088,0.038714669994676994,-0.12261315897733535,0.0007369008872644689,-0.12261315897733535,0.03432497978743175,-0.11916635930538177,0.4722978472709656,-0.0027098987846891076,1.1437521292920638,0.13753918711142404,1.1410770381754316,0.002675091116632222,1.1410770381754316,0.13160242455868196,1.107795238494873,0.39663583040237427,0.03595689079719078,-1.0564111812974402,-0.15149463966684906,-1.05351337714219,-0.0028978041552500944,-1.05351337714219,-0.13672255567758318,-1.0558843612670898,0.4732595682144165,-0.0005268200303503168,0.19434997028876821,-0.22743680651692727,0.10088633760974205,-0.04914291203022003,-0.2800198793411255,1.862645149230957e-08,0.0388491153717041,-0.28001973032951355,7.450580596923828e-09,0.12684112787246704,-0.2800197899341583,7.450580596923828e-09,0,0.0,0,0.0,0,0.0,0,,,120.0,1427.1666666656974,,
1777039820.5447383,1426616741070,0.806079801585011,-0.37282627498344306,0.813346723011746,-0.007266921426735018,0.806079801585011,-0.37282627498344306,1.036454677581787,2.062352180480957,-0.23037487599677609,0.057542951506431135,-0.02211219511330171,0.057973950057882855,-0.0004309985514517195,0.057542951506431135,-0.02211219511330171,0.061959926038980484,-0.7818992733955383,-0.004416974532549349,-0.11739133721864396,0.05184327080275779,-0.11840183728451333,0.001010500065869363,-0.11739133721864396,0.05184327080275779,-0.12273167073726654,0.734856128692627,0.005340333518622578,1.160316330137666,0.19090081582500304,1.156595398105819,0.0037209320318469796,1.160316330137666,0.19090081582500304,1.118895173072815,0.29409027099609375,0.041421157064851055,-1.074118273305867,-0.2045418956641057,-1.070131456968063,-0.003986816337803845,-1.074118273305867,-0.2045418956641057,-1.0465939044952393,0.21434473991394043,-0.027524368810627697,0.18385335702180813,-0.23293534059390508,0.09998251216510938,-0.04914291203022003,-0.2800198793411255,1.862645149230957e-08,0.0388491153717041,-0.28001973032951355,7.450580596923828e-09,0.12684112787246704,-0.2800197899341583,7.450580596923828e-09,0,0.0,0,0.0,0,0.0,0,,,120.0,1427.183333332364,,
1777039820.6425104,1426633407738,0.754144603546454,-0.4928180611693501,0.7638078257274502,-0.009663222180996245,0.7638078257274502,-0.47280355016995795,1.0334035158157349,-1.261024832725525,-0.2792589122692809,0.05446269319489572,-0.02922886570808307,0.055035815500449066,-0.0005731223055533488,0.055035815500449066,-0.028041812106950392,0.06422658264636993,-0.016700029373168945,-0.009763889451474217,-0.110169500355812,0.0685287006738649,-0.11151321746474926,0.0013437171089372701,-0.11151321746474926,0.06574558751004042,-0.12308647483587265,0.527988851070404,0.012916974480060656,1.186909068742352,0.25234103989774664,1.1819611422639076,0.004947926478444442,1.1819611422639076,0.24209287142224875,1.1311525106430054,0.41123345494270325,0.055756558099346654,-1.1026112325506763,-0.27037241528529204,-1.0973097451938307,-0.005301487356845547,-1.0973097451938307,-0.25939194986399156,-1.0474811792373657,0.047764990478754044,-0.055130053313310556,0.18395078597961373,-0.2308560398329504,0.09889560940483835,-0.04914291203022003,-0.2800198793411255,1.862645149230957e-08,0.0388491153717041,-0.28001973032951355,7.450580596923828e-09,0.12684112787246704,-0.2800198197364807,7.450580596923828e-09,0,0.0,0,0.0,1,0.00839707833665674,3,"[{""t"":1427.1999999990308,""type"":""CONTACT_PERSIST"",""a0"":""/World/Containers/cup_blue"",""a1"":""/World/defaultGroundPlane/geom"",""c0"":""/World/Containers/cup_blue/mesh"",""c1"":""/World/defaultGroundPlane/geom"",""impulse"":[0.0,-6.166347000058737e-18,0.0033977219109146972],""impulse_mag"":0.0033977219109146972,""position"":[0.12788918308722666,-0.28241785978659606,7.260289235907691e-13],""n_contacts"":39},{""t"":1427.1999999990308,""type"":""CONTACT_PERSIST"",""a0"":""/World/Containers/cup_blue"",""a1"":""/World/defaultGroundPlane/collisionPlane"",""c0"":""/World/Containers/cup_blue/mesh"",""c1"":""/World/defaultGroundPlane/collisionPlane"",""impulse"":[5.959696712233521e-10,0.0,0.0049993564257420076],""impulse_mag"":0.004999356425742043,""position"":[0.12219293881207705,-0.2924179593101144,1.5133991837501526e-08],""n_contacts"":32},{""t"":1427.1999999990308,""type"":""CONTACT_FOUND"",""a0"":""/World/SO_ARM101/moving_jaw_so101_v1_link"",""a1"":""/World/Containers/cup_blue"",""c0"":""/World/SO_ARM101/moving_jaw_so101_v1_link/collisions"",""c1"":""/World/Containers/cup_blue/mesh"",""impulse"":[0.0,0.0,0.0],""impulse_mag"":0.0,""position"":[0.16389357298612595,-0.25598372519016266,0.09798244386911392],""n_contacts"":2}]",,120.0,1427.1999999990308,,
1777039820.7382817,1426650074405,0.7115715175479299,-0.5727265643233475,0.7228263417424289,-0.011254824194498969,0.7228263417424289,-0.5527261211687386,0.9862146377563477,-3.7007999420166016,-0.27464312020841775,0.05193769845246092,-0.03396821089782707,0.05260521811310105,-0.0006675196606401312,0.05260521811310105,-0.032781991655615975,0.061793792992830276,-0.08627602458000183,-0.009856094540369356,-0.10424950980142146,0.07964035896200422,-0.10581454675751786,0.0015650369560964023,-0.10581454675751786,0.07685920199905799,-0.1206517368555069,0.11593320220708847,0.016402227054085436,1.2087080603763707,0.29325714336746944,1.2029451749123774,0.005762885463993284,1.2029451749123774,0.2830161781478193,1.1444958448410034,0.4762570858001709,0.06421221553536727,-1.1259679010547827,-0.31421223509284624,-1.1197932206994046,-0.006174680355378159,-1.1197932206994046,-0.30323948764593717,-1.0581296682357788,-0.5127269625663757,-0.06783823281900392,0.1934787054617146,-0.2222060903233305,0.09795801051586653,-0.04914291203022003,-0.2800198793411255,1.862645149230957e-08,0.0388491153717041,-0.28001973032951355,7.450580596923828e-09,0.12684109807014465,-0.2800198197364807,1.4901161193847656e-08,0,0.0,0,0.0,1,0.005049776023103193,3,"[{""t"":1427.2166666656974,""type"":""CONTACT_LOST"",""a0"":""/World/SO_ARM101/moving_jaw_so101_v1_link"",""a1"":""/World/Containers/cup_blue"",""c0"":""/World/SO_ARM101/moving_jaw_so101_v1_link/collisions"",""c1"":""/World/Containers/cup_blue/mesh"",""impulse"":[0.0,0.0,0.0],""impulse_mag"":0.0,""position"":[0.0,0.0,0.0],""n_contacts"":0},{""t"":1427.2166666656974,""type"":""CONTACT_PERSIST"",""a0"":""/World/Containers/cup_blue"",""a1"":""/World/defaultGroundPlane/geom"",""c0"":""/World/Containers/cup_blue/mesh"",""c1"":""/World/defaultGroundPlane/geom"",""impulse"":[0.0,-8.969504255517171e-18,0.004942290891509771],""impulse_mag"":0.004942290891509771,""position"":[0.12788918308722666,-0.28241785978659606,7.260289235907691e-13],""n_contacts"":39},{""t"":1427.2166666656974,""type"":""CONTACT_PERSIST"",""a0"":""/World/Containers/cup_blue"",""a1"":""/World/defaultGroundPlane/collisionPlane"",""c0"":""/World/Containers/cup_blue/mesh"",""c1"":""/World/defaultGroundPlane/collisionPlane"",""impulse"":[1.2813224439800486e-11,0.0,0.0001074851315934211],""impulse_mag"":0.00010748513159342186,""position"":[0.12219293881207705,-0.2924179593101144,1.5133991837501526e-08],""n_contacts"":32}]",,120.0,1427.2166666656974,,
1777039820.8362832,1426666741073,0.6492978542805525,-0.6727279457667509,0.6625562895728455,-0.01325843529229298,0.6625562895728455,-0.6527220467512912,0.8990967869758606,-7.032496929168701,-0.24979893269530806,0.048244269407929516,-0.03989925762508488,0.04903062253739524,-0.0007863531294657264,0.04903062253739524,-0.03871271479768758,0.06163078173995018,0.16972815990447998,-0.013386512332020664,-0.09559006006496243,0.09354602775922215,-0.09743370869543984,0.0018436486304774097,-0.09743370869543984,0.0907641121328141,-0.11597969383001328,0.15896403789520264,0.020389633765050846,1.2405944748268594,0.3444615422581336,1.2338056665166768,0.006788808310182581,1.2338056665166768,0.33421778343628084,1.1615617275238037,0.4883464276790619,0.07903274730305565,-1.1601328030194396,-0.3690755145931224,-1.1528588910926405,-0.007273911926799048,-1.1528588910926405,-0.3580997739233113,-1.075646162033081,-0.4618440568447113,-0.0844866409863585,0.21065957331960625,-0.2056467729546706,0.09536159922422807,-0.04914291203022003,-0.2800198793411255,1.862645149230957e-08,0.0388491153717041,-0.28001973032951355,7.450580596923828e-09,0.12684114277362823,-0.2800197899341583,1.1175870895385742e-08,0,0.0,0,0.0,1,0.004781796483598559,4,"[{""t"":1427.233333332364,""type"":""CONTACT_PERSIST"",""a0"":""/World/Containers/cup_blue"",""a1"":""/World/defaultGroundPlane/geom"",""c0"":""/World/Containers/cup_blue/mesh"",""c1"":""/World/defaultGroundPlane/geom"",""impulse"":[0.0,-5.258775753205018e-18,0.0028976405338880795],""impulse_mag"":0.0028976405338880795,""position"":[0.12788918308722666,-0.28241785978659606,7.260289235907691e-13],""n_contacts"":39},{""t"":1427.233333332364,""type"":""CONTACT_PERSIST"",""a0"":""/World/Containers/cup_blue"",""a1"":""/World/defaultGroundPlane/collisionPlane"",""c0"":""/World/Containers/cup_blue/mesh"",""c1"":""/World/defaultGroundPlane/collisionPlane"",""impulse"":[3.306254228729877e-11,0.0,0.0002773487358354032],""impulse_mag"":0.0002773487358354052,""position"":[0.12219293881207705,-0.2924179593101144,1.5133991837501526e-08],""n_contacts"":32},{""t"":1427.233333332364,""type"":""CONTACT_PERSIST"",""a0"":""/World/Containers/cup_blue"",""a1"":""/World/defaultGroundPlane/geom"",""c0"":""/World/Containers/cup_blue/mesh"",""c1"":""/World/defaultGroundPlane/geom"",""impulse"":[0.0,-2.257169463848199e-18,0.0012437240213785117],""impulse_mag"":0.0012437240213785117,""position"":[0.12788918308722666,-0.28241785978659606,7.260289235907691e-13],""n_contacts"":39},{""t"":1427.233333332364,""type"":""CONTACT_PERSIST"",""a0"":""/World/Containers/cup_blue"",""a1"":""/World/defaultGroundPlane/collisionPlane"",""c0"":""/World/Containers/cup_blue/mesh"",""c1"":""/World/defaultGroundPlane/collisionPlane"",""impulse"":[4.328288552221671e-11,0.0,0.0003630831924965605],""impulse_mag"":0.0003630831924965631,""position"":[0.12219293881207705,-0.2924179593101144,1.5133991837501526e-08],""n_contacts"":32}]",,120.0,1427.233333332364,,
1777039820.9368453,1426683407740,0.5770256469028462,-0.7727270588831057,0.5922814175478295,-0.01525577064498329,0.5922814175478295,-0.7527254465860627,0.7883919477462769,-10.000115394592285,-0.21136630084343067,0.04395783023226836,-0.045830169818663856,0.04486264461832694,-0.0009048143860585778,0.04486264461832694,-0.044643881235026696,0.05903250351548195,1.4352654218673706,-0.015074673283213588,-0.08554026510680961,0.10745138113475136,-0.08766165273939468,0.00212138763258507,-0.08766165273939468,0.10467006159697594,-0.11033640801906586,0.45502614974975586,0.02479614291225625,1.2776005129621564,0.39566477968161284,1.2697889952189507,0.007811517743205654,1.2697889952189507,0.38542321581787964,1.183406114578247,0.43891406059265137,0.0941943983839093,-1.1997831584068703,-0.423937549631983,-1.191413457940667,-0.008369700466203334,-1.191413457940667,-0.4129641607640506,-1.098781704902649,-0.5596585869789124,-0.1010014535042214,0.23099518126269095,-0.1809688778025761,0.0937881017973641,-0.04914291203022003,-0.2800198793411255,1.862645149230957e-08,0.0388491153717041,-0.28001973032951355,7.450580596923828e-09,0.12684112787246704,-0.2800197899341583,1.1175870895385742e-08,0,0.0,0,0.0,1,0.003360101588327784,4,"[{""t"":1427.2499999990307,""type"":""CONTACT_PERSIST"",""a0"":""/World/Containers/cup_blue"",""a1"":""/World/defaultGroundPlane/geom"",""c0"":""/World/Containers/cup_blue/mesh"",""c1"":""/World/defaultGroundPlane/geom"",""impulse"":[0.0,-2.464276051496824e-18,0.0013578419202531222],""impulse_mag"":0.0013578419202531222,""position"":[0.12788918308722666,-0.28241785978659606,7.260289235907691e-13],""n_contacts"":39},{""t"":1427.2499999990307,""type"":""CONTACT_PERSIST"",""a0"":""/World/Containers/cup_blue"",""a1"":""/World/defaultGroundPlane/collisionPlane"",""c0"":""/World/Containers/cup_blue/mesh"",""c1"":""/World/defaultGroundPlane/collisionPlane"",""impulse"":[3.770716833391419e-11,0.0,0.0003163106848660391],""impulse_mag"":0.0003163106848660413,""position"":[0.12219293881207705,-0.2924179593101144,1.5133991837501526e-08],""n_contacts"":32},{""t"":1427.2499999990307,""type"":""CONTACT_PERSIST"",""a0"":""/World/Containers/cup_blue"",""a1"":""/World/defaultGroundPlane/geom"",""c0"":""/World/Containers/cup_blue/mesh"",""c1"":""/World/defaultGroundPlane/geom"",""impulse"":[0.0,-2.463427087519048e-18,0.0013573741570098719],""impulse_mag"":0.0013573741570098719,""position"":[0.12788918308722666,-0.28241785978659606,7.260289235907691e-13],""n_contacts"":39},{""t"":1427.2499999990307,""type"":""CONTACT_PERSIST"",""a0"":""/World/Containers/cup_blue"",""a1"":""/World/defaultGroundPlane/collisionPlane"",""c0"":""/World/Containers/cup_blue/mesh"",""c1"":""/World/defaultGroundPlane/collisionPlane"",""impulse"":[3.916916807176693e-11,0.0,0.00032857482619874645],""impulse_mag"":0.0003285748261987488,""position"":[0.12219293881207705,-0.2924179593101144,1.5133991837501526e-08],""n_contacts"":32}]",,120.0,1427.2499999990307,,
1777039821.0378191,1426700074408,0.49474863556056736,-0.8733663709575026,0.5120093146800813,-0.0172606791195139,0.5120093146800813,-0.85272482123077,0.6971372961997986,-4.679699897766113,-0.20238866063923122,0.039078009655726095,-0.05179905198705815,0.04010173445756774,-0.0010237248018416453,0.04010173445756774,-0.05057480893976026,0.05455698445439339,-0.1512511968612671,-0.015478974798667292,-0.07409925446438977,0.12144575722722925,-0.07649943417777559,0.002400179713385825,-0.07649943417777559,0.1185754513392682,-0.10302241146564484,0.15859289467334747,0.02892315700125507,1.3197293800587195,0.44719582260481866,1.3108912751645425,0.008838104894177023,1.3108912751645425,0.4366265871535322,1.2103686332702637,0.7960023283958435,0.10936074678845586,-1.244922401530961,-0.4791508139625123,-1.2354527577197465,-0.009469643811214512,-1.2354527577197465,-0.46782633928395456,-1.1275405883789062,-0.8035513162612915,-0.11738181315205476,0.24197217702793763,-0.16119898531716448,0.09231445490549316,-0.04914291203022003,-0.2800198793411255,1.862645149230957e-08,0.0388491153717041,-0.28001973032951355,7.450580596923828e-09,0.12684112787246704,-0.2800197899341583,7.450580596923828e-09,0,0.0,0,0.0,1,0.0032774459996289854,4,"[{""t"":1427.2666666656974,""type"":""CONTACT_PERSIST"",""a0"":""/World/Containers/cup_blue"",""a1"":""/World/defaultGroundPlane/geom"",""c0"":""/World/Containers/cup_blue/mesh"",""c1"":""/World/defaultGroundPlane/geom"",""impulse"":[0.0,-2.4677757008033452e-18,0.0013597702745755669],""impulse_mag"":0.0013597702745755669,""position"":[0.12788918308722666,-0.28241785978659606,7.260289235907691e-13],""n_contacts"":39},{""t"":1427.2666666656974,""type"":""CONTACT_PERSIST"",""a0"":""/World/Containers/cup_blue"",""a1"":""/World/defaultGroundPlane/collisionPlane"",""c0"":""/World/Containers/cup_blue/mesh"",""c1"":""/World/defaultGroundPlane/collisionPlane"",""impulse"":[3.812403875664422e-11,0.0,0.0003198076474291156],""impulse_mag"":0.0003198076474291179,""position"":[0.12219293881207705,-0.2924179593101144,1.5133991837501526e-08],""n_contacts"":32},{""t"":1427.2666666656974,""type"":""CONTACT_PERSIST"",""a0"":""/World/Containers/cup_blue"",""a1"":""/World/defaultGroundPlane/geom"",""c0"":""/World/Containers/cup_blue/mesh"",""c1"":""/World/defaultGroundPlane/geom"",""impulse"":[0.0,-2.250816412205617e-18,0.0012402234583532845],""impulse_mag"":0.0012402234583532845,""position"":[0.12788918308722666,-0.28241785978659606,7.260289235907691e-13],""n_contacts"":39},{""t"":1427.2666666656974,""type"":""CONTACT_PERSIST"",""a0"":""/World/Containers/cup_blue"",""a1"":""/World/defaultGroundPlane/collisionPlane"",""c0"":""/World/Containers/cup_blue/mesh"",""c1"":""/World/defaultGroundPlane/collisionPlane"",""impulse"":[4.263455704472431e-11,0.0,0.00035764461927101365],""impulse_mag"":0.0003576446192710162,""position"":[0.12219293881207705,-0.2924179593101144,1.5133991837501526e-08],""n_contacts"":32}]",,120.0,1427.2666666656974,,
1777039821.137091,1426716741075,0.403783657951253,-0.9004304535433185,0.42199857291460935,-0.018214914963356366,0.42199857291460935,-0.9204373045394041,0.6307408213615417,-3.9246203899383545,-0.22695716341028876,0.033682908858542165,-0.05340421319713275,0.03476322905233704,-0.0010803201937948717,0.03476322905233704,-0.05459081248616573,0.05106442794203758,0.28565993905067444,-0.017381519083495417,-0.06145014069692285,0.1252091469255198,-0.06398301145324607,0.002532870756323219,-0.06398301145324607,0.12799119492937083,-0.09410358965396881,0.07746085524559021,0.03265344895704596,1.3663068066038107,0.4610536319703638,1.3569800977315825,0.009326708872228195,1.3569800977315825,0.47129787824136604,1.242435097694397,0.9215583205223083,0.12387170890941368,-1.2948280820253912,-0.4939988521185094,-1.2848349203681795,-0.009993161657211758,-1.2848349203681795,-0.5049751150688117,-1.1618661880493164,-0.9214950799942017,-0.13296189397607483,0.2477546044274852,-0.1439290322552028,0.08977261117317005,-0.04914291203022003,-0.2800198793411255,1.862645149230957e-08,0.0388491153717041,-0.28001973032951355,7.450580596923828e-09,0.12684115767478943,-0.2800198495388031,1.862645149230957e-08,0,0.0,0,0.0,1,0.005984427015391706,4,"[{""t"":1427.283333332364,""type"":""CONTACT_PERSIST"",""a0"":""/World/Containers/cup_blue"",""a1"":""/World/defaultGroundPlane/geom"",""c0"":""/World/Containers/cup_blue/mesh"",""c1"":""/World/defaultGroundPlane/geom"",""impulse"":[0.0,-1.779652157685904e-18,0.0009806069920159644],""impulse_mag"":0.0009806069920159644,""position"":[0.12788918308722666,-0.28241785978659606,7.260289235907691e-13],""n_contacts"":39},{""t"":1427.283333332364,""type"":""CONTACT_PERSIST"",""a0"":""/World/Containers/cup_blue"",""a1"":""/World/defaultGroundPlane/collisionPlane"",""c0"":""/World/Containers/cup_blue/mesh"",""c1"":""/World/defaultGroundPlane/collisionPlane"",""impulse"":[5.840181317067275e-11,0.0,0.0004899099876638502],""impulse_mag"":0.0004899099876638537,""position"":[0.12219293881207705,-0.2924179593101144,1.5133991837501526e-08],""n_contacts"":32},{""t"":1427.283333332364,""type"":""CONTACT_PERSIST"",""a0"":""/World/Containers/cup_blue"",""a1"":""/World/defaultGroundPlane/geom"",""c0"":""/World/Containers/cup_blue/mesh"",""c1"":""/World/defaultGroundPlane/geom"",""impulse"":[0.0,-8.192058257001047e-18,0.004513910035711888],""impulse_mag"":0.004513910035711888,""position"":[0.12788918308722666,-0.28241785978659606,7.260289235907691e-13],""n_contacts"":39},{""t"":1427.283333332364,""type"":""CONTACT_PERSIST"",""a0"":""/World/Containers/cup_blue"",""a1"":""/World/defaultGroundPlane/collisionPlane"",""c0"":""/World/Containers/cup_blue/mesh"",""c1"":""/World/defaultGroundPlane/collisionPlane"",""impulse"":[0.0,0.0,0.0],""impulse_mag"":0.0,""position"":[0.12219293881207705,-0.2924179593101144,1.5133991837501526e-08],""n_contacts"":32}]",,120.0,1427.283333332364,,
1777039821.2404568,1426733407743,0.33495004538069206,-0.8204314575409515,0.35155514304732177,-0.01660509766662971,0.33495004538069206,-0.8204314575409515,0.5652974843978882,-4.721506595611572,-0.23034743901719612,0.02960041153031266,-0.04865950090841026,0.030585254026985576,-0.0009848424966729177,0.02960041153031266,-0.04865950090841026,0.04752662032842636,-0.35209518671035767,-0.017926208798113703,-0.05187849873851696,0.114084905175435,-0.0541875167257164,0.0023090179871994437,-0.05187849873851696,0.114084905175435,-0.08371139317750931,0.18676666915416718,0.03183289443899235,1.4015521572607241,0.4200911928216987,1.393049734271481,0.008502422989243197,1.4015521572607241,0.4200911928216987,1.279629111289978,0.9650306105613708,0.1219230459707461,-1.3325919375938224,-0.45010938565245656,-1.323481962298839,-0.009109975294983474,-1.3325919375938224,-0.45010938565245656,-1.2016948461532593,-0.9342234134674072,-0.13089709144056316,0.25127096697355733,-0.12607611225783397,0.08695219717164172,-0.04914291203022003,-0.2800198793411255,1.862645149230957e-08,0.0388491153717041,-0.28001973032951355,7.450580596923828e-09,0.12684114277362823,-0.2800198197364807,3.725290298461914e-09,0,0.0,0,0.0,1,0.0031034434838375148,4,"[{""t"":1427.2999999990307,""type"":""CONTACT_PERSIST"",""a0"":""/World/Containers/cup_blue"",""a1"":""/World/defaultGroundPlane/geom"",""c0"":""/World/Containers/cup_blue/mesh"",""c1"":""/World/defaultGroundPlane/geom"",""impulse"":[0.0,-2.183026890631984e-18,0.0012028707229774227],""impulse_mag"":0.0012028707229774227,""position"":[0.12788918308722666,-0.28241785978659606,7.260289235907691e-13],""n_contacts"":39},{""t"":1427.2999999990307,""type"":""CONTACT_PERSIST"",""a0"":""/World/Containers/cup_blue"",""a1"":""/World/defaultGroundPlane/collisionPlane"",""c0"":""/World/Containers/cup_blue/mesh"",""c1"":""/World/defaultGroundPlane/collisionPlane"",""impulse"":[4.4902453717049484e-11,0.0,0.0003766691188502591],""impulse_mag"":0.00037666911885026177,""position"":[0.12219293881207705,-0.2924179593101144,1.5133991837501526e-08],""n_contacts"":32},{""t"":1427.2999999990307,""type"":""CONTACT_PERSIST"",""a0"":""/World/Containers/cup_blue"",""a1"":""/World/defaultGroundPlane/geom"",""c0"":""/World/Containers/cup_blue/mesh"",""c1"":""/World/defaultGroundPlane/geom"",""impulse"":[0.0,-2.0127676922368255e-18,0.0011090560906268365],""impulse_mag"":0.0011090560906268365,""position"":[0.12788918308722666,-0.28241785978659606,7.260289235907691e-13],""n_contacts"":39},{""t"":1427.2999999990307,""type"":""CONTACT_PERSIST"",""a0"":""/World/Containers/cup_blue"",""a1"":""/World/defaultGroundPlane/collisionPlane"",""c0"":""/World/Containers/cup_blue/mesh"",""c1"":""/World/defaultGroundPlane/collisionPlane"",""impulse"":[4.945367748122875e-11,0.0,0.0004148475513829908],""impulse_mag"":0.0004148475513829937,""position"":[0.12219293881207705,-0.2924179593101144,1.5133991837501526e-08],""n_contacts"":32}]",,120.0,1427.2999999990307,,
1777039821.339027,1426750074410,0.2436917382954758,-0.7004221315422221,0.25790236092826657,-0.01421062263279077,0.25790236092826657,-0.7204251575409429,0.4959326386451721,-6.85474157333374,-0.2522409003496963,0.02418791346518158,-0.041541790033505964,0.025030740490588323,-0.0008428270254067435,0.025030740490588323,-0.042728162463291926,0.04200003668665886,0.24529510736465454,-0.01781212322147728,-0.039188596109121544,0.09739703630974171,-0.04116465092838095,0.0019760548192594082,-0.04116465092838095,0.10017855242947438,-0.0724915862083435,0.43623271584510803,0.03330299009922196,1.4482797793258542,0.3586419877173013,1.4410034159469547,0.007276363378899475,1.4410034159469547,0.3688842754484788,1.321855068206787,1.0549910068511963,0.12642471111906706,-1.382658546035345,-0.3842692432476829,-1.3748622401231414,-0.007796305912203705,-1.3748622401231414,-0.39524340770800337,-1.2470316886901855,-1.454105257987976,-0.13562685734515956,0.2533794863427896,-0.10618522292521874,0.08378891981446672,-0.04914291203022003,-0.2800198793411255,1.862645149230957e-08,0.0388491153717041,-0.28001973032951355,7.450580596923828e-09,0.12684114277362823,-0.2800198197364807,7.450580596923828e-09,0,0.0,0,0.0,1,0.0058005133279834835,4,"[{""t"":1427.3166666656973,""type"":""CONTACT_PERSIST"",""a0"":""/World/Containers/cup_blue"",""a1"":""/World/defaultGroundPlane/geom"",""c0"":""/World/Containers/cup_blue/mesh"",""c1"":""/World/defaultGroundPlane/geom"",""impulse"":[0.0,-7.642633142766411e-18,0.004211171005692904],""impulse_mag"":0.004211171005692904,""position"":[0.12788918308722666,-0.28241785978659606,7.260289235907691e-13],""n_contacts"":39},{""t"":1427.3166666656973,""type"":""CONTACT_PERSIST"",""a0"":""/World/Containers/cup_blue"",""a1"":""/World/defaultGroundPlane/collisionPlane"",""c0"":""/World/Containers/cup_blue/mesh"",""c1"":""/World/defaultGroundPlane/collisionPlane"",""impulse"":[0.0,0.0,0.0],""impulse_mag"":0.0,""position"":[0.12219293881207705,-0.2924179593101144,1.5133991837501526e-08],""n_contacts"":32},{""t"":1427.3166666656973,""type"":""CONTACT_PERSIST"",""a0"":""/World/Containers/cup_blue"",""a1"":""/World/defaultGroundPlane/geom"",""c0"":""/World/Containers/cup_blue/mesh"",""c1"":""/World/defaultGroundPlane/geom"",""impulse"":[0.0,-2.166406284950729e-18,0.0011937125999565978],""impulse_mag"":0.0011937125999565978,""position"":[0.12788918308722666,-0.28241785978659606,7.260289235907691e-13],""n_contacts"":39},{""t"":1427.3166666656973,""type"":""CONTACT_PERSIST"",""a0"":""/World/Containers/cup_blue"",""a1"":""/World/defaultGroundPlane/collisionPlane"",""c0"":""/World/Containers/cup_blue/mesh"",""c1"":""/World/defaultGroundPlane/collisionPlane"",""impulse"":[4.7162733787797784e-11,0.0,0.00039562972233397886],""impulse_mag"":0.0003956297223339817,""position"":[0.12219293881207705,-0.2924179593101144,1.5133991837501526e-08],""n_contacts"":32}]",,120.0,1427.3166666656973,,
1777039821.4370842,1426766741078,0.1786553516848847,-0.6004318355398128,0.1908653998807007,-0.012210048195816003,0.1908653998807007,-0.6204341105407412,0.40239548683166504,-6.155636787414551,-0.22374013514678034,0.02033062827179927,-0.035611400779850845,0.02105480193166456,-0.000724173659865289,0.02105480193166456,-0.0367977286682221,0.03841271996498108,-0.5273379683494568,-0.01808209169318181,-0.030144976521860826,0.08349290899593864,-0.03184284192890201,0.0016978654070411818,-0.03184284192890201,0.08627432068584807,-0.05959705635905266,0.7274274230003357,0.029452079837191832,1.4815808101151235,0.3074432649816487,1.4753288146999737,0.006251995415149869,1.4753288146999737,0.31768516817423426,1.3676832914352417,1.272770643234253,0.11389751867988185,-1.418339147691075,-0.32941204549986924,-1.4116404073615927,-0.006698740329482256,-1.4116404073615927,-0.34038579794386187,-1.2960505485534668,-1.2998504638671875,-0.12228859913760814,0.25448647467938124,-0.08202973155723028,0.08070755119003763,-0.04914291203022003,-0.2800198793411255,1.862645149230957e-08,0.0388491153717041,-0.28001973032951355,7.450580596923828e-09,0.12684115767478943,-0.2800197899341583,0.0,0,0.0,0,0.0,1,0.005324607696024943,4,"[{""t"":1427.333333332364,""type"":""CONTACT_PERSIST"",""a0"":""/World/Containers/cup_blue"",""a1"":""/World/defaultGroundPlane/geom"",""c0"":""/World/Containers/cup_blue/mesh"",""c1"":""/World/defaultGroundPlane/geom"",""impulse"":[0.0,-6.7049418931602566e-18,0.0036944931681546223],""impulse_mag"":0.0036944931681546223,""position"":[0.12788918308722666,-0.28241785978659606,7.260289235907691e-13],""n_contacts"":39},{""t"":1427.333333332364,""type"":""CONTACT_PERSIST"",""a0"":""/World/Containers/cup_blue"",""a1"":""/World/defaultGroundPlane/collisionPlane"",""c0"":""/World/Containers/cup_blue/mesh"",""c1"":""/World/defaultGroundPlane/collisionPlane"",""impulse"":[0.0,0.0,0.0],""impulse_mag"":0.0,""position"":[0.12219293881207705,-0.2924179593101144,1.5133991837501526e-08],""n_contacts"":32},{""t"":1427.333333332364,""type"":""CONTACT_PERSIST"",""a0"":""/World/Containers/cup_blue"",""a1"":""/World/defaultGroundPlane/geom"",""c0"":""/World/Containers/cup_blue/mesh"",""c1"":""/World/defaultGroundPlane/geom"",""impulse"":[0.0,-2.4038723957243152e-18,0.0013245588979771128],""impulse_mag"":0.0013245588979771128,""position"":[0.12788918308722666,-0.28241785978659606,7.260289235907691e-13],""n_contacts"":39},{""t"":1427.333333332364,""type"":""CONTACT_PERSIST"",""a0"":""/World/Containers/cup_blue"",""a1"":""/World/defaultGroundPlane/collisionPlane"",""c0"":""/World/Containers/cup_blue/mesh"",""c1"":""/World/defaultGroundPlane/collisionPlane"",""impulse"":[3.642506565468273e-11,0.0,0.00030555562989320606],""impulse_mag"":0.00030555562989320823,""position"":[0.12219293881207705,-0.2924179593101144,1.5133991837501526e-08],""n_contacts"":32}]",,120.0,1427.333333332364,,
1777039821.5426393,1426783407745,0.1236125519623189,-0.5004326025397845,0.13382283245162951,-0.010210280489310608,0.1236125519623189,-0.5004326025397845,0.30747511982917786,-3.9784622192382812,-0.18386256786685895,0.0170660591984371,-0.02968048147601329,0.017671627339661055,-0.0006055681412239534,0.0170660591984371,-0.02968048147601329,0.03229299187660217,1.2677758932113647,-0.015226932678165071,-0.022491012830901377,0.06958753895001374,-0.023910801005441785,0.0014197881745404081,-0.022491012830901377,0.06958753895001374,-0.04826073348522186,-0.504697859287262,0.025769720654320486,1.5097647555004021,0.25623996617329725,1.5045367149732207,0.005228040527181399,1.5097647555004021,0.25623996617329725,1.4105463027954102,1.2508612871170044,0.09921845270499197,-1.4485370155811892,-0.27454994468980254,-1.4429353982417499,-0.005601617339439313,-1.4485370155811892,-0.27454994468980254,-1.3419997692108154,-1.0727522373199463,-0.10653724637037376,0.25379974385627535,-0.05859264542534658,0.07894560128037877,-0.04914291203022003,-0.2800198793411255,1.862645149230957e-08,0.0388491153717041,-0.28001973032951355,7.450580596923828e-09,0.12684114277362823,-0.2800198197364807,7.450580596923828e-09,0,0.0,0,0.0,1,0.009324654927695528,4,"[{""t"":1427.3499999990306,""type"":""CONTACT_PERSIST"",""a0"":""/World/Containers/cup_blue"",""a1"":""/World/defaultGroundPlane/geom"",""c0"":""/World/Containers/cup_blue/mesh"",""c1"":""/World/defaultGroundPlane/geom"",""impulse"":[0.0,-1.2955056615874497e-17,0.007138371947803535],""impulse_mag"":0.007138371947803535,""position"":[0.12788918308722666,-0.28241785978659606,7.260289235907691e-13],""n_contacts"":39},{""t"":1427.3499999990306,""type"":""CONTACT_PERSIST"",""a0"":""/World/Containers/cup_blue"",""a1"":""/World/defaultGroundPlane/collisionPlane"",""c0"":""/World/Containers/cup_blue/mesh"",""c1"":""/World/defaultGroundPlane/collisionPlane"",""impulse"":[9.271135291769039e-11,0.0,0.0007777192658977583],""impulse_mag"":0.0007777192658977638,""position"":[0.12219293881207705,-0.2924179593101144,1.5133991837501526e-08],""n_contacts"":32},{""t"":1427.3499999990306,""type"":""CONTACT_PERSIST"",""a0"":""/World/Containers/cup_blue"",""a1"":""/World/defaultGroundPlane/geom"",""c0"":""/World/Containers/cup_blue/mesh"",""c1"":""/World/defaultGroundPlane/geom"",""impulse"":[0.0,-1.7294350260807608e-18,0.0009529368280709605],""impulse_mag"":0.0009529368280709605,""position"":[0.12788918308722666,-0.28241785978659606,7.260289235907691e-13],""n_contacts"":39},{""t"":1427.3499999990306,""type"":""CONTACT_PERSIST"",""a0"":""/World/Containers/cup_blue"",""a1"":""/World/defaultGroundPlane/collisionPlane"",""c0"":""/World/Containers/cup_blue/mesh"",""c1"":""/World/defaultGroundPlane/collisionPlane"",""impulse"":[5.43149517875062e-11,0.0,0.00045562688592326595],""impulse_mag"":0.00045562688592326914,""position"":[0.12219293881207705,-0.2924179593101144,1.5133991837501526e-08],""n_contacts"":32}]",,120.0,1427.3499999990306,,
1777039821.6398757,1426800074413,0.08677852900219267,-0.420433994540747,0.09538676097216615,-0.008608231969973484,0.08677852900219267,-0.420433994540747,0.2271735817193985,-4.175137519836426,-0.14039505271720581,0.014881446264334434,-0.024935792199631622,0.01539199747188832,-0.0005105512075538853,0.014881446264334434,-0.024935792199631622,0.027216792106628418,-0.16376444697380066,-0.012335345842293984,-0.01736906635016682,0.058463351153641395,-0.018566082041113256,0.0011970156909464347,-0.01736906635016682,0.058463351153641395,-0.03798848018050194,0.33874475955963135,0.020619413830335116,1.5286251349989157,0.2152777256966628,1.5242174024539061,0.0044077325450095906,1.5286251349989157,0.2152777256966628,1.4487111568450928,1.156500220298767,0.07991397815382295,-1.4687450893858962,-0.23066069109216022,-1.4640223962615102,-0.0047226931243860015,-1.4687450893858962,-0.23066069109216022,-1.3828809261322021,-0.9506759643554688,-0.08586416325369406,0.25093822336007315,-0.04081882000427392,0.07706128642958962,-0.04914291203022003,-0.2800198793411255,1.862645149230957e-08,0.0388491153717041,-0.28001973032951355,7.450580596923828e-09,0.12684118747711182,-0.2800198197364807,7.450580596923828e-09,0,0.0,0,0.0,1,0.0027802433868089407,4,"[{""t"":1427.3666666656973,""type"":""CONTACT_PERSIST"",""a0"":""/World/Containers/cup_blue"",""a1"":""/World/defaultGroundPlane/geom"",""c0"":""/World/Containers/cup_blue/mesh"",""c1"":""/World/defaultGroundPlane/geom"",""impulse"":[0.0,-1.664220047514809e-18,0.0009170026939671061],""impulse_mag"":0.0009170026939671061,""position"":[0.12788918308722666,-0.28241785978659606,7.260289235907691e-13],""n_contacts"":39},{""t"":1427.3666666656973,""type"":""CONTACT_PERSIST"",""a0"":""/World/Containers/cup_blue"",""a1"":""/World/defaultGroundPlane/collisionPlane"",""c0"":""/World/Containers/cup_blue/mesh"",""c1"":""/World/defaultGroundPlane/collisionPlane"",""impulse"":[5.595755546685603e-11,0.0,0.00046940604750034254],""impulse_mag"":0.00046940604750034584,""position"":[0.12219293881207705,-0.2924179593101144,1.5133991837501526e-08],""n_contacts"":32},{""t"":1427.3666666656973,""type"":""CONTACT_PERSIST"",""a0"":""/World/Containers/cup_blue"",""a1"":""/World/defaultGroundPlane/geom"",""c0"":""/World/Containers/cup_blue/mesh"",""c1"":""/World/defaultGroundPlane/geom"",""impulse"":[0.0,-1.6626739098269893e-18,0.000916150767579893],""impulse_mag"":0.000916150767579893,""position"":[0.12788918308722666,-0.28241785978659606,7.260289235907691e-13],""n_contacts"":39},{""t"":1427.3666666656973,""type"":""CONTACT_PERSIST"",""a0"":""/World/Containers/cup_blue"",""a1"":""/World/defaultGroundPlane/collisionPlane"",""c0"":""/World/Containers/cup_blue/mesh"",""c1"":""/World/defaultGroundPlane/collisionPlane"",""impulse"":[5.694434995155012e-11,0.0,0.00047768387776159216],""impulse_mag"":0.00047768387776159557,""position"":[0.12219293881207705,-0.2924179593101144,1.5133991837501526e-08],""n_contacts"":32}]",,120.0,1427.3666666656973,,
1777039821.7342448,1426816741080,0.04973538301171411,-0.3204347855407471,0.05634323308562071,-0.0066078500739066015,0.04973538301171411,-0.3204347855407471,0.17079757153987885,-4.038036346435547,-0.12106218852816474,0.012684430316924719,-0.01900487431922728,0.013076339578470618,-0.00039190926154589883,0.012684430316924719,-0.01900487431922728,0.024618547409772873,-0.00878283753991127,-0.011934117092848154,-0.012218040315170356,0.044557984445034796,-0.013136893367629663,0.0009188530524593067,-0.012218040315170356,0.044557984445034796,-0.028820855543017387,0.14230969548225403,0.016602815227847033,1.5475925932088317,0.16407443917721518,1.5442091300395215,0.0033834631693101525,1.5475925932088317,0.16407443917721518,1.4818475246429443,0.9740281105041504,0.06574506856588735,-1.4890678933583126,-0.17579860344911633,-1.4854426601838506,-0.0036252331744619504,-1.4890678933583126,-0.17579860344911633,-1.4183863401412964,-1.006730318069458,-0.07068155321701619,0.24686270975893015,-0.02694709145421998,0.075591962076891,-0.04914291203022003,-0.2800198793411255,1.862645149230957e-08,0.0388491153717041,-0.28001973032951355,7.450580596923828e-09,0.12684115767478943,-0.2800197899341583,-3.725290298461914e-09,0,0.0,0,0.0,1,0.002902999586126504,4,"[{""t"":1427.383333332364,""type"":""CONTACT_PERSIST"",""a0"":""/World/Containers/cup_blue"",""a1"":""/World/defaultGroundPlane/geom"",""c0"":""/World/Containers/cup_blue/mesh"",""c1"":""/World/defaultGroundPlane/geom"",""impulse"":[0.0,-1.6806580752901662e-18,0.0009260602133736029],""impulse_mag"":0.0009260602133736029,""position"":[0.12788918308722666,-0.28241785978659606,7.260289235907691e-13],""n_contacts"":39},{""t"":1427.383333332364,""type"":""CONTACT_PERSIST"",""a0"":""/World/Containers/cup_blue"",""a1"":""/World/defaultGroundPlane/collisionPlane"",""c0"":""/World/Containers/cup_blue/mesh"",""c1"":""/World/defaultGroundPlane/collisionPlane"",""impulse"":[5.638735295067322e-11,0.0,0.0004730114483209036],""impulse_mag"":0.00047301144832090694,""position"":[0.12219293881207705,-0.2924179593101144,1.5133991837501526e-08],""n_contacts"":32},{""t"":1427.383333332364,""type"":""CONTACT_PERSIST"",""a0"":""/World/Containers/cup_blue"",""a1"":""/World/defaultGroundPlane/geom"",""c0"":""/World/Containers/cup_blue/mesh"",""c1"":""/World/defaultGroundPlane/geom"",""impulse"":[0.0,-2.0342023614012688e-18,0.0011208668427116208],""impulse_mag"":0.0011208668427116208,""position"":[0.12788918308722666,-0.28241785978659606,7.260289235907691e-13],""n_contacts"":39},{""t"":1427.383333332364,""type"":""CONTACT_PERSIST"",""a0"":""/World/Containers/cup_blue"",""a1"":""/World/defaultGroundPlane/collisionPlane"",""c0"":""/World/Containers/cup_blue/mesh"",""c1"":""/World/defaultGroundPlane/collisionPlane"",""impulse"":[4.5664434961210226e-11,0.0,0.00038306108172037057],""impulse_mag"":0.00038306108172037333,""position"":[0.12219293881207705,-0.2924179593101144,1.5133991837501526e-08],""n_contacts"":32}]",,120.0,1427.383333332364,,
1777039821.8315754,1426833407748,0.022692216153419875,-0.22043619954085775,0.02730081487710568,-0.004608598723685804,0.022692216153419875,-0.22043619954085775,0.12180225551128387,-5.377755165100098,-0.099110039357864,0.011080509611285786,-0.013073993388740188,0.011353843979099798,-0.00027333436781401196,0.011080509611285786,-0.013073993388740188,0.020251672714948654,0.0996258482336998,-0.009171163103662868,-0.008457559048497367,0.030652704367563482,-0.00909840667025873,0.0006408476217613628,-0.008457559048497367,0.030652704367563482,-0.021532690152525902,0.014749988913536072,0.013075131104028534,1.561439692949775,0.11287147165682407,1.5590799202749523,0.002359772674822569,1.561439692949775,0.11287147165682407,1.5098427534103394,0.7950908541679382,0.05159693953943556,-1.5039044566187798,-0.12093685759964318,-1.5013760631482824,-0.002528393470497381,-1.5039044566187798,-0.12093685759964318,-1.448444128036499,-1.0290722846984863,-0.05546032858228078,0.2429559738070989,-0.01613954096078839,0.0748480091066793,-0.04914291203022003,-0.2800198793411255,1.862645149230957e-08,0.0388491153717041,-0.28001973032951355,7.450580596923828e-09,0.12684118747711182,-0.2800198197364807,1.1175870895385742e-08,0,0.0,0,0.0,1,0.0046487695731525286,4,"[{""t"":1427.3999999990306,""type"":""CONTACT_PERSIST"",""a0"":""/World/Containers/cup_blue"",""a1"":""/World/defaultGroundPlane/geom"",""c0"":""/World/Containers/cup_blue/mesh"",""c1"":""/World/defaultGroundPlane/geom"",""impulse"":[0.0,-5.2135462021633686e-18,0.0028727185798811394],""impulse_mag"":0.0028727185798811394,""position"":[0.12788918308722666,-0.28241785978659606,7.260289235907691e-13],""n_contacts"":39},{""t"":1427.3999999990306,""type"":""CONTACT_PERSIST"",""a0"":""/World/Containers/cup_blue"",""a1"":""/World/defaultGroundPlane/collisionPlane"",""c0"":""/World/Containers/cup_blue/mesh"",""c1"":""/World/defaultGroundPlane/collisionPlane"",""impulse"":[4.597207572167852e-11,0.0,0.0003856417607721596],""impulse_mag"":0.0003856417607721624,""position"":[0.12219293881207705,-0.2924179593101144,1.5133991837501526e-08],""n_contacts"":32},{""t"":1427.3999999990306,""type"":""CONTACT_PERSIST"",""a0"":""/World/Containers/cup_blue"",""a1"":""/World/defaultGroundPlane/geom"",""c0"":""/World/Containers/cup_blue/mesh"",""c1"":""/World/defaultGroundPlane/geom"",""impulse"":[0.0,-1.648008211429771e-18,0.0009080697946046712],""impulse_mag"":0.0009080697946046712,""position"":[0.12788918308722666,-0.28241785978659606,7.260289235907691e-13],""n_contacts"":39},{""t"":1427.3999999990306,""type"":""CONTACT_PERSIST"",""a0"":""/World/Containers/cup_blue"",""a1"":""/World/defaultGroundPlane/collisionPlane"",""c0"":""/World/Containers/cup_blue/mesh"",""c1"":""/World/defaultGroundPlane/collisionPlane"",""impulse"":[5.749933594035618e-11,0.0,0.00048233943789455225],""impulse_mag"":0.00048233943789455566,""position"":[0.12219293881207705,-0.2924179593101144,1.5133991837501526e-08],""n_contacts"":32}]",,120.0,1427.3999999990306,,
1777039821.985515,1426850074416,0.00022204367996964315,-0.06042990254076696,0.0016308593777622053,-0.0014088156977925621,0.00022204367996964315,-0.06042990254076696,0.07766073197126389,-5.155600547790527,-0.07743868829129424,0.00974781159265891,-0.003584076244944351,0.009831367955712064,-8.355636305315377e-05,0.00974781159265891,-0.003584076244944351,0.017450103536248207,0.05896608531475067,-0.007702291943589297,-0.005332974450543577,0.008403066018199396,-0.005528876989159128,0.000195902538615551,-0.005332974450543577,0.008403066018199396,-0.01534621324390173,-0.04290902614593506,0.010013238793358152,1.5729452507517314,0.0309423408952717,1.5722238851074577,0.0007213656442737193,1.5729452507517314,0.0309423408952717,1.5327622890472412,0.662367582321167,0.040182961704490205,-1.5162321598468402,-0.03315336833768017,-1.5154592480302558,-0.000772911816584454,-1.5162321598468402,-0.03315336833768017,-1.4729973077774048,-0.8558899760246277,-0.04323485206943545,0.23919569944749594,-0.0068398627092970225,0.07430037833492405,-0.04914291203022003,-0.2800198793411255,1.862645149230957e-08,0.0388491153717041,-0.28001973032951355,7.450580596923828e-09,0.12684118747711182,-0.2800197899341583,1.4901161193847656e-08,0,0.0,0,0.0,1,0.0030988467281076785,4,"[{""t"":1427.4166666656972,""type"":""CONTACT_PERSIST"",""a0"":""/World/Containers/cup_blue"",""a1"":""/World/defaultGroundPlane/geom"",""c0"":""/World/Containers/cup_blue/mesh"",""c1"":""/World/defaultGroundPlane/geom"",""impulse"":[0.0,-2.4219890037895544e-18,0.001334541347432605],""impulse_mag"":0.001334541347432605,""position"":[0.12788918308722666,-0.28241785978659606,7.260289235907691e-13],""n_contacts"":39},{""t"":1427.4166666656972,""type"":""CONTACT_PERSIST"",""a0"":""/World/Containers/cup_blue"",""a1"":""/World/defaultGroundPlane/collisionPlane"",""c0"":""/World/Containers/cup_blue/mesh"",""c1"":""/World/defaultGroundPlane/collisionPlane"",""impulse"":[3.564168057912376e-11,0.0,0.00029898411958129145],""impulse_mag"":0.00029898411958129357,""position"":[0.12219293881207705,-0.2924179593101144,1.5133991837501526e-08],""n_contacts"":32},{""t"":1427.4166666656972,""type"":""CONTACT_PERSIST"",""a0"":""/World/Containers/cup_blue"",""a1"":""/World/defaultGroundPlane/geom"",""c0"":""/World/Containers/cup_blue/mesh"",""c1"":""/World/defaultGroundPlane/geom"",""impulse"":[0.0,-1.973411623724715e-18,0.0010873704795812955],""impulse_mag"":0.0010873704795812955,""position"":[0.12788918308722666,-0.28241785978659606,7.260289235907691e-13],""n_contacts"":39},{""t"":1427.4166666656972,""type"":""CONTACT_PERSIST"",""a0"":""/World/Containers/cup_blue"",""a1"":""/World/defaultGroundPlane/collisionPlane"",""c0"":""/World/Containers/cup_blue/mesh"",""c1"":""/World/defaultGroundPlane/collisionPlane"",""impulse"":[4.5055239324565816e-11,0.0,0.0003779507815124816],""impulse_mag"":0.00037795078151248434,""position"":[0.12219293881207705,-0.2924179593101144,1.5133991837501526e-08],""n_contacts"":32}]",,120.0,1427.4166666656972,,
1777039822.0963242,1426866741083,-0.0016038428805768487,2.1815332126128226e-16,-0.0016038428805768487,0.0,-0.0016038428805768487,2.1815332126128226e-16,0.03527980297803879,-4.818339824676514,-0.03688364585861564,0.009639518903568388,1.2938596681681027e-17,0.009639518903568388,0.0,0.009639518903568388,1.2938596681681027e-17,0.01469932310283184,0.06794331967830658,-0.005059804199263452,-0.0050790762202814225,-3.0335259260286584e-17,-0.0050790762202814225,0.0,-0.0050790762202814225,-3.0335259260286584e-17,-0.009449021890759468,0.01595446467399597,0.0043699456704780456,1.573880172074076,-1.1170255370430183e-16,1.573880172074076,0.0,1.573880172074076,-1.1170255370430183e-16,1.5547541379928589,0.5685561299324036,0.019126034081217158,-1.517233887255613,1.1968441301028177e-16,-1.517233887255613,0.0,-1.517233887255613,1.1968441301028177e-16,-1.4965919256210327,-0.8069671392440796,-0.02064196163458032,0.23523916937942466,0.0017184279325541912,0.07386324094732914,-0.04914291203022003,-0.2800198793411255,1.862645149230957e-08,0.0388491153717041,-0.28001973032951355,7.450580596923828e-09,0.1268412172794342,-0.2800198495388031,1.4901161193847656e-08,0,0.0,0,0.0,1,0.008107577908731406,4,"[{""t"":1427.4333333323639,""type"":""CONTACT_PERSIST"",""a0"":""/World/Containers/cup_blue"",""a1"":""/World/defaultGroundPlane/geom"",""c0"":""/World/Containers/cup_blue/mesh"",""c1"":""/World/defaultGroundPlane/geom"",""impulse"":[0.0,-2.163615274570295e-18,0.001192174689094827],""impulse_mag"":0.001192174689094827,""position"":[0.12788918308722666,-0.28241785978659606,7.260289235907691e-13],""n_contacts"":39},{""t"":1427.4333333323639,""type"":""CONTACT_PERSIST"",""a0"":""/World/Containers/cup_blue"",""a1"":""/World/defaultGroundPlane/collisionPlane"",""c0"":""/World/Containers/cup_blue/mesh"",""c1"":""/World/defaultGroundPlane/collisionPlane"",""impulse"":[4.050773692171328e-11,0.0,0.00033980356602114625],""impulse_mag"":0.0003398035660211487,""position"":[0.12219293881207705,-0.2924179593101144,1.5133991837501526e-08],""n_contacts"":32},{""t"":1427.4333333323639,""type"":""CONTACT_PERSIST"",""a0"":""/World/Containers/cup_blue"",""a1"":""/World/defaultGroundPlane/geom"",""c0"":""/World/Containers/cup_blue/mesh"",""c1"":""/World/defaultGroundPlane/geom"",""impulse"":[0.0,-1.1183836999078074e-17,0.00616241129955597],""impulse_mag"":0.00616241129955597,""position"":[0.12788918308722666,-0.28241785978659606,7.260289235907691e-13],""n_contacts"":39},{""t"":1427.4333333323639,""type"":""CONTACT_PERSIST"",""a0"":""/World/Containers/cup_blue"",""a1"":""/World/defaultGroundPlane/collisionPlane"",""c0"":""/World/Containers/cup_blue/mesh"",""c1"":""/World/defaultGroundPlane/collisionPlane"",""impulse"":[4.9255883172085596e-11,0.0,0.0004131883540594572],""impulse_mag"":0.0004131883540594601,""position"":[0.12219293881207705,-0.2924179593101144,1.5133991837501526e-08],""n_contacts"":32}]",,120.0,1427.4333333323639,,
1777039822.2003682,1426883407751,-0.0016038428805768487,2.1815332126128226e-16,-0.0016038428805768487,0.0,-0.0016038428805768487,2.1815332126128226e-16,0.00967361032962799,-2.00667667388916,-0.01127745321020484,0.009639518903568388,1.2938596681681027e-17,0.009639518903568388,0.0,0.009639518903568388,1.2938596681681027e-17,0.013110901229083538,0.15719354152679443,-0.00347138232551515,-0.0050790762202814225,-3.0335259260286584e-17,-0.0050790762202814225,0.0,-0.0050790762202814225,-3.0335259260286584e-17,-0.006009244825690985,-0.06855979561805725,0.0009301686054095622,1.573880172074076,-1.1170255370430183e-16,1.573880172074076,0.0,1.573880172074076,-1.1170255370430183e-16,1.5676045417785645,0.30830860137939453,0.006275630295511592,-1.517233887255613,1.1968441301028177e-16,-1.517233887255613,0.0,-1.517233887255613,1.1968441301028177e-16,-1.51035737991333,-0.4576609432697296,-0.006876507342282956,0.23277531725090098,0.006315116665529653,0.07363308578789247,-0.04914291203022003,-0.2800198793411255,1.862645149230957e-08,0.0388491153717041,-0.28001973032951355,7.450580596923828e-09,0.126841202378273,-0.28001976013183594,1.862645149230957e-08,0,0.0,0,0.0,1,0.006986059929033677,4,"[{""t"":1427.4499999990305,""type"":""CONTACT_PERSIST"",""a0"":""/World/Containers/cup_blue"",""a1"":""/World/defaultGroundPlane/geom"",""c0"":""/World/Containers/cup_blue/mesh"",""c1"":""/World/defaultGroundPlane/geom"",""impulse"":[0.0,-2.7540693246888696e-18,0.0015175210644429171],""impulse_mag"":0.0015175210644429171,""position"":[0.12788918308722666,-0.28241785978659606,7.260289235907691e-13],""n_contacts"":39},{""t"":1427.4499999990305,""type"":""CONTACT_PERSIST"",""a0"":""/World/Containers/cup_blue"",""a1"":""/World/defaultGroundPlane/collisionPlane"",""c0"":""/World/Containers/cup_blue/mesh"",""c1"":""/World/defaultGroundPlane/collisionPlane"",""impulse"":[5.806935357913212e-11,0.0,0.00048712109492043965],""impulse_mag"":0.00048712109492044306,""position"":[0.12219293881207705,-0.2924179593101144,1.5133991837501526e-08],""n_contacts"":32},{""t"":1427.4499999990305,""type"":""CONTACT_PERSIST"",""a0"":""/World/Containers/cup_blue"",""a1"":""/World/defaultGroundPlane/geom"",""c0"":""/World/Containers/cup_blue/mesh"",""c1"":""/World/defaultGroundPlane/geom"",""impulse"":[0.0,-8.866811098459097e-18,0.00488570593284976],""impulse_mag"":0.00488570593284976,""position"":[0.12788918308722666,-0.28241785978659606,7.260289235907691e-13],""n_contacts"":39},{""t"":1427.4499999990305,""type"":""CONTACT_PERSIST"",""a0"":""/World/Containers/cup_blue"",""a1"":""/World/defaultGroundPlane/collisionPlane"",""c0"":""/World/Containers/cup_blue/mesh"",""c1"":""/World/defaultGroundPlane/collisionPlane"",""impulse"":[1.140973830715021e-11,0.0,9.571183682055562e-05],""impulse_mag"":9.57118368205563e-05,""position"":[0.12219293881207705,-0.2924179593101144,1.5133991837501526e-08],""n_contacts"":32}]",,120.0,1427.4499999990305,,
1777039822.2997782,1426900074418,-0.0016038428805768487,2.1815332126128226e-16,-0.0016038428805768487,0.0,-0.0016038428805768487,2.1815332126128226e-16,0.0004006004601251334,-0.4590064585208893,-0.002004443340701982,0.009639518903568388,1.2938596681681027e-17,0.009639518903568388,0.0,0.009639518903568388,1.2938596681681027e-17,0.012339561246335506,0.04066205024719238,-0.0027000423427671182,-0.0050790762202814225,-3.0335259260286584e-17,-0.0050790762202814225,0.0,-0.0050790762202814225,-3.0335259260286584e-17,-0.004750202409923077,-0.015823695808649063,-0.0003288738103583459,1.573880172074076,-1.1170255370430183e-16,1.573880172074076,0.0,1.573880172074076,-1.1170255370430183e-16,1.5726943016052246,0.06559126079082489,0.0011858704688514354,-1.517233887255613,1.1968441301028177e-16,-1.517233887255613,0.0,-1.517233887255613,1.1968441301028177e-16,-1.5158699750900269,-0.20014101266860962,-0.0013639121655861786,0.2318321582885591,0.007764373429794427,0.07358696273617527,-0.04914291203022003,-0.2800198793411255,1.862645149230957e-08,0.0388491153717041,-0.28001973032951355,7.450580596923828e-09,0.126841202378273,-0.2800198495388031,8.195638656616211e-08,0,0.0,0,0.0,1,0.009095153505541027,4,"[{""t"":1427.4666666656972,""type"":""CONTACT_PERSIST"",""a0"":""/World/Containers/cup_blue"",""a1"":""/World/defaultGroundPlane/geom"",""c0"":""/World/Containers/cup_blue/mesh"",""c1"":""/World/defaultGroundPlane/geom"",""impulse"":[0.0,-2.129715938036819e-18,0.0011734958018223551],""impulse_mag"":0.0011734958018223551,""position"":[0.12788918308722666,-0.28241785978659606,7.260289235907691e-13],""n_contacts"":39},{""t"":1427.4666666656972,""type"":""CONTACT_PERSIST"",""a0"":""/World/Containers/cup_blue"",""a1"":""/World/defaultGroundPlane/collisionPlane"",""c0"":""/World/Containers/cup_blue/mesh"",""c1"":""/World/defaultGroundPlane/collisionPlane"",""impulse"":[3.4835191148492855e-11,0.0,0.00029221879594842903],""impulse_mag"":0.0002922187959484311,""position"":[0.12219293881207705,-0.2924179593101144,1.5133991837501526e-08],""n_contacts"":32},{""t"":1427.4666666656972,""type"":""CONTACT_PERSIST"",""a0"":""/World/Containers/cup_blue"",""a1"":""/World/defaultGroundPlane/geom"",""c0"":""/World/Containers/cup_blue/mesh"",""c1"":""/World/defaultGroundPlane/geom"",""impulse"":[0.0,-1.2567006729163256e-17,0.006924552342752577],""impulse_mag"":0.006924552342752577,""position"":[0.12788918308722666,-0.28241785978659606,7.260289235907691e-13],""n_contacts"":39},{""t"":1427.4666666656972,""type"":""CONTACT_PERSIST"",""a0"":""/World/Containers/cup_blue"",""a1"":""/World/defaultGroundPlane/collisionPlane"",""c0"":""/World/Containers/cup_blue/mesh"",""c1"":""/World/defaultGroundPlane/collisionPlane"",""impulse"":[8.402901833549914e-11,0.0,0.0007048865650176594],""impulse_mag"":0.0007048865650176645,""position"":[0.12219293881207705,-0.2924179593101144,1.5133991837501526e-08],""n_contacts"":32}]",,120.0,1427.4666666656972,,
1777039822.4008648,1426916741086,-0.0016038428805768487,2.1815332126128226e-16,-0.0016038428805768487,0.0,-0.0016038428805768487,2.1815332126128226e-16,-0.0013922019861638546,0.2683252692222595,-0.0002116408944129941,0.009639518903568388,1.2938596681681027e-17,0.009639518903568388,0.0,0.009639518903568388,1.2938596681681027e-17,0.012006718665361404,-0.016644209623336792,-0.002367199761793016,-0.0050790762202814225,-3.0335259260286584e-17,-0.0050790762202814225,0.0,-0.0050790762202814225,-3.0335259260286584e-17,-0.004586457274854183,-0.014166411012411118,-0.0004926189454272393,1.573880172074076,-1.1170255370430183e-16,1.573880172074076,0.0,1.573880172074076,-1.1170255370430183e-16,1.5736863613128662,-0.04033178091049194,0.00019381076120983387,-1.517233887255613,1.1968441301028177e-16,-1.517233887255613,0.0,-1.517233887255613,1.1968441301028177e-16,-1.5169658660888672,-0.06556320190429688,-0.00026802116674584653,0.23167191205636764,0.008019596228672541,0.07361487728492856,-0.04914291203022003,-0.2800198793411255,1.862645149230957e-08,0.0388491153717041,-0.28001973032951355,7.450580596923828e-09,0.12684118747711182,-0.28001976013183594,7.450580596923828e-09,0,0.0,0,0.0,1,0.007182837954076151,4,"[{""t"":1427.4833333323638,""type"":""CONTACT_PERSIST"",""a0"":""/World/Containers/cup_blue"",""a1"":""/World/defaultGroundPlane/geom"",""c0"":""/World/Containers/cup_blue/mesh"",""c1"":""/World/defaultGroundPlane/geom"",""impulse"":[0.0,-2.3719922858259536e-18,0.0013069926065440995],""impulse_mag"":0.0013069926065440995,""position"":[0.12788918308722666,-0.28241785978659606,7.260289235907691e-13],""n_contacts"":39},{""t"":1427.4833333323638,""type"":""CONTACT_PERSIST"",""a0"":""/World/Containers/cup_blue"",""a1"":""/World/defaultGroundPlane/collisionPlane"",""c0"":""/World/Containers/cup_blue/mesh"",""c1"":""/World/defaultGroundPlane/collisionPlane"",""impulse"":[3.418870091545512e-11,0.0,0.0002867956427508034],""impulse_mag"":0.0002867956427508054,""position"":[0.12219293881207705,-0.2924179593101144,1.5133991837501526e-08],""n_contacts"":32},{""t"":1427.4833333323638,""type"":""CONTACT_PERSIST"",""a0"":""/World/Containers/cup_blue"",""a1"":""/World/defaultGroundPlane/geom"",""c0"":""/World/Containers/cup_blue/mesh"",""c1"":""/World/defaultGroundPlane/geom"",""impulse"":[0.0,-1.0143272733345456e-17,0.005589049704781246],""impulse_mag"":0.005589049704781246,""position"":[0.12788918308722666,-0.28241785978659606,7.260289235907691e-13],""n_contacts"":39},{""t"":1427.4833333323638,""type"":""CONTACT_PERSIST"",""a0"":""/World/Containers/cup_blue"",""a1"":""/World/defaultGroundPlane/collisionPlane"",""c0"":""/World/Containers/cup_blue/mesh"",""c1"":""/World/defaultGroundPlane/collisionPlane"",""impulse"":[0.0,0.0,0.0],""impulse_mag"":0.0,""position"":[0.12219293881207705,-0.2924179593101144,1.5133991837501526e-08],""n_contacts"":32}]",,120.0,1427.4833333323638,,
1777039822.502928,1426933407753,-0.0016038428805768487,2.1815332126128226e-16,-0.0016038428805768487,0.0,-0.0016038428805768487,2.1815332126128226e-16,-0.0014887265861034393,0.33842337131500244,-0.00011511629447340938,0.009639518903568388,1.2938596681681027e-17,0.009639518903568388,0.0,0.009639518903568388,1.2938596681681027e-17,0.01190867368131876,-0.03721483796834946,-0.0022691547777503717,-0.0050790762202814225,-3.0335259260286584e-17,-0.0050790762202814225,0.0,-0.0050790762202814225,-3.0335259260286584e-17,-0.004579255823045969,-0.005491934716701508,-0.0004998203972354535,1.573880172074076,-1.1170255370430183e-16,1.573880172074076,0.0,1.573880172074076,-1.1170255370430183e-16,1.5738722085952759,-0.06127428263425827,7.963478800165902e-06,-1.517233887255613,1.1968441301028177e-16,-1.517233887255613,0.0,-1.517233887255613,1.1968441301028177e-16,-1.5171853303909302,-0.046859197318553925,-4.855686468285825e-05,0.231648092831442,0.008009567737710275,0.07363601560257657,-0.04914291203022003,-0.2800198793411255,1.862645149230957e-08,0.0388491153717041,-0.28001973032951355,7.450580596923828e-09,0.12684117257595062,-0.2800198495388031,4.842877388000488e-08,0,0.0,0,0.0,1,0.009241220346382311,4,"[{""t"":1427.4999999990305,""type"":""CONTACT_PERSIST"",""a0"":""/World/Containers/cup_blue"",""a1"":""/World/defaultGroundPlane/geom"",""c0"":""/World/Containers/cup_blue/mesh"",""c1"":""/World/defaultGroundPlane/geom"",""impulse"":[0.0,-3.9444700399777005e-18,0.002173444354127696],""impulse_mag"":0.002173444354127696,""position"":[0.12788918308722666,-0.28241785978659606,7.260289235907691e-13],""n_contacts"":39},{""t"":1427.4999999990305,""type"":""CONTACT_PERSIST"",""a0"":""/World/Containers/cup_blue"",""a1"":""/World/defaultGroundPlane/collisionPlane"",""c0"":""/World/Containers/cup_blue/mesh"",""c1"":""/World/defaultGroundPlane/collisionPlane"",""impulse"":[2.18782596206335e-11,0.0,0.0001835281700550695],""impulse_mag"":0.0001835281700550708,""position"":[0.12219293881207705,-0.2924179593101144,1.5133991837501526e-08],""n_contacts"":32},{""t"":1427.4999999990305,""type"":""CONTACT_PERSIST"",""a0"":""/World/Containers/cup_blue"",""a1"":""/World/defaultGroundPlane/geom"",""c0"":""/World/Containers/cup_blue/mesh"",""c1"":""/World/defaultGroundPlane/geom"",""impulse"":[0.0,-1.1603006119982788e-17,0.006393378111170023],""impulse_mag"":0.006393378111170023,""position"":[0.12788918308722666,-0.28241785978659606,7.260289235907691e-13],""n_contacts"":39},{""t"":1427.4999999990305,""type"":""CONTACT_PERSIST"",""a0"":""/World/Containers/cup_blue"",""a1"":""/World/defaultGroundPlane/collisionPlane"",""c0"":""/World/Containers/cup_blue/mesh"",""c1"":""/World/defaultGroundPlane/collisionPlane"",""impulse"":[5.851622187020081e-11,0.0,0.0004908697110295179],""impulse_mag"":0.0004908697110295214,""position"":[0.12219293881207705,-0.2924179593101144,1.5133991837501526e-08],""n_contacts"":32}]",,120.0,1427.4999999990305,,
