inbarajaldrin/isaac-sim-mcp/docs/notes/2026-04-24-no-collision-baseline/motion_csv/20260424T070813_grasp_home.csv
t_wall,t_sim_ns,ref_pos_shoulder_pan,ref_vel_shoulder_pan,fb_pos_shoulder_pan,err_pos_shoulder_pan,js_pos_shoulder_pan,js_vel_shoulder_pan,isaac_pos_shoulder_pan,isaac_vel_shoulder_pan,isaac_lag_shoulder_pan,ref_pos_shoulder_lift,ref_vel_shoulder_lift,fb_pos_shoulder_lift,err_pos_shoulder_lift,js_pos_shoulder_lift,js_vel_shoulder_lift,isaac_pos_shoulder_lift,isaac_vel_shoulder_lift,isaac_lag_shoulder_lift,ref_pos_elbow_flex,ref_vel_elbow_flex,fb_pos_elbow_flex,err_pos_elbow_flex,js_pos_elbow_flex,js_vel_elbow_flex,isaac_pos_elbow_flex,isaac_vel_elbow_flex,isaac_lag_elbow_flex,ref_pos_wrist_flex,ref_vel_wrist_flex,fb_pos_wrist_flex,err_pos_wrist_flex,js_pos_wrist_flex,js_vel_wrist_flex,isaac_pos_wrist_flex,isaac_vel_wrist_flex,isaac_lag_wrist_flex,ref_pos_wrist_roll,ref_vel_wrist_roll,fb_pos_wrist_roll,err_pos_wrist_roll,js_pos_wrist_roll,js_vel_wrist_roll,isaac_pos_wrist_roll,isaac_vel_wrist_roll,isaac_lag_wrist_roll,tcp_x,tcp_y,tcp_z,cup_red_x,cup_red_y,cup_red_z,cup_green_x,cup_green_y,cup_green_z,cup_blue_x,cup_blue_y,cup_blue_z,contact_cup_red_hit,contact_cup_red_impulse_n,contact_cup_green_hit,contact_cup_green_impulse_n,contact_cup_blue_hit,contact_cup_blue_impulse_n,contact_n_events,contact_events_json,attached_lego_xyz,physics_rate_hz,sim_time_s,render_fps,app_dt_ms
1777039693.2588155,1386583405649,1.5706422396497504,-0.013600374681564787,1.570739844042611,-9.76043928606618e-05,1.570739844042611,0.0,1.5556187629699707,-0.17143863439559937,0.015023476679779657,0.0051981948739736475,-0.006336490007738619,0.0052436693020355704,-4.547442806192292e-05,0.0052436693020355704,0.0,-0.21985813975334167,0.18915347754955292,0.22505633462731534,-0.013457062438027242,0.0025814474603231743,-0.013475588443226766,1.852600519952445e-05,-0.013475588443226766,0.0,0.21551036834716797,-0.041022107005119324,-0.22896743078519521,1.5674509032837651,-0.005941434087122714,1.5674935425551362,-4.263927137104773e-05,1.5674935425551362,0.0,0.8020681142807007,-0.01424289122223854,0.7653827890030644,-1.5741146113562359,-0.005696635237361281,-1.5740737289072808,-4.088244895505966e-05,-1.5740737289072808,0.0,-1.5761544704437256,-0.007446250878274441,0.002039859087489715,0.05045659719172923,-0.2791256667686869,0.12504382049167767,-0.049156203866004944,-0.2799960970878601,2.2351741790771484e-08,0.038835763931274414,-0.2799961566925049,7.450580596923828e-09,0.12682770192623138,-0.2799961566925049,7.450580596923828e-09,0,0.0,0,0.0,0,0.0,0,,,120.0,1387.1333333324005,,
1777039693.3762584,1386583405649,1.563539520158969,-0.12000269899999116,1.5657399640418919,-0.0022004438829228423,1.563539520158969,-0.12000269899999116,1.5556185245513916,-0.17236168682575226,0.007920995607577419,0.0018889984632220053,-0.05590992313953471,0.0029141974745129895,-0.0010251990112909843,0.0018889984632220053,-0.05590992313953471,-0.21985813975334167,0.1885836124420166,0.22174713821656367,-0.012108915962642195,0.022777362375566063,-0.012526575799679852,0.000417659837037657,-0.012108915962642195,0.022777362375566063,0.21551035344600677,-0.040755871683359146,-0.22761926940864896,1.5643480226145277,-0.052424153236895185,1.5653093043879258,-0.0009612817733981593,1.5643480226145277,-0.052424153236895185,0.8020679950714111,-0.014376167207956314,0.7622800275431165,-1.5770896471974998,-0.050264174311923614,-1.5761679721367199,-0.0009216750607798918,-1.5770896471974998,-0.050264174311923614,-1.576154351234436,-0.007179696578532457,-0.0009352959630637425,0.05045664823651978,-0.27912572330965846,0.12504385108404156,-0.049156203866004944,-0.2799960970878601,2.2351741790771484e-08,0.038835763931274414,-0.2799961566925049,7.450580596923828e-09,0.12682770192623138,-0.2799961566925049,7.450580596923828e-09,0,0.0,0,0.0,0,0.0,0,,,120.0,1387.1499999990672,,
1777039693.4785688,1386600072316,1.5465393114196808,-0.2200024209999947,1.5507393726398333,-0.0042000612201524845,1.5465393114196808,-0.2200024209999947,1.5556190013885498,-0.17180697619915009,-0.009079689968868987,-0.0060314930914698115,-0.10250034833485133,-0.004074661270544706,-0.0019568318209251057,-0.0060314930914698115,-0.10250034833485133,-0.21985816955566406,0.1896142214536667,0.21382667646419426,-0.008882155913561443,0.04175801801440443,-0.009679357286598796,0.0007972013730373536,-0.008882155913561443,0.04175801801440443,0.21551038324832916,-0.04101661592721939,-0.22439253916189061,1.5569213434195228,-0.09610984358770565,1.5587561742595328,-0.0018348308400100155,1.5569213434195228,-0.09610984358770565,0.8020680546760559,-0.014291111379861832,0.7548532887434669,-1.5842103325031756,-0.0921499277127909,-1.5824511003271515,-0.0017592321760240281,-1.5842103325031756,-0.0921499277127909,-1.576154351234436,-0.007480273023247719,-0.00805598126873952,0.05045660564734283,-0.2791256880140003,0.12504387107038742,-0.049156203866004944,-0.2799960970878601,2.2351741790771484e-08,0.038835763931274414,-0.2799961566925049,7.450580596923828e-09,0.12682770192623138,-0.2799961566925049,7.450580596923828e-09,0,0.0,0,0.0,0,0.0,0,,,120.0,1387.1666666657338,,
1777039693.5797813,1386616738984,1.5195396992109562,-0.3200005162188185,1.5257403867409762,-0.00620068753002001,1.5195396992109562,-0.3200005162188185,1.5631588697433472,-0.2898755669593811,-0.04361917053239095,-0.01861076219096844,-0.14909001560378868,-0.01572182747446149,-0.0028889347165069468,-0.01861076219096844,-0.14909001560378868,-0.11257478594779968,8.236482620239258,0.09396402375683124,-0.003757438249686921,0.06073836487864917,-0.004934372668877732,0.0011769344191908111,-0.003757438249686921,0.06073836487864917,0.06923943012952805,-8.646919250488281,-0.07299686837921497,1.545126343644001,-0.13979482326594994,1.5478351643285053,-0.0027088206845042873,1.545126343644001,-0.13979482326594994,0.9483929872512817,6.577922344207764,0.5967333563927193,-1.595519354931194,-0.1340349997222101,-1.592922143022963,-0.002597211908230923,-1.595519354931194,-0.1340349997222101,-1.5751829147338867,0.06078733503818512,-0.020336440197307182,0.04833081563880782,-0.27826601662936656,0.11846096120838123,-0.049156203866004944,-0.2799960970878601,2.2351741790771484e-08,0.038835763931274414,-0.2799961566925049,7.450580596923828e-09,0.12682770192623138,-0.2799961566925049,7.450580596923828e-09,0,0.0,0,0.0,0,0.0,0,,,120.0,1387.1833333324005,,
1777039693.6808958,1386633405651,1.4739355605347229,-0.4400094630996986,1.4825466772644598,-0.008611116729736912,1.4825466772644598,-0.4199834450997285,1.5601648092269897,-2.1644904613494873,-0.08622924869226689,-0.03985798337416092,-0.2050028496656902,-0.03584601632244342,-0.004011967051717497,-0.03584601632244342,-0.1956726167917657,-0.022840553894639015,3.5526907444000244,-0.017017429479521902,0.004898550333154933,0.08351691314626948,0.0032640993762516647,0.0016344509569032684,0.0032640993762516647,0.07971583306452033,0.003191789612174034,-1.0685875415802002,0.001706760720980899,1.5252038054500927,-0.19222170594033,1.5289656416982966,-0.0037618362482039203,1.5289656416982966,-0.18347317740635796,1.0128754377365112,3.2299001216888428,0.5123283677135815,-1.6146210451004086,-0.18430179101338737,-1.611014203954912,-0.0036068411454965865,-1.611014203954912,-0.1759137191790714,-1.5789541006088257,-0.23855406045913696,-0.03566694449158292,0.050448638298259824,-0.27753639511257144,0.10368913898133579,-0.049156203866004944,-0.2799960970878601,2.2351741790771484e-08,0.038835763931274414,-0.2799961566925049,7.450580596923828e-09,0.12682770192623138,-0.2799961566925049,7.450580596923828e-09,0,0.0,0,0.0,0,0.0,0,,,120.0,1387.1999999990671,,
1777039693.7843022,1386650072319,1.4139399378357738,-0.5599995354420048,1.4249389521337454,-0.010999014297971677,1.4249389521337454,-0.5400013883651776,1.5464253425598145,-3.6110591888427734,-0.1324854047240407,-0.06781027679555315,-0.2609068899753633,-0.06268577502072002,-0.005124501774833132,-0.06268577502072002,-0.25158964231914166,-0.0007214159704744816,2.917184591293335,-0.06708886082507867,0.016286144533530358,0.10629187889275692,0.014198453702185452,0.002087690831344906,0.014198453702185452,0.10249608890966212,-0.0042052012868225574,-0.2033446580171585,0.020491345820352915,1.4989942306311723,-0.24464034311929905,1.5037992393169493,-0.004805008685776935,1.5037992393169493,-0.23590399022436917,1.1560274362564087,9.06417179107666,0.34296679437476363,-1.6397507335359387,-0.2345606765399303,-1.6351437007230125,-0.004607032812926182,-1.6351437007230125,-0.22618427868419586,-1.5870082378387451,-0.3415992856025696,-0.05274249569719358,0.05284107236156783,-0.25795517067678364,0.08967308047126109,-0.049156203866004944,-0.2799960970878601,2.2351741790771484e-08,0.038835763931274414,-0.2799961566925049,7.450580596923828e-09,0.12682770192623138,-0.2799961566925049,7.450580596923828e-09,0,0.0,0,0.0,0,0.0,0,,,120.0,1387.2166666657338,,
1777039693.8872328,1386666738986,1.3659387341505274,-0.6400014420274236,1.3785430056790238,-0.012604271528496414,1.3659387341505274,-0.6400014420274236,1.5151255130767822,-4.013544082641602,-0.14918677892625487,-0.09017430386337344,-0.29818022203772937,-0.08430190384020324,-0.005872400023170202,-0.09017430386337344,-0.29818022203772937,-0.025394249707460403,-1.6590375900268555,-0.06478005415591304,0.025397113036016307,0.12147680750034089,0.023004733010592023,0.0023923800254242837,0.025397113036016307,0.12147680750034089,-0.002989813219755888,0.793254017829895,0.028386926255772195,1.4780245151287659,-0.27958982546452305,1.4835307934671336,-0.005506278338367698,1.4780245151287659,-0.27958982546452305,1.2564057111740112,6.923149108886719,0.22161880395475464,-1.6598564552348942,-0.26807017100466435,-1.6545770464677365,-0.005279408767157712,-1.6598564552348942,-0.26807017100466435,-1.6012284755706787,-0.3011661469936371,-0.05862797966421551,0.060060338459848546,-0.24307669579317226,0.08949248088611438,-0.049156203866004944,-0.2799960970878601,2.2351741790771484e-08,0.03855441138148308,-0.27991360425949097,0.006290066987276077,0.12682770192623138,-0.2799961566925049,7.450580596923828e-09,0,0.0,1,0.9530915771080342,0,0.0,6,"[{""t"":1387.2333333324004,""type"":""CONTACT_PERSIST"",""a0"":""/World/Containers/cup_green"",""a1"":""/World/defaultGroundPlane/geom"",""c0"":""/World/Containers/cup_green/mesh"",""c1"":""/World/defaultGroundPlane/geom"",""impulse"":[3.1086942962290276e-16,1.5138466647882434e-16,0.17500396072864532],""impulse_mag"":0.17500396072864532,""position"":[0.045219731703400615,-0.25771663188934324,5.926800716871128e-11],""n_contacts"":10},{""t"":1387.2333333324004,""type"":""CONTACT_FOUND"",""a0"":""/World/SO_ARM101/moving_jaw_so101_v1_link"",""a1"":""/World/Containers/cup_green"",""c0"":""/World/SO_ARM101/moving_jaw_so101_v1_link/collisions"",""c1"":""/World/Containers/cup_green/mesh"",""impulse"":[0.28896400332450867,-0.2445082813501358,0.04237218573689461],""impulse_mag"":0.3808935507333325,""position"":[0.019611353054642677,-0.2467163031299909,0.09546214838822682],""n_contacts"":6},{""t"":1387.2333333324004,""type"":""CONTACT_FOUND"",""a0"":""/World/SO_ARM101/gripper_link"",""a1"":""/World/Containers/cup_green"",""c0"":""/World/SO_ARM101/gripper_link/collisions"",""c1"":""/World/Containers/cup_green/mesh"",""impulse"":[-0.2981141731142998,-0.16457749903202057,0.20446347445249557],""impulse_mag"":0.39719406564605636,""position"":[0.06322605907917023,-0.24936965852975845,0.09798239916563034],""n_contacts"":2},{""t"":1387.2333333324004,""type"":""CONTACT_PERSIST"",""a0"":""/World/Containers/cup_green"",""a1"":""/World/defaultGroundPlane/geom"",""c0"":""/World/Containers/cup_green/mesh"",""c1"":""/World/defaultGroundPlane/geom"",""impulse"":[0.0,0.0,0.0],""impulse_mag"":0.0,""position"":[0.04694930021651089,-0.2554817944765091,5.2555206821125466e-05],""n_contacts"":8},{""t"":1387.2333333324004,""type"":""CONTACT_LOST"",""a0"":""/World/SO_ARM101/moving_jaw_so101_v1_link"",""a1"":""/World/Containers/cup_green"",""c0"":""/World/SO_ARM101/moving_jaw_so101_v1_link/collisions"",""c1"":""/World/Containers/cup_green/mesh"",""impulse"":[0.0,0.0,0.0],""impulse_mag"":0.0,""position"":[0.0,0.0,0.0],""n_contacts"":0},{""t"":1387.2333333324004,""type"":""CONTACT_LOST"",""a0"":""/World/SO_ARM101/gripper_link"",""a1"":""/World/Containers/cup_green"",""c0"":""/World/SO_ARM101/gripper_link/collisions"",""c1"":""/World/Containers/cup_green/mesh"",""impulse"":[0.0,0.0,0.0],""impulse_mag"":0.0,""position"":[0.0,0.0,0.0],""n_contacts"":0}]",,120.0,1387.2333333324004,,
1777039693.9890668,1386683405654,1.2969366861377216,-0.7400038351089716,1.3115380465977358,-0.014601360460014146,1.2969366861377216,-0.7400038351089716,1.472459316253662,-2.8195817470550537,-0.1755226301159405,-0.12232274079866891,-0.34477189170476263,-0.1155198859641114,-0.0068028548345575035,-0.12232274079866891,-0.34477189170476263,-0.04182019457221031,-0.8648877143859863,-0.0805025462264586,0.03849419056294762,0.1404579701293818,0.03572274891083919,0.0027714416521084292,0.03849419056294762,0.1404579701293818,0.004607217852026224,0.6206755638122559,0.03388697271092139,1.4478804102975638,-0.3232766826989917,1.4542591331479806,-0.006378722850416851,1.4478804102975638,-0.3232766826989917,1.410020351409912,10.000000953674316,0.03786005888765165,-1.6887585632549444,-0.3099570432112686,-1.6826426564172707,-0.0061159068376737125,-1.6887585632549444,-0.3099570432112686,-1.6160566806793213,-0.3907443881034851,-0.07270188257562316,0.06889911679590437,-0.2178659753416293,0.0848171776081282,-0.049156203866004944,-0.2799960970878601,2.2351741790771484e-08,0.03799890726804733,-0.27764809131622314,0.01637958362698555,0.12682770192623138,-0.2799961566925049,7.450580596923828e-09,0,0.0,1,0.06473292989332001,0,0.0,4,"[{""t"":1387.249999999067,""type"":""CONTACT_PERSIST"",""a0"":""/World/Containers/cup_green"",""a1"":""/World/defaultGroundPlane/geom"",""c0"":""/World/Containers/cup_green/mesh"",""c1"":""/World/defaultGroundPlane/geom"",""impulse"":[-1.7512578193157324e-11,-7.78488870589733e-11,0.009401997551321983],""impulse_mag"":0.009401997551321983,""position"":[0.04394185325751702,-0.25372806191444397,5.396660223292808e-06],""n_contacts"":6},{""t"":1387.249999999067,""type"":""CONTACT_FOUND"",""a0"":""/World/SO_ARM101/gripper_link"",""a1"":""/World/Containers/cup_green"",""c0"":""/World/SO_ARM101/gripper_link/collisions"",""c1"":""/World/Containers/cup_green/mesh"",""impulse"":[-0.043146729469299316,-0.031147591769695282,0.015155835077166557],""impulse_mag"":0.055330932341998026,""position"":[0.06768134484688441,-0.23782403270403543,0.0913819968700409],""n_contacts"":3},{""t"":1387.249999999067,""type"":""CONTACT_PERSIST"",""a0"":""/World/Containers/cup_green"",""a1"":""/World/defaultGroundPlane/geom"",""c0"":""/World/Containers/cup_green/mesh"",""c1"":""/World/defaultGroundPlane/geom"",""impulse"":[0.0,0.0,0.0],""impulse_mag"":0.0,""position"":[0.05432328209280968,-0.25452721118927,8.501469468077023e-05],""n_contacts"":3},{""t"":1387.249999999067,""type"":""CONTACT_PERSIST"",""a0"":""/World/SO_ARM101/gripper_link"",""a1"":""/World/Containers/cup_green"",""c0"":""/World/SO_ARM101/gripper_link/collisions"",""c1"":""/World/Containers/cup_green/mesh"",""impulse"":[0.0,0.0,0.0],""impulse_mag"":0.0,""position"":[0.07376599808533986,-0.2253508468468984,0.08976717293262482],""n_contacts"":3}]",,120.0,1387.249999999067,,
1777039694.0891185,1386700072322,1.217941155874153,-0.8399980228360042,1.2344770879005564,-0.016535932026403355,1.217941155874153,-0.8399980228360042,1.4182143211364746,-1.7538695335388184,-0.20027316526232153,-0.15912719655014523,-0.39135973845159566,-0.15142301409140865,-0.00770418245873658,-0.15912719655014523,-0.39135973845159566,-0.05563836172223091,-4.336760520935059,-0.10348883482791432,0.05348810181542225,0.15943757532400177,0.0503494647754075,0.003138637040014748,0.05348810181542225,0.15943757532400177,0.018426137045025826,0.0701180100440979,0.03506196477039642,1.4133705716182907,-0.36695995535772624,1.4205944277622855,-0.007223856143994789,1.4133705716182907,-0.36695995535772624,1.481412410736084,2.497292995452881,-0.06804183911779327,-1.7218465282433921,-0.35184047853376554,-1.7149203092773897,-0.006926218966002429,-1.7218465282433921,-0.35184047853376554,-1.6364229917526245,-0.6724575161933899,-0.08542353649076762,0.07823978608090706,-0.20349902150578442,0.08368081035836386,-0.049156203866004944,-0.2799960970878601,2.2351741790771484e-08,0.03768625855445862,-0.2731083333492279,0.027528714388608932,0.12682770192623138,-0.2799961566925049,7.450580596923828e-09,0,0.0,1,0.0,0,0.0,2,"[{""t"":1387.2666666657337,""type"":""CONTACT_LOST"",""a0"":""/World/Containers/cup_green"",""a1"":""/World/defaultGroundPlane/geom"",""c0"":""/World/Containers/cup_green/mesh"",""c1"":""/World/defaultGroundPlane/geom"",""impulse"":[0.0,0.0,0.0],""impulse_mag"":0.0,""position"":[0.0,0.0,0.0],""n_contacts"":0},{""t"":1387.2666666657337,""type"":""CONTACT_LOST"",""a0"":""/World/SO_ARM101/gripper_link"",""a1"":""/World/Containers/cup_green"",""c0"":""/World/SO_ARM101/gripper_link/collisions"",""c1"":""/World/Containers/cup_green/mesh"",""impulse"":[0.0,0.0,0.0],""impulse_mag"":0.0,""position"":[0.0,0.0,0.0],""n_contacts"":0}]",,120.0,1387.2666666657337,,
1777039694.1874757,1386716738989,1.128968973197791,-0.9330192566718599,1.1475323714942007,-0.01856339829640974,1.128968973197791,-0.9330192566718599,1.3637901544570923,3.0740628242492676,-0.2348211812593013,-0.2005798300029346,-0.4346988473003701,-0.19193103976230091,-0.008648790240633697,-0.2005798300029346,-0.4346988473003701,-0.08436313271522522,-4.449428558349609,-0.11621669728770939,0.07037565237097027,0.1770936644733125,0.06685218787023167,0.0035234645007385934,0.07037565237097027,0.1770936644733125,0.029788494110107422,-0.5168024301528931,0.04058715826086284,1.3745023513422876,-0.40759703650283857,1.3826119225852518,-0.008109571242964186,1.3745023513422876,-0.40759703650283857,1.47331964969635,0.4883710741996765,-0.0988172983540625,-1.7591133008762088,-0.390803231465152,-1.7513378600272285,-0.007775440848980297,-1.7591133008762088,-0.390803231465152,-1.661435604095459,-0.5033596754074097,-0.09767769678074978,0.09025453104727299,-0.2015502318934397,0.08695731325470574,-0.049156203866004944,-0.2799960970878601,2.2351741790771484e-08,0.03946083411574364,-0.26609006524086,0.03265269845724106,0.12682770192623138,-0.2799961566925049,7.450580596923828e-09,0,0.0,1,0.06644034798471524,0,0.0,1,"[{""t"":1387.2833333324004,""type"":""CONTACT_FOUND"",""a0"":""/World/SO_ARM101/moving_jaw_so101_v1_link"",""a1"":""/World/Containers/cup_green"",""c0"":""/World/SO_ARM101/moving_jaw_so101_v1_link/collisions"",""c1"":""/World/Containers/cup_green/mesh"",""impulse"":[0.04478375520557165,0.04906719923019409,-0.0010700793063733727],""impulse_mag"":0.06644034798471524,""position"":[0.0454723471775651,-0.2081950269639492,0.1149669699370861],""n_contacts"":4}]",,120.0,1387.2833333324004,,
1777039694.286821,1386733405657,1.0225281932140948,-0.8268363282318821,1.0392630762184107,-0.016734883004315915,1.0392630762184107,-0.8468341512314819,1.2983232736587524,-6.825381278991699,-0.2757950804446576,-0.2501711798424998,-0.38522763192536325,-0.24237430501953885,-0.007796874822960959,-0.24237430501953885,-0.3945447285922168,-0.11993203312158585,-4.6639204025268555,-0.13023914672091397,0.09057886644390312,0.15693939245000593,0.08740246709890154,0.0031763993450015793,0.08740246709890154,0.16073512092095193,0.04035365954041481,1.1573338508605957,0.050225206903488306,1.3280028325229625,-0.3612101622236239,1.335313602016737,-0.007310769493774627,1.335313602016737,-0.36994637354279336,1.4457732439041138,-0.49993056058883667,-0.1177704113811513,-1.803696947440675,-0.3463275882626509,-1.7966873961270116,-0.007009551313663431,-1.7966873961270116,-0.3547038503758226,-1.6902527809143066,-1.1260427236557007,-0.11344416652636835,0.10409110772224821,-0.20169528871384557,0.09238187121960033,-0.049156203866004944,-0.2799960970878601,2.2351741790771484e-08,0.042368028312921524,-0.25743988156318665,0.030572909861803055,0.12682770192623138,-0.2799961566925049,7.450580596923828e-09,0,0.0,1,0.02239419609962316,0,0.0,3,"[{""t"":1387.299999999067,""type"":""CONTACT_PERSIST"",""a0"":""/World/SO_ARM101/moving_jaw_so101_v1_link"",""a1"":""/World/Containers/cup_green"",""c0"":""/World/SO_ARM101/moving_jaw_so101_v1_link/collisions"",""c1"":""/World/Containers/cup_green/mesh"",""impulse"":[0.0,0.0,0.0],""impulse_mag"":0.0,""position"":[0.05013067089021206,-0.20799186080694199,0.11822769418358803],""n_contacts"":2},{""t"":1387.299999999067,""type"":""CONTACT_LOST"",""a0"":""/World/SO_ARM101/moving_jaw_so101_v1_link"",""a1"":""/World/Containers/cup_green"",""c0"":""/World/SO_ARM101/moving_jaw_so101_v1_link/collisions"",""c1"":""/World/Containers/cup_green/mesh"",""impulse"":[0.0,0.0,0.0],""impulse_mag"":0.0,""position"":[0.0,0.0,0.0],""n_contacts"":0},{""t"":1387.299999999067,""type"":""CONTACT_FOUND"",""a0"":""/World/SO_ARM101/gripper_link"",""a1"":""/World/Containers/cup_green"",""c0"":""/World/SO_ARM101/gripper_link/collisions"",""c1"":""/World/Containers/cup_green/mesh"",""impulse"":[-0.01996804215013981,0.006035699974745512,0.008145405910909176],""impulse_mag"":0.02239419609962316,""position"":[0.10441810358315706,-0.20787226036190987,0.09224219340831041],""n_contacts"":8}]",,120.0,1387.299999999067,,
1777039694.385517,1386750072324,0.9595825849585812,-0.7468380662324939,0.9747195157544603,-0.015136930795879078,0.9595825849585812,-0.7468380662324939,1.2152901887893677,-3.2709808349609375,-0.2557076038307865,-0.2794978878987685,-0.347955997895849,-0.27244550787383165,-0.007052380024936855,-0.2794978878987685,-0.347955997895849,-0.15973038971424103,-1.5826687812805176,-0.11976749818452748,0.10252638880076582,0.14175515561067253,0.09965329210490212,0.0028730966958637055,0.10252638880076582,0.14175515561067253,0.054374586790800095,0.40830308198928833,0.04815180200996573,1.3005045325657525,-0.3262622720454067,1.3071172236651374,-0.006612691099384893,1.3005045325657525,-0.3262622720454067,1.4115726947784424,-0.8607363104820251,-0.11106816221268989,-1.8300622629868317,-0.3128196203644865,-1.8237220278553563,-0.0063402351314754135,-1.8300622629868317,-0.3128196203644865,-1.7233575582504272,-1.0180777311325073,-0.10670470473640448,0.12286310443015153,-0.1993134704973023,0.0987688083215612,-0.049156203866004944,-0.2799960970878601,2.2351741790771484e-08,0.045310452580451965,-0.24848386645317078,0.026281334459781647,0.12682770192623138,-0.2799961566925049,7.450580596923828e-09,0,0.0,1,0.0,0,0.0,1,"[{""t"":1387.3166666657337,""type"":""CONTACT_LOST"",""a0"":""/World/SO_ARM101/gripper_link"",""a1"":""/World/Containers/cup_green"",""c0"":""/World/SO_ARM101/gripper_link/collisions"",""c1"":""/World/Containers/cup_green/mesh"",""impulse"":[0.0,0.0,0.0],""impulse_mag"":0.0,""position"":[0.0,0.0,0.0],""n_contacts"":0}]",,120.0,1387.3166666657337,,
1777039694.4832504,1386766738992,0.889896626957495,-0.6468347402314987,0.9030372601055514,-0.013140633148056358,0.889896626957495,-0.6468347402314987,1.1241164207458496,-2.817566394805908,-0.23421979378835456,-0.3119649622913692,-0.3013638935764855,-0.3058426684143564,-0.006122293877012797,-0.3119649622913692,-0.3013638935764855,-0.20075522363185883,-4.044831275939941,-0.1112097386595104,0.11575327728832668,0.12277381590691605,0.1132590920278962,0.0024941852604304787,0.11575327728832668,0.12277381590691605,0.07160454988479614,-0.10506436228752136,0.04414872740353054,1.2700616561042066,-0.28257500725751805,1.2758022483702487,-0.005740592266042066,1.2700616561042066,-0.28257500725751805,1.3730086088180542,-0.502418041229248,-0.10294695271384757,-1.859250832654421,-0.27093235739644167,-1.8537467641574032,-0.005504068497017789,-1.859250832654421,-0.27093235739644167,-1.7605605125427246,-0.8675792217254639,-0.09869032011169643,0.14176258533741903,-0.19548621485653173,0.10548921073161371,-0.049156203866004944,-0.2799960970878601,2.2351741790771484e-08,0.048050228506326675,-0.2427847981452942,0.024472590535879135,0.12682770192623138,-0.2799961566925049,7.450580596923828e-09,0,0.0,1,0.04220921173691752,0,0.0,2,"[{""t"":1387.3333333324003,""type"":""CONTACT_FOUND"",""a0"":""/World/Containers/cup_green"",""a1"":""/World/defaultGroundPlane/geom"",""c0"":""/World/Containers/cup_green/mesh"",""c1"":""/World/defaultGroundPlane/geom"",""impulse"":[-1.2579322028472006e-09,-3.1448305071180016e-10,0.042209211736917496],""impulse_mag"":0.04220921173691752,""position"":[0.05744996604820093,-0.22515466809272766,0.0003024463852246602],""n_contacts"":6},{""t"":1387.3333333324003,""type"":""CONTACT_FOUND"",""a0"":""/World/Containers/cup_green"",""a1"":""/World/defaultGroundPlane/collisionPlane"",""c0"":""/World/Containers/cup_green/mesh"",""c1"":""/World/defaultGroundPlane/collisionPlane"",""impulse"":[0.0,0.0,0.0],""impulse_mag"":0.0,""position"":[0.0726114958524704,-0.24199141774858748,8.514949253627232e-09],""n_contacts"":7}]",,120.0,1387.3333333324003,,
1777039694.5829623,1386783405659,0.8302150679557222,-0.546838242232133,0.8413702606731923,-0.01115519271747012,0.8302150679557222,-0.546838242232133,1.0346097946166992,-1.9964299201965332,-0.20439472666097702,-0.3397709316940821,-0.2547749704609503,-0.3345736655272561,-0.005197266166826031,-0.3397709316940821,-0.2547749704609503,-0.24175600707530975,-3.3312859535217285,-0.09801492461877237,0.12708125997413455,0.10379377220623988,0.12496392537239268,0.002117334601741877,0.12708125997413455,0.10379377220623988,0.08803384006023407,-0.10425567626953125,0.03904741991390048,1.2439892825609586,-0.2388907253375449,1.2488625190571463,-0.0048732364961876495,1.2439892825609586,-0.2388907253375449,1.3347829580307007,-0.575542151927948,-0.09079367546974204,-1.8842489727785252,-0.2290479543962853,-1.8795765232760846,-0.004672449502440612,-1.8842489727785252,-0.2290479543962853,-1.797189474105835,-0.7869144082069397,-0.08705949867269025,0.1612059264299369,-0.18892145133589777,0.11251683491827852,-0.049156203866004944,-0.2799960970878601,2.2351741790771484e-08,0.05096416175365448,-0.2412623167037964,0.02632122114300728,0.12682770192623138,-0.2799961566925049,7.450580596923828e-09,0,0.0,1,0.016717218793928637,0,0.0,4,"[{""t"":1387.349999999067,""type"":""CONTACT_PERSIST"",""a0"":""/World/Containers/cup_green"",""a1"":""/World/defaultGroundPlane/geom"",""c0"":""/World/Containers/cup_green/mesh"",""c1"":""/World/defaultGroundPlane/geom"",""impulse"":[0.0,0.0,0.008543417789041996],""impulse_mag"":0.008543417789041996,""position"":[0.058411446213722226,-0.22491720616817473,0.00018493682146072387],""n_contacts"":5},{""t"":1387.349999999067,""type"":""CONTACT_PERSIST"",""a0"":""/World/Containers/cup_green"",""a1"":""/World/defaultGroundPlane/collisionPlane"",""c0"":""/World/Containers/cup_green/mesh"",""c1"":""/World/defaultGroundPlane/collisionPlane"",""impulse"":[0.0,0.0,0.0],""impulse_mag"":0.0,""position"":[0.0761331899298562,-0.23382452792591518,9.934107462565104e-09],""n_contacts"":9},{""t"":1387.349999999067,""type"":""CONTACT_PERSIST"",""a0"":""/World/Containers/cup_green"",""a1"":""/World/defaultGroundPlane/geom"",""c0"":""/World/Containers/cup_green/mesh"",""c1"":""/World/defaultGroundPlane/geom"",""impulse"":[-4.871962833163934e-10,-1.2179907082909835e-10,0.008173801004886627],""impulse_mag"":0.008173801004886643,""position"":[0.05987135010461012,-0.22540954997142157,7.618218660354614e-06],""n_contacts"":6},{""t"":1387.349999999067,""type"":""CONTACT_PERSIST"",""a0"":""/World/Containers/cup_green"",""a1"":""/World/defaultGroundPlane/collisionPlane"",""c0"":""/World/Containers/cup_green/mesh"",""c1"":""/World/defaultGroundPlane/collisionPlane"",""impulse"":[0.0,0.0,0.0],""impulse_mag"":0.0,""position"":[0.07637577876448631,-0.2353122800588608,9.685754776000977e-09],""n_contacts"":10}]",,120.0,1387.349999999067,,
1777039694.6814244,1386800072327,0.7805302209224032,-0.4468359532315627,0.789633884906688,-0.009103663984284749,0.789633884906688,-0.4667651412320027,0.9470254182815552,-3.3751816749572754,-0.16649519735915197,-0.3629193775372261,-0.20818334928582913,-0.35867792998737097,-0.004241447549855115,-0.35867792998737097,-0.21746846852583965,-0.27889519929885864,-2.3735711574554443,-0.08402417823836744,0.1365117959111017,0.08481262933250833,0.13478385599605483,0.0017279399150468833,0.13478385599605483,0.08859533039439713,0.10303647816181183,-0.23213984072208405,0.033475317749289885,1.2222840537941744,-0.19520391357170513,1.2262610633090134,-0.003977009514839036,1.2262610633090134,-0.20391014113431655,1.30027174949646,-0.7812014222145081,-0.07798769570228559,-1.9050599031388846,-0.1871611257849136,-1.9012467542914302,-0.0038131488474544284,-1.9012467542914302,-0.19550863953165856,-1.8302912712097168,-0.6348167657852173,-0.07476863192916783,0.17863049994417277,-0.18102488733884448,0.1192847204693394,-0.049156203866004944,-0.2799960970878601,2.2351741790771484e-08,0.054415926337242126,-0.23930026590824127,0.0284420158714056,0.12682770192623138,-0.2799961566925049,7.450580596923828e-09,0,0.0,1,0.0,0,0.0,4,"[{""t"":1387.3666666657336,""type"":""CONTACT_PERSIST"",""a0"":""/World/Containers/cup_green"",""a1"":""/World/defaultGroundPlane/geom"",""c0"":""/World/Containers/cup_green/mesh"",""c1"":""/World/defaultGroundPlane/geom"",""impulse"":[0.0,0.0,0.0],""impulse_mag"":0.0,""position"":[0.059978187084198,-0.22556364039580026,-0.00010663581391175588],""n_contacts"":6},{""t"":1387.3666666657336,""type"":""CONTACT_PERSIST"",""a0"":""/World/Containers/cup_green"",""a1"":""/World/defaultGroundPlane/collisionPlane"",""c0"":""/World/Containers/cup_green/mesh"",""c1"":""/World/defaultGroundPlane/collisionPlane"",""impulse"":[0.0,0.0,0.0],""impulse_mag"":0.0,""position"":[0.07751836478710175,-0.23458411693572997,1.1920928955078126e-08],""n_contacts"":10},{""t"":1387.3666666657336,""type"":""CONTACT_PERSIST"",""a0"":""/World/Containers/cup_green"",""a1"":""/World/defaultGroundPlane/geom"",""c0"":""/World/Containers/cup_green/mesh"",""c1"":""/World/defaultGroundPlane/geom"",""impulse"":[0.0,0.0,0.0],""impulse_mag"":0.0,""position"":[0.06213656533509493,-0.22705604135990143,-0.00023191142827272415],""n_contacts"":4},{""t"":1387.3666666657336,""type"":""CONTACT_PERSIST"",""a0"":""/World/Containers/cup_green"",""a1"":""/World/defaultGroundPlane/collisionPlane"",""c0"":""/World/Containers/cup_green/mesh"",""c1"":""/World/defaultGroundPlane/collisionPlane"",""impulse"":[0.0,0.0,0.0],""impulse_mag"":0.0,""position"":[0.07703283615410328,-0.24210328981280327,1.1175870895385742e-08],""n_contacts"":8}]",,120.0,1387.3666666657336,,
1777039694.7755756,1386816738994,0.7408471663176971,-0.34683751223178383,0.7479868410227513,-0.0071396747050541665,0.7479868410227513,-0.3668454842313039,0.8762904405593872,-4.048372268676758,-0.13544327424169011,-0.38140793280623086,-0.16159352091562443,-0.37808151875615287,-0.003326414050077997,-0.37808151875615287,-0.1709153460578341,-0.31117892265319824,-1.6211724281311035,-0.07022901015303262,0.14404392079189987,0.06583221683658712,0.1426887599550533,0.0013551608368465584,0.1426887599550533,0.06962987165961187,0.11619741469621658,0.05889314040541649,0.027846506095683288,1.2049481892441172,-0.1515187828362377,1.208067214098711,-0.0031190248545938104,1.208067214098711,-0.16025942782841962,1.2699673175811768,-1.0496498346328735,-0.06501912833705958,-1.9216814957405706,-0.14527590894213277,-1.918690980886356,-0.002990514854214643,-1.918690980886356,-0.15365642205218946,-1.8593295812606812,-0.5502265691757202,-0.062351914479889414,0.19303103764829324,-0.17278034321864327,0.12527530050984476,-0.049156203866004944,-0.2799960970878601,2.2351741790771484e-08,0.05858953297138214,-0.2367788404226303,0.03061666525900364,0.12682770192623138,-0.2799961566925049,7.450580596923828e-09,0,0.0,1,0.0036107676569372437,0,0.0,4,"[{""t"":1387.3833333324003,""type"":""CONTACT_PERSIST"",""a0"":""/World/Containers/cup_green"",""a1"":""/World/defaultGroundPlane/geom"",""c0"":""/World/Containers/cup_green/mesh"",""c1"":""/World/defaultGroundPlane/geom"",""impulse"":[0.0,0.0,0.0],""impulse_mag"":0.0,""position"":[0.06221063248813152,-0.22701261565089226,3.290735185146332e-05],""n_contacts"":4},{""t"":1387.3833333324003,""type"":""CONTACT_PERSIST"",""a0"":""/World/Containers/cup_green"",""a1"":""/World/defaultGroundPlane/collisionPlane"",""c0"":""/World/Containers/cup_green/mesh"",""c1"":""/World/defaultGroundPlane/collisionPlane"",""impulse"":[0.0,0.0,0.0],""impulse_mag"":0.0,""position"":[0.08190021570771933,-0.2249704748392105,1.30385160446167e-08],""n_contacts"":8},{""t"":1387.3833333324003,""type"":""CONTACT_PERSIST"",""a0"":""/World/Containers/cup_green"",""a1"":""/World/defaultGroundPlane/geom"",""c0"":""/World/Containers/cup_green/mesh"",""c1"":""/World/defaultGroundPlane/geom"",""impulse"":[-1.0760923402353129e-10,-5.380461701176564e-11,0.0036107676569372416],""impulse_mag"":0.0036107676569372437,""position"":[0.0635681040585041,-0.22761646409829459,0.00010478744904200236],""n_contacts"":3},{""t"":1387.3833333324003,""type"":""CONTACT_PERSIST"",""a0"":""/World/Containers/cup_green"",""a1"":""/World/defaultGroundPlane/collisionPlane"",""c0"":""/World/Containers/cup_green/mesh"",""c1"":""/World/defaultGroundPlane/collisionPlane"",""impulse"":[0.0,0.0,0.0],""impulse_mag"":0.0,""position"":[0.08480552285909652,-0.21909363865852355,1.1920928955078126e-08],""n_contacts"":10}]",,120.0,1387.3833333324003,,
1777039694.8712695,1386833405662,0.7111636328055672,-0.2468383942320248,0.7163013482396478,-0.005137715434080592,0.7163013482396478,-0.266841945231775,0.8217484354972839,-0.23241853713989258,-0.11058480269171678,-0.3952376557291554,-0.11500337712737356,-0.39284396560863344,-0.002393690120521985,-0.39284396560863344,-0.12432314250126669,-0.3387308418750763,-0.4263966679573059,-0.05650681385407913,0.14967806573219908,0.04685167584127542,0.14870289094696695,0.0009751747852321246,0.14870289094696695,0.05064849152722421,0.12748359143733978,-0.11922843754291534,0.022194474294859295,1.1919806966592,-0.10783335634784767,1.1942251493544167,-0.002244452695216781,1.1942251493544167,-0.11657206999038332,1.2439892292022705,-0.7289739847183228,-0.052008532543070585,-1.934114701952438,-0.10339040853202698,-1.931962725152785,-0.002151976799652955,-1.931962725152785,-0.11176906986787016,-1.8841928243637085,-0.4120255410671234,-0.04992187758872957,0.20390591994993282,-0.16567121897917786,0.13062430344298176,-0.049156203866004944,-0.2799960970878601,2.2351741790771484e-08,0.06339739263057709,-0.23411275446414948,0.03179153800010681,0.12682770192623138,-0.2799961566925049,7.450580596923828e-09,0,0.0,1,0.06848030687251642,0,0.0,4,"[{""t"":1387.399999999067,""type"":""CONTACT_PERSIST"",""a0"":""/World/Containers/cup_green"",""a1"":""/World/defaultGroundPlane/geom"",""c0"":""/World/Containers/cup_green/mesh"",""c1"":""/World/defaultGroundPlane/geom"",""impulse"":[2.2939676547206744e-10,-1.1469838273603372e-10,0.0025657599326223135],""impulse_mag"":0.0025657599326223265,""position"":[0.06368714322646458,-0.22752349575360617,0.00010335942109425862],""n_contacts"":3},{""t"":1387.399999999067,""type"":""CONTACT_PERSIST"",""a0"":""/World/Containers/cup_green"",""a1"":""/World/defaultGroundPlane/collisionPlane"",""c0"":""/World/Containers/cup_green/mesh"",""c1"":""/World/defaultGroundPlane/collisionPlane"",""impulse"":[0.0,0.0,0.0],""impulse_mag"":0.0,""position"":[0.09683467718687924,-0.2048179723999717,1.42238356850364e-08],""n_contacts"":11},{""t"":1387.399999999067,""type"":""CONTACT_PERSIST"",""a0"":""/World/Containers/cup_green"",""a1"":""/World/defaultGroundPlane/geom"",""c0"":""/World/Containers/cup_green/mesh"",""c1"":""/World/defaultGroundPlane/geom"",""impulse"":[1.113497228449889e-11,-5.567486142249445e-12,0.00018681386427488178],""impulse_mag"":0.0001868138642748822,""position"":[0.06351543590426445,-0.2257992923259735,2.633035182952881e-05],""n_contacts"":2},{""t"":1387.399999999067,""type"":""CONTACT_PERSIST"",""a0"":""/World/Containers/cup_green"",""a1"":""/World/defaultGroundPlane/collisionPlane"",""c0"":""/World/Containers/cup_green/mesh"",""c1"":""/World/defaultGroundPlane/collisionPlane"",""impulse"":[7.835355475549477e-09,0.0,0.06572773307561874],""impulse_mag"":0.06572773307561922,""position"":[0.09799552302468907,-0.20433084802194076,1.2191859158602629e-08],""n_contacts"":11}]",,120.0,1387.399999999067,,
1777039694.967285,1386850072329,0.6946263201778601,-0.16562010482040374,0.6981541353686314,-0.0035278151907712774,0.6946263201778601,-0.16562010482040374,0.7781071066856384,-3.1862237453460693,-0.08348078650777835,-0.4029357090878632,-0.07633835112422546,-0.401298852750925,-0.0016368563369382194,-0.4029357090878632,-0.07633835112422546,-0.3614994287490845,0.7424560785293579,-0.04143628033877872,0.1528103824324397,0.030634032611406625,0.1521473605056871,0.0006630219267525772,0.1528103824324397,0.030634032611406625,0.13689318299293518,0.37884965538978577,0.01591719943950451,1.1847787754100985,-0.06960700793131183,1.1862973920931148,-0.0015186166830163383,1.1847787754100985,-0.06960700793131183,1.2223910093307495,-0.9072299003601074,-0.03761223392065105,-1.9410414094606576,-0.0693604904729315,-1.93956384311618,-0.0014775663444777098,-1.9410414094606576,-0.0693604904729315,-1.9048792123794556,-0.4991110563278198,-0.03616219708120205,0.2123670951881637,-0.15953135847446462,0.13508020622292363,-0.049156203866004944,-0.2799960970878601,2.2351741790771484e-08,0.06678232550621033,-0.2337583303451538,0.03161938115954399,0.12682770192623138,-0.2799961566925049,7.450580596923828e-09,0,0.0,1,0.01870918553322559,0,0.0,4,"[{""t"":1387.4166666657336,""type"":""CONTACT_PERSIST"",""a0"":""/World/Containers/cup_green"",""a1"":""/World/defaultGroundPlane/geom"",""c0"":""/World/Containers/cup_green/mesh"",""c1"":""/World/defaultGroundPlane/geom"",""impulse"":[0.0,0.0,0.0],""impulse_mag"":0.0,""position"":[0.10099118285708958,-0.19388764434390598,-9.980301062266032e-05],""n_contacts"":9},{""t"":1387.4166666657336,""type"":""CONTACT_PERSIST"",""a0"":""/World/Containers/cup_green"",""a1"":""/World/defaultGroundPlane/collisionPlane"",""c0"":""/World/Containers/cup_green/mesh"",""c1"":""/World/defaultGroundPlane/collisionPlane"",""impulse"":[8.809266094367274e-10,0.0,0.007389748934656382],""impulse_mag"":0.0073897489346564345,""position"":[0.10801979092260201,-0.19557995349168777,1.4280279477437338e-08],""n_contacts"":12},{""t"":1387.4166666657336,""type"":""CONTACT_PERSIST"",""a0"":""/World/Containers/cup_green"",""a1"":""/World/defaultGroundPlane/geom"",""c0"":""/World/Containers/cup_green/mesh"",""c1"":""/World/defaultGroundPlane/geom"",""impulse"":[0.0,0.0,0.011319436598569155],""impulse_mag"":0.011319436598569155,""position"":[0.09859465155750513,-0.19736519269645214,8.472241461277008e-06],""n_contacts"":8},{""t"":1387.4166666657336,""type"":""CONTACT_PERSIST"",""a0"":""/World/Containers/cup_green"",""a1"":""/World/defaultGroundPlane/collisionPlane"",""c0"":""/World/Containers/cup_green/mesh"",""c1"":""/World/defaultGroundPlane/collisionPlane"",""impulse"":[0.0,0.0,0.0],""impulse_mag"":0.0,""position"":[0.10296231622879322,-0.20298919425560877,1.3181796440711388e-08],""n_contacts"":13}]",,120.0,1387.4166666657336,,
1777039695.0665598,1386866738997,0.6812717855940159,-0.055823664218176604,0.68258914661857,-0.0013173610245540424,0.68258914661857,-0.07582982364019362,0.7451887726783752,-2.416078567504883,-0.06391698708435933,-0.41044333051219367,-0.055072760850693105,-0.40930397412532515,-0.0011393563868685175,-0.40930397412532515,-0.0586497992032104,-0.37747493386268616,0.20539981126785278,-0.032968396649507514,0.15659477846730094,0.03884477509891112,0.15583388456636815,0.0007608939009327853,0.15583388456636815,0.03705924275965377,0.14338275790214539,0.2052147388458252,0.013212020565155552,1.1746660852808424,-0.12111144578689167,1.176990727927291,-0.0023246426464487158,1.176990727927291,-0.11073570654908683,1.2075167894363403,-0.5496342182159424,-0.032850704155497956,-1.9466521078005816,-0.02376733355127637,-1.946093355502119,-0.0005587522984626947,-1.946093355502119,-0.0320709791280011,-1.919161081314087,-0.4073396623134613,-0.027491026486494707,0.21789811069767345,-0.15506675896327576,0.13832578005427043,-0.049156203866004944,-0.2799960970878601,2.2351741790771484e-08,0.06931457668542862,-0.23431739211082458,0.031304869800806046,0.12682770192623138,-0.2799961566925049,7.450580596923828e-09,0,0.0,1,0.018327580075227272,0,0.0,4,"[{""t"":1387.4333333324003,""type"":""CONTACT_PERSIST"",""a0"":""/World/Containers/cup_green"",""a1"":""/World/defaultGroundPlane/geom"",""c0"":""/World/Containers/cup_green/mesh"",""c1"":""/World/defaultGroundPlane/geom"",""impulse"":[-1.2162558460371287e-10,1.2162558460371287e-10,0.004081078339368105],""impulse_mag"":0.004081078339368108,""position"":[0.10081068840291765,-0.1965765787495507,1.034223371081882e-05],""n_contacts"":9},{""t"":1387.4333333324003,""type"":""CONTACT_PERSIST"",""a0"":""/World/Containers/cup_green"",""a1"":""/World/defaultGroundPlane/collisionPlane"",""c0"":""/World/Containers/cup_green/mesh"",""c1"":""/World/defaultGroundPlane/collisionPlane"",""impulse"":[8.545761608891311e-10,0.0,0.007168705351166871],""impulse_mag"":0.007168705351166922,""position"":[0.10458999233586448,-0.20319991558790207,1.1708055223737444e-08],""n_contacts"":14},{""t"":1387.4333333324003,""type"":""CONTACT_PERSIST"",""a0"":""/World/Containers/cup_green"",""a1"":""/World/defaultGroundPlane/geom"",""c0"":""/World/Containers/cup_green/mesh"",""c1"":""/World/defaultGroundPlane/geom"",""impulse"":[0.0,0.0,0.0],""impulse_mag"":0.0,""position"":[0.10659020642439525,-0.19117180506388345,-4.82234689924452e-05],""n_contacts"":9},{""t"":1387.4333333324003,""type"":""CONTACT_PERSIST"",""a0"":""/World/Containers/cup_green"",""a1"":""/World/defaultGroundPlane/collisionPlane"",""c0"":""/World/Containers/cup_green/mesh"",""c1"":""/World/defaultGroundPlane/collisionPlane"",""impulse"":[8.437389675819418e-10,0.0,0.007077796384692192],""impulse_mag"":0.007077796384692242,""position"":[0.10199767031839915,-0.20933921102966582,1.3304608208792551e-08],""n_contacts"":14}]",,120.0,1387.4333333324003,,
1777039695.166683,1386883405664,0.6806932136154902,0.044265992111030286,0.6800075296234321,0.0006856839920580393,0.6800075296234321,0.024256845418866923,0.7159940004348755,-2.2660622596740723,-0.03530078681938531,-0.4146409317681311,-0.025732054193956477,-0.4140513179450498,-0.0005896138230813142,-0.4140513179450498,-0.03306673830074686,-0.390875905752182,0.5212963819503784,-0.023765026015949098,0.16052246791466537,0.03665369420685634,0.15976903451469848,0.0007534333999668907,0.15976903451469848,0.03851963195263684,0.1492704451084137,0.2438223659992218,0.011252022806251677,1.161340979074988,-0.1349322310695015,1.1640668041861368,-0.0027258251111488274,1.1640668041861368,-0.13705844814526796,1.1944383382797241,-0.5722508430480957,-0.03309735920473611,-1.9469464949958089,0.01792697240475675,-1.9472216542478664,0.0002751592520575663,-1.9472216542478664,0.009572304509973779,-1.9317418336868286,-0.25065162777900696,-0.015204661308980238,0.22303803558929347,-0.15044801495726184,0.140983722925081,-0.049156203866004944,-0.2799960970878601,2.2351741790771484e-08,0.07101020216941833,-0.23576882481575012,0.0309126079082489,0.12682770192623138,-0.2799961566925049,7.450580596923828e-09,0,0.0,1,0.020011243876069902,0,0.0,4,"[{""t"":1387.449999999067,""type"":""CONTACT_PERSIST"",""a0"":""/World/Containers/cup_green"",""a1"":""/World/defaultGroundPlane/geom"",""c0"":""/World/Containers/cup_green/mesh"",""c1"":""/World/defaultGroundPlane/geom"",""impulse"":[0.0,0.0,0.0],""impulse_mag"":0.0,""position"":[0.10242575034499168,-0.197627055644989,-4.0815770626068114e-05],""n_contacts"":10},{""t"":1387.449999999067,""type"":""CONTACT_PERSIST"",""a0"":""/World/Containers/cup_green"",""a1"":""/World/defaultGroundPlane/collisionPlane"",""c0"":""/World/Containers/cup_green/mesh"",""c1"":""/World/defaultGroundPlane/collisionPlane"",""impulse"":[1.0531465699514797e-09,0.0,0.008834434673190117],""impulse_mag"":0.00883443467319018,""position"":[0.10198882818222046,-0.21183977027734122,1.2914339701334636e-08],""n_contacts"":15},{""t"":1387.449999999067,""type"":""CONTACT_PERSIST"",""a0"":""/World/Containers/cup_green"",""a1"":""/World/defaultGroundPlane/geom"",""c0"":""/World/Containers/cup_green/mesh"",""c1"":""/World/defaultGroundPlane/geom"",""impulse"":[1.3167422707738297e-10,-1.9751134061607445e-10,0.004418254364281893],""impulse_mag"":0.0044182543642819,""position"":[0.10229128260504115,-0.19865490225228397,9.360638531771572e-06],""n_contacts"":11},{""t"":1387.449999999067,""type"":""CONTACT_PERSIST"",""a0"":""/World/Containers/cup_green"",""a1"":""/World/defaultGroundPlane/collisionPlane"",""c0"":""/World/Containers/cup_green/mesh"",""c1"":""/World/defaultGroundPlane/collisionPlane"",""impulse"":[8.056824096769333e-10,0.0,0.0067585548385977745],""impulse_mag"":0.006758554838597822,""position"":[0.10043884913126627,-0.2139977256457011,1.3907750447591146e-08],""n_contacts"":15}]",,120.0,1387.449999999067,,
1777039695.2578442,1386900072332,0.687393246856959,0.11918402010008186,0.6851378819064955,0.002255364950463523,0.6851378819064955,0.10412009088575151,0.6948455572128296,-3.101325750350952,-0.007452310355870573,-0.41528581389441954,0.011995549416310949,-0.41541722089603206,0.00013140700161251573,-0.41541722089603206,0.0011517475498859812,-0.4009324312210083,0.16388845443725586,-0.014353382673411241,0.16291158165269037,0.019690015689524745,0.16244607152207,0.00046551013062037794,0.16244607152207,0.026267398693479365,0.15324696898460388,0.056243255734443665,0.009664612668086492,1.1517333105473897,-0.09280926343186634,1.1538076932036,-0.002074382656210405,1.1538076932036,-0.11212094160690851,1.185318112373352,-0.28155195713043213,-0.03358480182596235,-1.9441900341619571,0.04934444377430095,-1.9451225314305702,0.0009324972686131083,-1.9451225314305702,0.04298409827213483,-1.9405817985534668,-0.34010928869247437,-0.003608235608490329,0.22666457292420822,-0.146874078791135,0.14306079335360983,-0.049156203866004944,-0.2799960970878601,2.2351741790771484e-08,0.07180724292993546,-0.23663143813610077,0.0303715281188488,0.1270885169506073,-0.28041553497314453,2.9802322387695312e-08,0,0.0,1,0.03519821695780373,1,0.019476648651755128,7,"[{""t"":1387.4666666657336,""type"":""CONTACT_PERSIST"",""a0"":""/World/Containers/cup_green"",""a1"":""/World/defaultGroundPlane/geom"",""c0"":""/World/Containers/cup_green/mesh"",""c1"":""/World/defaultGroundPlane/geom"",""impulse"":[-6.563346810484205e-10,4.922510177252093e-10,0.011011468712240458],""impulse_mag"":0.011011468712240489,""position"":[0.10022174132366975,-0.2016617494324843,7.830436031023662e-05],""n_contacts"":12},{""t"":1387.4666666657336,""type"":""CONTACT_PERSIST"",""a0"":""/World/Containers/cup_green"",""a1"":""/World/defaultGroundPlane/collisionPlane"",""c0"":""/World/Containers/cup_green/mesh"",""c1"":""/World/defaultGroundPlane/collisionPlane"",""impulse"":[0.0,0.0,0.0],""impulse_mag"":0.0,""position"":[0.10265698184569677,-0.2127864509820938,1.241763432820638e-08],""n_contacts"":15},{""t"":1387.4666666657336,""type"":""CONTACT_PERSIST"",""a0"":""/World/Containers/cup_blue"",""a1"":""/World/defaultGroundPlane/geom"",""c0"":""/World/Containers/cup_blue/mesh"",""c1"":""/World/defaultGroundPlane/geom"",""impulse"":[-1.2078212078121997e-16,4.760457972889315e-17,0.005666191755722139],""impulse_mag"":0.005666191755722139,""position"":[0.1318879899306175,-0.28119417337270886,5.599297663704233e-11],""n_contacts"":39},{""t"":1387.4666666657336,""type"":""CONTACT_PERSIST"",""a0"":""/World/Containers/cup_green"",""a1"":""/World/defaultGroundPlane/geom"",""c0"":""/World/Containers/cup_green/mesh"",""c1"":""/World/defaultGroundPlane/geom"",""impulse"":[0.0,-1.7735070356739158e-10,0.005950903054326773],""impulse_mag"":0.005950903054326775,""position"":[0.10174616082356526,-0.2019057835523899,4.469030178510226e-05],""n_contacts"":13},{""t"":1387.4666666657336,""type"":""CONTACT_PERSIST"",""a0"":""/World/Containers/cup_blue"",""a1"":""/World/defaultGroundPlane/collisionPlane"",""c0"":""/World/Containers/cup_blue/mesh"",""c1"":""/World/defaultGroundPlane/collisionPlane"",""impulse"":[1.708463752414513e-10,0.0,0.0014331634156405926],""impulse_mag"":0.0014331634156406028,""position"":[0.12291072309017181,-0.29221151769161224,1.4668330550193787e-08],""n_contacts"":32},{""t"":1387.4666666657336,""type"":""CONTACT_PERSIST"",""a0"":""/World/Containers/cup_green"",""a1"":""/World/defaultGroundPlane/collisionPlane"",""c0"":""/World/Containers/cup_green/mesh"",""c1"":""/World/defaultGroundPlane/collisionPlane"",""impulse"":[6.983937317350808e-10,0.0,0.00585855171084404],""impulse_mag"":0.0058585517108440816,""position"":[0.10236454661935568,-0.21240617707371712,1.257285475730896e-08],""n_contacts"":16},{""t"":1387.4666666657336,""type"":""CONTACT_FOUND"",""a0"":""/World/Containers/cup_green"",""a1"":""/World/Containers/cup_blue"",""c0"":""/World/Containers/cup_green/mesh"",""c1"":""/World/Containers/cup_blue/mesh"",""impulse"":[-0.006800603587180376,0.010200914926826954,-0.0017001527594402432],""impulse_mag"":0.012377293480392385,""position"":[0.10446101344294018,-0.2496880872382058,0.03424381713072459],""n_contacts"":9}]",,120.0,1387.4666666657336,,
1777039695.3535867,1386916739000,0.699246127849983,0.18612899670910452,0.6957335314440886,0.003512596405894408,0.699246127849983,0.18612899670910452,0.683705747127533,-0.9980943202972412,0.015540380722450009,-0.4130030399380109,0.03996924469077881,-0.41376001867355316,0.0007569787355422575,-0.4130030399380109,0.03996924469077881,-0.40766581892967224,0.1535896360874176,-0.005337221008338666,0.16381051095090382,0.01010951751952008,0.16362233604064702,0.00018817491025679978,0.16381051095090382,0.01010951751952008,0.15667377412319183,0.023319531232118607,0.007136736827711987,1.1461302582334374,-0.07426765010038082,1.147522887799348,-0.0013926295659105747,1.1461302582334374,-0.07426765010038082,1.1761397123336792,-0.32144924998283386,-0.030009454100241806,-1.9392682764927673,0.07734231242252976,-1.9407279037232306,0.001459627230463223,-1.9392682764927673,0.07734231242252976,-1.945597767829895,-0.1847802698612213,0.0063294913371276795,0.2287475056794923,-0.14546993267343533,0.14450344273164936,-0.049156203866004944,-0.2799960970878601,2.2351741790771484e-08,0.07208803296089172,-0.23700298368930817,0.02982172742486,0.1273471564054489,-0.28083494305610657,3.3527612686157227e-08,0,0.0,1,0.03549696242417914,1,0.020151260284224128,10,"[{""t"":1387.4833333324002,""type"":""CONTACT_PERSIST"",""a0"":""/World/Containers/cup_blue"",""a1"":""/World/defaultGroundPlane/geom"",""c0"":""/World/Containers/cup_blue/mesh"",""c1"":""/World/defaultGroundPlane/geom"",""impulse"":[6.165363366806029e-17,-1.211397527826298e-16,0.002169244757316946],""impulse_mag"":0.002169244757316946,""position"":[0.13083862983866743,-0.2836133892598905,2.5739522793867906e-10],""n_contacts"":38},{""t"":1387.4833333324002,""type"":""CONTACT_PERSIST"",""a0"":""/World/Containers/cup_green"",""a1"":""/World/defaultGroundPlane/geom"",""c0"":""/World/Containers/cup_green/mesh"",""c1"":""/World/defaultGroundPlane/geom"",""impulse"":[0.0,-1.6924977391807872e-10,0.011358160991221666],""impulse_mag"":0.011358160991221668,""position"":[0.10612940215147458,-0.19871317423306978,9.40077006816864e-05],""n_contacts"":13},{""t"":1387.4833333324002,""type"":""CONTACT_PERSIST"",""a0"":""/World/Containers/cup_blue"",""a1"":""/World/defaultGroundPlane/collisionPlane"",""c0"":""/World/Containers/cup_blue/mesh"",""c1"":""/World/defaultGroundPlane/collisionPlane"",""impulse"":[1.976146763588149e-10,0.0,0.0016577122878516093],""impulse_mag"":0.001657712287851621,""position"":[0.12260166998021305,-0.2929138308390975,1.5366822481155396e-08],""n_contacts"":32},{""t"":1387.4833333324002,""type"":""CONTACT_PERSIST"",""a0"":""/World/Containers/cup_green"",""a1"":""/World/defaultGroundPlane/collisionPlane"",""c0"":""/World/Containers/cup_green/mesh"",""c1"":""/World/defaultGroundPlane/collisionPlane"",""impulse"":[0.0,0.0,0.0],""impulse_mag"":0.0,""position"":[0.10354009689763188,-0.21209146454930305,1.3969838619232178e-08],""n_contacts"":16},{""t"":1387.4833333324002,""type"":""CONTACT_PERSIST"",""a0"":""/World/Containers/cup_green"",""a1"":""/World/Containers/cup_blue"",""c0"":""/World/Containers/cup_green/mesh"",""c1"":""/World/Containers/cup_blue/mesh"",""impulse"":[-0.0023967809975147247,0.003580106422305107,-0.0005974544328637421],""impulse_mag"":0.004349560086310625,""position"":[0.10429524816572666,-0.2503138519823551,0.034394645132124424],""n_contacts"":4},{""t"":1387.4833333324002,""type"":""CONTACT_PERSIST"",""a0"":""/World/Containers/cup_blue"",""a1"":""/World/defaultGroundPlane/geom"",""c0"":""/World/Containers/cup_blue/mesh"",""c1"":""/World/defaultGroundPlane/geom"",""impulse"":[0.0,6.995130296122217e-18,0.006811520392666637],""impulse_mag"":0.006811520392666637,""position"":[0.13138054120234954,-0.2837658608571077,-6.2459894806101476e-12],""n_contacts"":39},{""t"":1387.4833333324002,""type"":""CONTACT_PERSIST"",""a0"":""/World/Containers/cup_green"",""a1"":""/World/defaultGroundPlane/geom"",""c0"":""/World/Containers/cup_green/mesh"",""c1"":""/World/defaultGroundPlane/geom"",""impulse"":[4.5646840474145023e-10,-6.847026279288571e-10,0.015316541772335768],""impulse_mag"":0.01531654177233579,""position"":[0.10589105005447681,-0.19840161158488348,5.1518472341390756e-05],""n_contacts"":13},{""t"":1387.4833333324002,""type"":""CONTACT_PERSIST"",""a0"":""/World/Containers/cup_blue"",""a1"":""/World/defaultGroundPlane/collisionPlane"",""c0"":""/World/Containers/cup_blue/mesh"",""c1"":""/World/defaultGroundPlane/collisionPlane"",""impulse"":[8.231677145476013e-11,0.0,0.0006905231857672334],""impulse_mag"":0.0006905231857672383,""position"":[0.1221841184888035,-0.2930393014103174,1.5599653124809265e-08],""n_contacts"":32},{""t"":1387.4833333324002,""type"":""CONTACT_PERSIST"",""a0"":""/World/Containers/cup_green"",""a1"":""/World/defaultGroundPlane/collisionPlane"",""c0"":""/World/Containers/cup_green/mesh"",""c1"":""/World/defaultGroundPlane/collisionPlane"",""impulse"":[0.0,0.0,0.0],""impulse_mag"":0.0,""position"":[0.10368626518175006,-0.21206589881330729,1.5832483768463135e-08],""n_contacts"":16},{""t"":1387.4833333324002,""type"":""CONTACT_PERSIST"",""a0"":""/World/Containers/cup_green"",""a1"":""/World/Containers/cup_blue"",""c0"":""/World/Containers/cup_green/mesh"",""c1"":""/World/Containers/cup_blue/mesh"",""impulse"":[-0.0023327667731791735,0.003734280588105321,-0.000786377233453095],""impulse_mag"":0.00447269957431106,""position"":[0.10450736805796623,-0.25078462064266205,0.03290429059416056],""n_contacts"":4}]",,120.0,1387.4833333324002,,
1777039695.4496713,1386933405667,0.7287809376015792,0.3061267997635025,0.7228582006122677,0.005922736989311561,0.7228582006122677,0.2861261067090829,0.682000994682312,0.3714253604412079,0.04677994291926724,-0.40666075013508396,0.06573751098693803,-0.407932595619401,0.0012718454843170246,-0.407932595619401,0.06144257248293553,-0.4121873080730438,0.1678508073091507,0.005526557937959864,0.1654146816169398,0.016627147301720335,0.1650929906691799,0.0003216909477599117,0.1650929906691799,0.015540818140702168,0.16047945618629456,-0.018415972590446472,0.004935225430645257,1.134345523156178,-0.1221481792367767,1.136708764596985,-0.002363241440807018,1.136708764596985,-0.11416766840937337,1.1635470390319824,-0.39711493253707886,-0.02920151587580433,-1.9269956563017392,0.1272050836077988,-1.9294567353529508,0.002461079051211623,-1.9294567353529508,0.11889418160847746,-1.9465969800949097,-0.02728743478655815,0.019601323793170478,0.229799896304583,-0.14600654374456012,0.1457745149971279,-0.049156203866004944,-0.2799960970878601,2.2351741790771484e-08,0.07213211059570312,-0.23697781562805176,0.029668021947145462,0.12745925784111023,-0.28103286027908325,7.450580596923828e-09,0,0.0,1,0.027082275821902587,1,0.018103095868282522,10,"[{""t"":1387.4999999990669,""type"":""CONTACT_PERSIST"",""a0"":""/World/Containers/cup_blue"",""a1"":""/World/defaultGroundPlane/geom"",""c0"":""/World/Containers/cup_blue/mesh"",""c1"":""/World/defaultGroundPlane/geom"",""impulse"":[-5.791625073467863e-17,1.165111978105266e-16,0.0020377472723751566],""impulse_mag"":0.0020377472723751566,""position"":[0.13048816687966647,-0.284104795832383,2.3345068568328553e-12],""n_contacts"":38},{""t"":1387.4999999990669,""type"":""CONTACT_PERSIST"",""a0"":""/World/Containers/cup_green"",""a1"":""/World/defaultGroundPlane/geom"",""c0"":""/World/Containers/cup_green/mesh"",""c1"":""/World/defaultGroundPlane/geom"",""impulse"":[-3.82687770361656e-10,1.91343885180828e-10,0.012840873561799526],""impulse_mag"":0.012840873561799533,""position"":[0.1056532017313517,-0.1980961228792484,8.616739740738503e-05],""n_contacts"":13},{""t"":1387.4999999990669,""type"":""CONTACT_PERSIST"",""a0"":""/World/Containers/cup_blue"",""a1"":""/World/defaultGroundPlane/collisionPlane"",""c0"":""/World/Containers/cup_blue/mesh"",""c1"":""/World/defaultGroundPlane/collisionPlane"",""impulse"":[1.817329407620416e-10,0.0,0.0015244866099237697],""impulse_mag"":0.0015244866099237806,""position"":[0.12229048600420356,-0.2932073501870036,1.5133991837501526e-08],""n_contacts"":32},{""t"":1387.4999999990669,""type"":""CONTACT_PERSIST"",""a0"":""/World/Containers/cup_green"",""a1"":""/World/defaultGroundPlane/collisionPlane"",""c0"":""/World/Containers/cup_green/mesh"",""c1"":""/World/defaultGroundPlane/collisionPlane"",""impulse"":[0.0,0.0,0.0],""impulse_mag"":0.0,""position"":[0.11605726980737277,-0.2040271567446845,1.543334552219936e-08],""n_contacts"":14},{""t"":1387.4999999990669,""type"":""CONTACT_PERSIST"",""a0"":""/World/Containers/cup_green"",""a1"":""/World/Containers/cup_blue"",""c0"":""/World/Containers/cup_green/mesh"",""c1"":""/World/Containers/cup_blue/mesh"",""impulse"":[-0.0025141569785773754,0.004085007589310408,-0.0006905107875354588],""impulse_mag"":0.004846140471071365,""position"":[0.1052926942706108,-0.2508599549531937,0.031168581172823905],""n_contacts"":5},{""t"":1387.4999999990669,""type"":""CONTACT_PERSIST"",""a0"":""/World/Containers/cup_blue"",""a1"":""/World/defaultGroundPlane/geom"",""c0"":""/World/Containers/cup_blue/mesh"",""c1"":""/World/defaultGroundPlane/geom"",""impulse"":[-5.8635818974643e-17,6.573625113921222e-17,0.004126130796663574],""impulse_mag"":0.004126130796663574,""position"":[0.1315739311468907,-0.2840714148986034,6.093245566227359e-11],""n_contacts"":39},{""t"":1387.4999999990669,""type"":""CONTACT_PERSIST"",""a0"":""/World/Containers/cup_green"",""a1"":""/World/defaultGroundPlane/geom"",""c0"":""/World/Containers/cup_green/mesh"",""c1"":""/World/defaultGroundPlane/geom"",""impulse"":[-1.5984762125054175e-10,7.992381062527087e-11,0.00536359753459692],""impulse_mag"":0.005363597534596923,""position"":[0.11684511415660381,-0.18863202445209026,9.582377970218658e-06],""n_contacts"":8},{""t"":1387.4999999990669,""type"":""CONTACT_PERSIST"",""a0"":""/World/Containers/cup_blue"",""a1"":""/World/defaultGroundPlane/collisionPlane"",""c0"":""/World/Containers/cup_blue/mesh"",""c1"":""/World/defaultGroundPlane/collisionPlane"",""impulse"":[1.832158931947686e-10,0.0,0.0015369264638138702],""impulse_mag"":0.001536926463813881,""position"":[0.12239568587392569,-0.2933629034087062,1.4202669262886047e-08],""n_contacts"":32},{""t"":1387.4999999990669,""type"":""CONTACT_PERSIST"",""a0"":""/World/Containers/cup_green"",""a1"":""/World/defaultGroundPlane/collisionPlane"",""c0"":""/World/Containers/cup_green/mesh"",""c1"":""/World/defaultGroundPlane/collisionPlane"",""impulse"":[0.0,0.0,0.0],""impulse_mag"":0.0,""position"":[0.11591172910162381,-0.20390230417251587,1.4368976865495954e-08],""n_contacts"":14},{""t"":1387.4999999990669,""type"":""CONTACT_PERSIST"",""a0"":""/World/Containers/cup_green"",""a1"":""/World/Containers/cup_blue"",""c0"":""/World/Containers/cup_green/mesh"",""c1"":""/World/Containers/cup_blue/mesh"",""impulse"":[-0.0020731098484247923,0.0034287937451153994,-0.00044710811926051974],""impulse_mag"":0.004031664254434765,""position"":[0.10480006039142609,-0.25144727528095245,0.030424172524362803],""n_contacts"":4}]",,120.0,1387.4999999990669,,
1777039695.5486403,1386950072335,0.764393250963783,0.40612561449238893,0.756469389171024,0.007923861792758946,0.756469389171024,0.38612211949261427,0.6877852082252502,1.1600685119628906,0.07660804273853272,-0.3990133803434593,0.08721120485169992,-0.4007149463352727,0.0017015659918134252,-0.4007149463352727,0.08291566465943331,-0.41343626379966736,0.3071601986885071,0.014422883456208069,0.16734894931413535,0.02205854051453049,0.16691856812134678,0.00043038119278857034,0.16691856812134678,0.020972059167025818,0.16301563382148743,-0.09201502799987793,0.004333315492647927,1.1201357929431968,-0.1620488777525751,1.1232975066228137,-0.0031617136796169287,1.1232975066228137,-0.15406724891614745,1.1535872220993042,-0.3014342188835144,-0.03345142915610744,-1.9121976467769082,0.16875766116095242,-1.9154902546198798,0.0032926078429715844,-1.9154902546198798,0.16044559486726098,-1.9444100856781006,0.07495911419391632,0.03221243890119241,0.22966288801275164,-0.14782320510966696,0.14638334703731568,-0.049156203866004944,-0.2799960970878601,2.2351741790771484e-08,0.07218651473522186,-0.23702284693717957,0.02944948524236679,0.12745928764343262,-0.2810328006744385,3.725290298461914e-09,0,0.0,1,0.021880926549766266,1,0.0151497608769199,10,"[{""t"":1387.5166666657335,""type"":""CONTACT_PERSIST"",""a0"":""/World/Containers/cup_blue"",""a1"":""/World/defaultGroundPlane/geom"",""c0"":""/World/Containers/cup_blue/mesh"",""c1"":""/World/defaultGroundPlane/geom"",""impulse"":[-1.8853468063948445e-17,2.0247919684356896e-17,0.001504951086701567],""impulse_mag"":0.001504951086701567,""position"":[0.13071390757193932,-0.2838953190889114,5.3582258288451194e-11],""n_contacts"":39},{""t"":1387.5166666657335,""type"":""CONTACT_PERSIST"",""a0"":""/World/Containers/cup_green"",""a1"":""/World/defaultGroundPlane/geom"",""c0"":""/World/Containers/cup_green/mesh"",""c1"":""/World/defaultGroundPlane/geom"",""impulse"":[-1.7280697012234114e-10,8.640348506117057e-11,0.011596878059208393],""impulse_mag"":0.011596878059208395,""position"":[0.10684731029547177,-0.19822069887931532,-2.2836029529571533e-06],""n_contacts"":13},{""t"":1387.5166666657335,""type"":""CONTACT_PERSIST"",""a0"":""/World/Containers/cup_blue"",""a1"":""/World/defaultGroundPlane/collisionPlane"",""c0"":""/World/Containers/cup_blue/mesh"",""c1"":""/World/defaultGroundPlane/collisionPlane"",""impulse"":[1.1590833384099919e-10,0.0,0.000972309683675121],""impulse_mag"":0.000972309683675128,""position"":[0.12240386265330017,-0.29337733145803213,1.4668330550193787e-08],""n_contacts"":32},{""t"":1387.5166666657335,""type"":""CONTACT_PERSIST"",""a0"":""/World/Containers/cup_green"",""a1"":""/World/defaultGroundPlane/collisionPlane"",""c0"":""/World/Containers/cup_green/mesh"",""c1"":""/World/defaultGroundPlane/collisionPlane"",""impulse"":[0.0,0.0,0.0],""impulse_mag"":0.0,""position"":[0.11571393055575234,-0.2037651687860489,1.543334552219936e-08],""n_contacts"":14},{""t"":1387.5166666657335,""type"":""CONTACT_PERSIST"",""a0"":""/World/Containers/cup_green"",""a1"":""/World/Containers/cup_blue"",""c0"":""/World/Containers/cup_green/mesh"",""c1"":""/World/Containers/cup_blue/mesh"",""impulse"":[-0.0010238363174721599,0.0017510609468445182,-0.00040621290099807084],""impulse_mag"":0.0020686865798076426,""position"":[0.10484210029244423,-0.2515713572502136,0.029920021072030067],""n_contacts"":2},{""t"":1387.5166666657335,""type"":""CONTACT_PERSIST"",""a0"":""/World/Containers/cup_blue"",""a1"":""/World/defaultGroundPlane/geom"",""c0"":""/World/Containers/cup_blue/mesh"",""c1"":""/World/defaultGroundPlane/geom"",""impulse"":[-1.0502155027353988e-16,1.165762431341143e-16,0.00762349521042438],""impulse_mag"":0.00762349521042438,""position"":[0.13071390757193932,-0.2838953190889114,5.3582258288451194e-11],""n_contacts"":39},{""t"":1387.5166666657335,""type"":""CONTACT_PERSIST"",""a0"":""/World/Containers/cup_green"",""a1"":""/World/defaultGroundPlane/geom"",""c0"":""/World/Containers/cup_green/mesh"",""c1"":""/World/defaultGroundPlane/geom"",""impulse"":[-8.055830308384415e-11,4.0279151541922076e-11,0.0054061757400631905],""impulse_mag"":0.005406175740063191,""position"":[0.119835431377093,-0.18772501746813455,-5.399601327048407e-06],""n_contacts"":9},{""t"":1387.5166666657335,""type"":""CONTACT_PERSIST"",""a0"":""/World/Containers/cup_blue"",""a1"":""/World/defaultGroundPlane/collisionPlane"",""c0"":""/World/Containers/cup_blue/mesh"",""c1"":""/World/defaultGroundPlane/collisionPlane"",""impulse"":[2.040053889706961e-11,0.0,0.00017113214562414214],""impulse_mag"":0.00017113214562414336,""position"":[0.12240386265330017,-0.29337733145803213,1.4668330550193787e-08],""n_contacts"":32},{""t"":1387.5166666657335,""type"":""CONTACT_PERSIST"",""a0"":""/World/Containers/cup_green"",""a1"":""/World/defaultGroundPlane/collisionPlane"",""c0"":""/World/Containers/cup_green/mesh"",""c1"":""/World/defaultGroundPlane/collisionPlane"",""impulse"":[0.0,0.0,0.0],""impulse_mag"":0.0,""position"":[0.11637104781610626,-0.20400534250906535,1.3836792537144253e-08],""n_contacts"":14},{""t"":1387.5166666657335,""type"":""CONTACT_PERSIST"",""a0"":""/World/Containers/cup_green"",""a1"":""/World/Containers/cup_blue"",""c0"":""/World/Containers/cup_green/mesh"",""c1"":""/World/Containers/cup_blue/mesh"",""impulse"":[-0.0013821371830999851,0.0024005714803934097,-0.00046741878031753004],""impulse_mag"":0.0028091861706870365,""position"":[0.10491596907377243,-0.25170865654945374,0.028801383450627327],""n_contacts"":2}]",,120.0,1387.5166666657335,,
1777039695.6511471,1386966739002,0.8000825932976231,0.48612416049279467,0.7905605589658139,0.009522034331809204,0.8000825932976231,0.48612416049279467,0.7025071382522583,2.789536714553833,0.0975754550453648,-0.39134946939022053,0.1043900513320039,-0.39339422612824193,0.0020447567380214027,-0.39134946939022053,0.1043900513320039,-0.4109284579753876,0.5678848028182983,0.019578988585167045,0.1692874008072578,0.02640362761341533,0.1687702155507909,0.0005171852564669066,0.1692874008072578,0.02640362761341533,0.1643626093864441,-0.1488395482301712,0.004924791420813701,1.105895327268173,-0.19396923475201572,1.1096947305127087,-0.0037994032445356485,1.105895327268173,-0.19396923475201572,1.1459466218948364,-0.2623872756958008,-0.04005129462666335,-1.8973676293495174,0.20199951303523556,-1.9013243269474738,0.00395669759795636,-1.8973676293495174,0.20199951303523556,-1.9385223388671875,0.23928269743919373,0.041154709517670085,0.22806164295334586,-0.1513408507103465,0.14621313770292366,-0.049156203866004944,-0.2799960970878601,2.2351741790771484e-08,0.0716208666563034,-0.23632079362869263,0.029138874262571335,0.1275462806224823,-0.28121453523635864,1.825392246246338e-07,0,0.0,1,0.025148900779970708,1,0.02426473129377217,10,"[{""t"":1387.5333333324002,""type"":""CONTACT_PERSIST"",""a0"":""/World/Containers/cup_blue"",""a1"":""/World/defaultGroundPlane/geom"",""c0"":""/World/Containers/cup_blue/mesh"",""c1"":""/World/defaultGroundPlane/geom"",""impulse"":[-5.212733842525299e-17,5.681758036730354e-17,0.003993530843217741],""impulse_mag"":0.003993530843217741,""position"":[0.13071390757193932,-0.2838953190889114,5.3582258288451194e-11],""n_contacts"":39},{""t"":1387.5333333324002,""type"":""CONTACT_PERSIST"",""a0"":""/World/Containers/cup_green"",""a1"":""/World/defaultGroundPlane/geom"",""c0"":""/World/Containers/cup_green/mesh"",""c1"":""/World/defaultGroundPlane/geom"",""impulse"":[0.0,0.0,0.0],""impulse_mag"":0.0,""position"":[0.11308369582349603,-0.19276425377889114,-1.577440310608257e-05],""n_contacts"":11},{""t"":1387.5333333324002,""type"":""CONTACT_PERSIST"",""a0"":""/World/Containers/cup_blue"",""a1"":""/World/defaultGroundPlane/collisionPlane"",""c0"":""/World/Containers/cup_blue/mesh"",""c1"":""/World/defaultGroundPlane/collisionPlane"",""impulse"":[1.4388825157404805e-10,0.0,0.0012070222646798356],""impulse_mag"":0.0012070222646798443,""position"":[0.12240386265330017,-0.29337733145803213,1.4668330550193787e-08],""n_contacts"":32},{""t"":1387.5333333324002,""type"":""CONTACT_PERSIST"",""a0"":""/World/Containers/cup_green"",""a1"":""/World/defaultGroundPlane/collisionPlane"",""c0"":""/World/Containers/cup_green/mesh"",""c1"":""/World/defaultGroundPlane/collisionPlane"",""impulse"":[7.480850383601023e-10,0.0,0.006275393068790436],""impulse_mag"":0.006275393068790481,""position"":[0.11616784387401172,-0.20385966769286565,1.6497714178902763e-08],""n_contacts"":14},{""t"":1387.5333333324002,""type"":""CONTACT_PERSIST"",""a0"":""/World/Containers/cup_green"",""a1"":""/World/Containers/cup_blue"",""c0"":""/World/Containers/cup_green/mesh"",""c1"":""/World/Containers/cup_blue/mesh"",""impulse"":[-0.0037739796098321676,0.006687598302960396,-0.0010480094933882356],""impulse_mag"":0.007750175291915635,""position"":[0.10517585426568984,-0.2508400022983551,0.033339730277657506],""n_contacts"":5},{""t"":1387.5333333324002,""type"":""CONTACT_PERSIST"",""a0"":""/World/Containers/cup_blue"",""a1"":""/World/defaultGroundPlane/geom"",""c0"":""/World/Containers/cup_blue/mesh"",""c1"":""/World/defaultGroundPlane/geom"",""impulse"":[7.540378612027529e-17,-3.5050979426312216e-17,0.002653036168339895],""impulse_mag"":0.002653036168339895,""position"":[0.13167065229171362,-0.28424427218926257,-1.8634347626198762e-11],""n_contacts"":39},{""t"":1387.5333333324002,""type"":""CONTACT_PERSIST"",""a0"":""/World/Containers/cup_green"",""a1"":""/World/defaultGroundPlane/geom"",""c0"":""/World/Containers/cup_green/mesh"",""c1"":""/World/defaultGroundPlane/geom"",""impulse"":[0.0,-2.0948217119287627e-11,0.005623245611786842],""impulse_mag"":0.005623245611786842,""position"":[0.11277856677770615,-0.1923239068551497,1.0074200955304233e-05],""n_contacts"":11},{""t"":1387.5333333324002,""type"":""CONTACT_PERSIST"",""a0"":""/World/Containers/cup_blue"",""a1"":""/World/defaultGroundPlane/collisionPlane"",""c0"":""/World/Containers/cup_blue/mesh"",""c1"":""/World/defaultGroundPlane/collisionPlane"",""impulse"":[3.768062038604636e-10,0.0,0.0031608799181412905],""impulse_mag"":0.003160879918141313,""position"":[0.12296844949014485,-0.29359651543200016,1.6530975699424744e-08],""n_contacts"":32},{""t"":1387.5333333324002,""type"":""CONTACT_PERSIST"",""a0"":""/World/Containers/cup_green"",""a1"":""/World/defaultGroundPlane/collisionPlane"",""c0"":""/World/Containers/cup_green/mesh"",""c1"":""/World/defaultGroundPlane/collisionPlane"",""impulse"":[0.0,0.0,0.0],""impulse_mag"":0.0,""position"":[0.11761353484221868,-0.20351921766996384,1.4901161193847656e-08],""n_contacts"":14},{""t"":1387.5333333324002,""type"":""CONTACT_PERSIST"",""a0"":""/World/Containers/cup_green"",""a1"":""/World/Containers/cup_blue"",""c0"":""/World/Containers/cup_green/mesh"",""c1"":""/World/Containers/cup_blue/mesh"",""impulse"":[-0.0025873909568190356,0.004785096954719847,-0.0008119175206218188],""impulse_mag"":0.005500086807477747,""position"":[0.10430652089416981,-0.24997498840093613,0.04268999118357897],""n_contacts"":4}]",,120.0,1387.5333333324002,,
1777039695.751543,1386983405670,0.8656181956907164,0.6061251547300707,0.853695138122183,0.011923057568533402,0.853695138122183,0.586124208727872,0.7309757471084595,4.894045829772949,0.13464244858225694,-0.3772763879557308,0.13015900290111626,-0.37983673918442196,0.002560351228691138,-0.37983673918442196,0.1258640100791842,-0.404580682516098,0.5312747359275818,0.027304294560367204,0.17284693925779104,0.03292143072335028,0.17219934344248794,0.0006475958153031036,0.17219934344248794,0.0318350878235669,0.16617020964622498,-0.2026548683643341,0.006676729611566068,1.0797458541946445,-0.24185103720773288,1.0845032938374866,-0.004757439642842032,1.0845032938374866,-0.23387042545126369,1.1339607238769531,-0.3962711989879608,-0.0542148696823086,-1.8701355745665285,0.25186361025495196,-1.8750899710324311,0.004954396465902677,-1.8750899710324311,0.2435526031480245,-1.9264180660247803,0.46666622161865234,0.056282491458251815,0.2245835270814438,-0.15792091663275332,0.14556616112630344,-0.049156203866004944,-0.2799960970878601,2.2351741790771484e-08,0.07079596817493439,-0.23533174395561218,0.028781965374946594,0.1275564730167389,-0.28126925230026245,1.1175870895385742e-08,0,0.0,1,0.025662157295758672,1,0.024275419374578437,10,"[{""t"":1387.5499999990668,""type"":""CONTACT_PERSIST"",""a0"":""/World/Containers/cup_blue"",""a1"":""/World/defaultGroundPlane/geom"",""c0"":""/World/Containers/cup_blue/mesh"",""c1"":""/World/defaultGroundPlane/geom"",""impulse"":[2.1970401968499607e-16,-9.709795214022491e-17,0.00799758933794692],""impulse_mag"":0.00799758933794692,""position"":[0.13193416690979248,-0.2839858898749718,4.5625566003356e-11],""n_contacts"":39},{""t"":1387.5499999990668,""type"":""CONTACT_PERSIST"",""a0"":""/World/Containers/cup_green"",""a1"":""/World/defaultGroundPlane/geom"",""c0"":""/World/Containers/cup_green/mesh"",""c1"":""/World/defaultGroundPlane/geom"",""impulse"":[0.0,2.1020164081564374e-10,0.01187906926497817],""impulse_mag"":0.011879069264978172,""position"":[0.10996438997487228,-0.19607521469394365,7.227583167453606e-05],""n_contacts"":12},{""t"":1387.5499999990668,""type"":""CONTACT_PERSIST"",""a0"":""/World/Containers/cup_blue"",""a1"":""/World/defaultGroundPlane/collisionPlane"",""c0"":""/World/Containers/cup_blue/mesh"",""c1"":""/World/defaultGroundPlane/collisionPlane"",""impulse"":[2.375492584756611e-10,0.0,0.001992707846511621],""impulse_mag"":0.0019927078465116353,""position"":[0.12298026029020548,-0.2936200397089124,1.6065314412117004e-08],""n_contacts"":32},{""t"":1387.5499999990668,""type"":""CONTACT_PERSIST"",""a0"":""/World/Containers/cup_green"",""a1"":""/World/defaultGroundPlane/collisionPlane"",""c0"":""/World/Containers/cup_green/mesh"",""c1"":""/World/defaultGroundPlane/collisionPlane"",""impulse"":[0.0,0.0,0.0],""impulse_mag"":0.0,""position"":[0.11733264688934598,-0.20321543088981084,1.3836792537144253e-08],""n_contacts"":14},{""t"":1387.5499999990668,""type"":""CONTACT_PERSIST"",""a0"":""/World/Containers/cup_green"",""a1"":""/World/Containers/cup_blue"",""c0"":""/World/Containers/cup_green/mesh"",""c1"":""/World/Containers/cup_blue/mesh"",""impulse"":[-0.002067424124106765,0.003933435771614313,-0.0005360920331440866],""impulse_mag"":0.004475885850460696,""position"":[0.10420010052621365,-0.24994568526744843,0.0436937864869833],""n_contacts"":4},{""t"":1387.5499999990668,""type"":""CONTACT_PERSIST"",""a0"":""/World/Containers/cup_blue"",""a1"":""/World/defaultGroundPlane/geom"",""c0"":""/World/Containers/cup_blue/mesh"",""c1"":""/World/defaultGroundPlane/geom"",""impulse"":[8.720960846360677e-17,-4.6770021990057596e-17,0.003190694418421458],""impulse_mag"":0.003190694418421458,""position"":[0.13245611102917257,-0.2831109723983667,3.501240323308034e-11],""n_contacts"":39},{""t"":1387.5499999990668,""type"":""CONTACT_PERSIST"",""a0"":""/World/Containers/cup_green"",""a1"":""/World/defaultGroundPlane/geom"",""c0"":""/World/Containers/cup_green/mesh"",""c1"":""/World/defaultGroundPlane/geom"",""impulse"":[-8.064103551586044e-11,-1.0080129439482555e-11,0.005411730147898197],""impulse_mag"":0.005411730147898198,""position"":[0.11104079633951187,-0.1951580300927162,5.118595436215401e-06],""n_contacts"":10},{""t"":1387.5499999990668,""type"":""CONTACT_PERSIST"",""a0"":""/World/Containers/cup_blue"",""a1"":""/World/defaultGroundPlane/collisionPlane"",""c0"":""/World/Containers/cup_blue/mesh"",""c1"":""/World/defaultGroundPlane/collisionPlane"",""impulse"":[3.24615184653875e-10,0.0,0.0027230698888160987],""impulse_mag"":0.002723069888816118,""position"":[0.12323793489485979,-0.2936427490785718,1.6530975699424744e-08],""n_contacts"":32},{""t"":1387.5499999990668,""type"":""CONTACT_PERSIST"",""a0"":""/World/Containers/cup_green"",""a1"":""/World/defaultGroundPlane/collisionPlane"",""c0"":""/World/Containers/cup_green/mesh"",""c1"":""/World/defaultGroundPlane/collisionPlane"",""impulse"":[0.0,0.0,0.0],""impulse_mag"":0.0,""position"":[0.1183115653693676,-0.20056337331022536,1.543334552219936e-08],""n_contacts"":14},{""t"":1387.5499999990668,""type"":""CONTACT_PERSIST"",""a0"":""/World/Containers/cup_green"",""a1"":""/World/Containers/cup_blue"",""c0"":""/World/Containers/cup_green/mesh"",""c1"":""/World/Containers/cup_blue/mesh"",""impulse"":[-0.0017591851064935327,0.0034560745116323233,-0.0003681291709654033],""impulse_mag"":0.003895472032421609,""position"":[0.1043253168463707,-0.24937573075294495,0.046959906816482544],""n_contacts"":1}]",,120.0,1387.5499999990668,,
1777039695.8530433,1387000072337,0.9312276870042129,0.7061207995140812,0.9173029468906008,0.01392474011361211,0.9173029468906008,0.686117486727762,0.7672098875045776,6.7718424797058105,0.16401779949963524,-0.36318743965260825,0.1516320160535533,-0.3661776311579445,0.0029901915053362482,-0.3661776311579445,0.14733651498970296,-0.39665237069129944,0.7616826295852661,0.03346493103869119,0.17641049095370018,0.03835265176194808,0.175654174599869,0.0007563163538311657,0.175654174599869,0.03726618031131239,0.16806034743785858,-0.23422223329544067,0.008350143515841596,1.0535668985762996,-0.2817504708783921,1.0591230330033987,-0.005556134427099124,1.0591230330033987,-0.27376891474716664,1.1192867755889893,-0.45012831687927246,-0.06571987701268966,-1.8428728166686699,0.2934148705986816,-1.8486589736851018,0.005786157016431925,-1.8486589736851018,0.28510288002026113,-1.9112584590911865,0.6187074184417725,0.06838564242251666,0.21976189627917858,-0.16613270474765582,0.14475695143656347,-0.049156203866004944,-0.2799960970878601,2.2351741790771484e-08,0.07039675116539001,-0.23465903103351593,0.028474092483520508,0.1275564283132553,-0.28126925230026245,2.60770320892334e-08,0,0.0,1,0.030390835487822926,1,0.01666785516394255,10,"[{""t"":1387.5666666657335,""type"":""CONTACT_PERSIST"",""a0"":""/World/Containers/cup_blue"",""a1"":""/World/defaultGroundPlane/geom"",""c0"":""/World/Containers/cup_blue/mesh"",""c1"":""/World/defaultGroundPlane/geom"",""impulse"":[6.487300918102991e-17,-3.704061559200796e-17,0.002417621188239849],""impulse_mag"":0.002417621188239849,""position"":[0.13245611102917257,-0.2831109723983667,3.501240323308034e-11],""n_contacts"":39},{""t"":1387.5666666657335,""type"":""CONTACT_PERSIST"",""a0"":""/World/Containers/cup_green"",""a1"":""/World/defaultGroundPlane/geom"",""c0"":""/World/Containers/cup_green/mesh"",""c1"":""/World/defaultGroundPlane/geom"",""impulse"":[-7.225774731160761e-11,-1.8064436827901903e-11,0.009698272915557027],""impulse_mag"":0.009698272915557027,""position"":[0.12444949994484583,-0.19538326462109884,1.0757132743795713e-05],""n_contacts"":15},{""t"":1387.5666666657335,""type"":""CONTACT_PERSIST"",""a0"":""/World/Containers/cup_blue"",""a1"":""/World/defaultGroundPlane/collisionPlane"",""c0"":""/World/Containers/cup_blue/mesh"",""c1"":""/World/defaultGroundPlane/collisionPlane"",""impulse"":[2.1350491393698793e-10,0.0,0.0017910092128659016],""impulse_mag"":0.0017910092128659144,""position"":[0.12323793489485979,-0.2936427490785718,1.6530975699424744e-08],""n_contacts"":32},{""t"":1387.5666666657335,""type"":""CONTACT_PERSIST"",""a0"":""/World/Containers/cup_green"",""a1"":""/World/defaultGroundPlane/collisionPlane"",""c0"":""/World/Containers/cup_green/mesh"",""c1"":""/World/defaultGroundPlane/collisionPlane"",""impulse"":[5.737885722112424e-10,0.0,0.004813287872821093],""impulse_mag"":0.004813287872821126,""position"":[0.11370295924799782,-0.20399804732629231,1.3836792537144253e-08],""n_contacts"":14},{""t"":1387.5666666657335,""type"":""CONTACT_PERSIST"",""a0"":""/World/Containers/cup_green"",""a1"":""/World/Containers/cup_blue"",""c0"":""/World/Containers/cup_green/mesh"",""c1"":""/World/Containers/cup_blue/mesh"",""impulse"":[-0.0015623088693246245,0.003171729389578104,-0.0002480114926584065],""impulse_mag"":0.0035443174271465204,""position"":[0.10437557846307755,-0.2495061159133911,0.045978665351867676],""n_contacts"":1},{""t"":1387.5666666657335,""type"":""CONTACT_PERSIST"",""a0"":""/World/Containers/cup_blue"",""a1"":""/World/defaultGroundPlane/geom"",""c0"":""/World/Containers/cup_blue/mesh"",""c1"":""/World/defaultGroundPlane/geom"",""impulse"":[7.519198572956221e-17,-6.032721228655874e-17,0.003143524616234572],""impulse_mag"":0.003143524616234572,""position"":[0.13245611102917257,-0.2831109723983667,3.501240323308034e-11],""n_contacts"":39},{""t"":1387.5666666657335,""type"":""CONTACT_PERSIST"",""a0"":""/World/Containers/cup_green"",""a1"":""/World/defaultGroundPlane/geom"",""c0"":""/World/Containers/cup_green/mesh"",""c1"":""/World/defaultGroundPlane/geom"",""impulse"":[0.0,0.0,0.0],""impulse_mag"":0.0,""position"":[0.12177162151783705,-0.19777614902704954,-4.020984306407627e-05],""n_contacts"":16},{""t"":1387.5666666657335,""type"":""CONTACT_PERSIST"",""a0"":""/World/Containers/cup_blue"",""a1"":""/World/defaultGroundPlane/collisionPlane"",""c0"":""/World/Containers/cup_blue/mesh"",""c1"":""/World/defaultGroundPlane/collisionPlane"",""impulse"":[2.958842220544724e-10,0.0,0.002482057071915733],""impulse_mag"":0.002482057071915751,""position"":[0.12323793489485979,-0.2936427490785718,1.6530975699424744e-08],""n_contacts"":32},{""t"":1387.5666666657335,""type"":""CONTACT_PERSIST"",""a0"":""/World/Containers/cup_green"",""a1"":""/World/defaultGroundPlane/collisionPlane"",""c0"":""/World/Containers/cup_green/mesh"",""c1"":""/World/defaultGroundPlane/collisionPlane"",""impulse"":[1.0783232085032068e-09,0.0,0.009045631624758244],""impulse_mag"":0.009045631624758308,""position"":[0.11231307337681452,-0.21121147175629934,1.5894571940104166e-08],""n_contacts"":15},{""t"":1387.5666666657335,""type"":""CONTACT_PERSIST"",""a0"":""/World/Containers/cup_green"",""a1"":""/World/Containers/cup_blue"",""c0"":""/World/Containers/cup_green/mesh"",""c1"":""/World/Containers/cup_blue/mesh"",""impulse"":[-0.0014155179960653186,0.002965336898341775,-0.00015082804020494223],""impulse_mag"":0.003289325647539942,""position"":[0.10442256927490234,-0.2496282309293747,0.04506025090813637],""n_contacts"":1}]",,120.0,1387.5666666657335,,
1777039695.9502435,1387016739005,1.0068272617627916,0.8061051608781603,0.9909225304902112,0.015904731272580408,0.9909225304902112,0.7861272942961127,0.8116344809532166,6.221445083618164,0.19519278080957503,-0.3469532259864436,0.1731026062102171,-0.3503685997713696,0.003415373784925957,-0.3503685997713696,0.16881256945111028,-0.3867679238319397,1.002186894416809,0.03981469784549607,0.1805166497951653,0.04378325994637858,0.17965279106124268,0.0008638587339226123,0.17965279106124268,0.042698170595526094,0.17054195702075958,-0.24851013720035553,0.009974692774405713,1.0234017826342492,-0.32164540233231675,1.0297479567284373,-0.0063461740941881395,1.0297479567284373,-0.31367399953479047,1.100899338722229,-0.5336699485778809,-0.07749755608797981,-1.811458872396856,0.33496144233502617,-1.8180677765269462,0.006608904130090076,-1.8180677765269462,0.3266600254357566,-1.8921256065368652,0.6634120345115662,0.08066673414000913,0.21379314254045495,-0.1753803488706954,0.14387108237541116,-0.049156203866004944,-0.2799960970878601,2.2351741790771484e-08,0.0703749805688858,-0.2346186339855194,0.02844240516424179,0.1275564432144165,-0.28126928210258484,3.725290298461914e-09,0,0.0,1,0.027076665058613964,1,0.010909997989747906,10,"[{""t"":1387.5833333324001,""type"":""CONTACT_PERSIST"",""a0"":""/World/Containers/cup_blue"",""a1"":""/World/defaultGroundPlane/geom"",""c0"":""/World/Containers/cup_blue/mesh"",""c1"":""/World/defaultGroundPlane/geom"",""impulse"":[4.5776942806101583e-17,-2.6329919508059033e-17,0.0017097480648402552],""impulse_mag"":0.0017097480648402552,""position"":[0.13245611102917257,-0.2831109723983667,3.501240323308034e-11],""n_contacts"":39},{""t"":1387.5833333324001,""type"":""CONTACT_PERSIST"",""a0"":""/World/Containers/cup_green"",""a1"":""/World/defaultGroundPlane/geom"",""c0"":""/World/Containers/cup_green/mesh"",""c1"":""/World/defaultGroundPlane/geom"",""impulse"":[7.901529083809145e-11,-3.950764541904572e-11,0.010605254676192999],""impulse_mag"":0.010605254676192999,""position"":[0.12474837473460607,-0.1976112106016704,-1.1454727168061903e-06],""n_contacts"":14},{""t"":1387.5833333324001,""type"":""CONTACT_PERSIST"",""a0"":""/World/Containers/cup_blue"",""a1"":""/World/defaultGroundPlane/collisionPlane"",""c0"":""/World/Containers/cup_blue/mesh"",""c1"":""/World/defaultGroundPlane/collisionPlane"",""impulse"":[1.3154464095690294e-10,0.0,0.001103476573007356],""impulse_mag"":0.0011034765730073637,""position"":[0.12323793489485979,-0.2936427490785718,1.6530975699424744e-08],""n_contacts"":32},{""t"":1387.5833333324001,""type"":""CONTACT_PERSIST"",""a0"":""/World/Containers/cup_green"",""a1"":""/World/defaultGroundPlane/collisionPlane"",""c0"":""/World/Containers/cup_green/mesh"",""c1"":""/World/defaultGroundPlane/collisionPlane"",""impulse"":[1.2117910841435986e-10,0.0,0.0010165241546928883],""impulse_mag"":0.0010165241546928954,""position"":[0.11228666553894678,-0.21103882789611816,1.4901161193847656e-08],""n_contacts"":15},{""t"":1387.5833333324001,""type"":""CONTACT_PERSIST"",""a0"":""/World/Containers/cup_green"",""a1"":""/World/Containers/cup_blue"",""c0"":""/World/Containers/cup_green/mesh"",""c1"":""/World/Containers/cup_blue/mesh"",""impulse"":[-0.0011121052084490657,0.002357813762500882,-9.469180804444477e-05],""impulse_mag"":0.0026086452943642666,""position"":[0.10443959385156631,-0.24967241287231445,0.04472728818655014],""n_contacts"":1},{""t"":1387.5833333324001,""type"":""CONTACT_PERSIST"",""a0"":""/World/Containers/cup_blue"",""a1"":""/World/defaultGroundPlane/geom"",""c0"":""/World/Containers/cup_blue/mesh"",""c1"":""/World/defaultGroundPlane/geom"",""impulse"":[1.0667205223168458e-16,-8.805765752612167e-17,0.004508143253168839],""impulse_mag"":0.004508143253168839,""position"":[0.13245611102917257,-0.2831109723983667,3.501240323308034e-11],""n_contacts"":39},{""t"":1387.5833333324001,""type"":""CONTACT_PERSIST"",""a0"":""/World/Containers/cup_green"",""a1"":""/World/defaultGroundPlane/geom"",""c0"":""/World/Containers/cup_green/mesh"",""c1"":""/World/defaultGroundPlane/geom"",""impulse"":[8.033682746821924e-11,-4.016841373410962e-11,0.010782628320157528],""impulse_mag"":0.010782628320157528,""position"":[0.12474837473460607,-0.1976112106016704,-1.1454727168061903e-06],""n_contacts"":14},{""t"":1387.5833333324001,""type"":""CONTACT_PERSIST"",""a0"":""/World/Containers/cup_blue"",""a1"":""/World/defaultGroundPlane/collisionPlane"",""c0"":""/World/Containers/cup_blue/mesh"",""c1"":""/World/defaultGroundPlane/collisionPlane"",""impulse"":[0.0,0.0,0.0],""impulse_mag"":0.0,""position"":[0.12323793489485979,-0.2936427490785718,1.6530975699424744e-08],""n_contacts"":32},{""t"":1387.5833333324001,""type"":""CONTACT_PERSIST"",""a0"":""/World/Containers/cup_green"",""a1"":""/World/defaultGroundPlane/collisionPlane"",""c0"":""/World/Containers/cup_green/mesh"",""c1"":""/World/defaultGroundPlane/collisionPlane"",""impulse"":[1.2917848735138904e-10,0.0,0.0010836278088390827],""impulse_mag"":0.0010836278088390905,""position"":[0.11228666553894678,-0.21103882789611816,1.4901161193847656e-08],""n_contacts"":15},{""t"":1387.5833333324001,""type"":""CONTACT_PERSIST"",""a0"":""/World/Containers/cup_green"",""a1"":""/World/Containers/cup_blue"",""c0"":""/World/Containers/cup_green/mesh"",""c1"":""/World/Containers/cup_blue/mesh"",""impulse"":[-0.0004177829250693321,0.0008857551729306579,-3.5572713386500254e-05],""impulse_mag"":0.0009799848043671824,""position"":[0.10443960130214691,-0.24967245757579803,0.044727254658937454],""n_contacts"":1}]",,120.0,1387.5833333324001,,
1777039696.0520446,1387033405672,1.0924814977194053,0.9091008492838527,1.0745227525672811,0.017958745152124145,1.0745227525672811,0.8861130524537674,0.8664036989212036,8.035018920898438,0.22607779879820167,-0.328559879563897,0.1952198471816265,-0.3324163312292245,0.0038564516653274983,-0.3324163312292245,0.1902834595545141,-0.37435242533683777,0.8570129871368408,0.045792545772940785,0.1851689232954508,0.04937742708197879,0.18419350166876186,0.0009754216266889271,0.18419350166876186,0.04812885464621151,0.17358718812465668,-0.19463594257831573,0.01158173517079411,0.9892247390885667,-0.3627418885521199,0.9963904887824977,-0.007165749693931023,0.9963904887824977,-0.35356948832568375,1.078569769859314,-0.6135098338127136,-0.08934503077074729,-1.775866907712154,0.37775931290699055,-1.7833293176688478,0.007462409956693783,-1.7833293176688478,0.3682071775828401,-1.8688929080963135,0.8201361298561096,0.09302600038415942,0.2054050872837539,-0.18698959804323068,0.14258187226734026,-0.049156203866004944,-0.2799960970878601,2.2351741790771484e-08,0.07036320865154266,-0.23458276689052582,0.02845558151602745,0.1275564730167389,-0.28126928210258484,0.0,0,0.0,1,0.023986200452782238,1,0.006106184699441911,10,"[{""t"":1387.5999999990668,""type"":""CONTACT_PERSIST"",""a0"":""/World/Containers/cup_blue"",""a1"":""/World/defaultGroundPlane/geom"",""c0"":""/World/Containers/cup_blue/mesh"",""c1"":""/World/defaultGroundPlane/geom"",""impulse"":[2.1583973328058933e-17,-1.5355462257489116e-17,0.0008638608918629664],""impulse_mag"":0.0008638608918629664,""position"":[0.13245611102917257,-0.2831109723983667,3.501240323308034e-11],""n_contacts"":39},{""t"":1387.5999999990668,""type"":""CONTACT_PERSIST"",""a0"":""/World/Containers/cup_green"",""a1"":""/World/defaultGroundPlane/geom"",""c0"":""/World/Containers/cup_green/mesh"",""c1"":""/World/defaultGroundPlane/geom"",""impulse"":[7.68620167512779e-11,-3.843100837563895e-11,0.010316247120499611],""impulse_mag"":0.010316247120499611,""position"":[0.12474837473460607,-0.1976112106016704,-1.1454727168061903e-06],""n_contacts"":14},{""t"":1387.5999999990668,""type"":""CONTACT_PERSIST"",""a0"":""/World/Containers/cup_blue"",""a1"":""/World/defaultGroundPlane/collisionPlane"",""c0"":""/World/Containers/cup_blue/mesh"",""c1"":""/World/defaultGroundPlane/collisionPlane"",""impulse"":[5.108809729426067e-11,0.0,0.00042855808806052664],""impulse_mag"":0.00042855808806052973,""position"":[0.12323793489485979,-0.2936427490785718,1.6530975699424744e-08],""n_contacts"":32},{""t"":1387.5999999990668,""type"":""CONTACT_PERSIST"",""a0"":""/World/Containers/cup_green"",""a1"":""/World/defaultGroundPlane/collisionPlane"",""c0"":""/World/Containers/cup_green/mesh"",""c1"":""/World/defaultGroundPlane/collisionPlane"",""impulse"":[2.0022830615751275e-10,0.0,0.0016796370036900043],""impulse_mag"":0.0016796370036900163,""position"":[0.11228666553894678,-0.21103882789611816,1.4901161193847656e-08],""n_contacts"":15},{""t"":1387.5999999990668,""type"":""CONTACT_PERSIST"",""a0"":""/World/Containers/cup_green"",""a1"":""/World/Containers/cup_blue"",""c0"":""/World/Containers/cup_green/mesh"",""c1"":""/World/Containers/cup_blue/mesh"",""impulse"":[0.0,0.0,0.0],""impulse_mag"":0.0,""position"":[0.1044396236538887,-0.24967244267463684,0.04472725838422775],""n_contacts"":1},{""t"":1387.5999999990668,""type"":""CONTACT_PERSIST"",""a0"":""/World/Containers/cup_blue"",""a1"":""/World/defaultGroundPlane/geom"",""c0"":""/World/Containers/cup_blue/mesh"",""c1"":""/World/defaultGroundPlane/geom"",""impulse"":[1.120852734863462e-16,-9.644251253794144e-17,0.004813765719518415],""impulse_mag"":0.004813765719518415,""position"":[0.13245611102917257,-0.2831109723983667,3.501240323308034e-11],""n_contacts"":39},{""t"":1387.5999999990668,""type"":""CONTACT_PERSIST"",""a0"":""/World/Containers/cup_green"",""a1"":""/World/defaultGroundPlane/geom"",""c0"":""/World/Containers/cup_green/mesh"",""c1"":""/World/defaultGroundPlane/geom"",""impulse"":[7.719297076547171e-11,-3.8596485382735857e-11,0.010360667016357183],""impulse_mag"":0.010360667016357183,""position"":[0.12474837473460607,-0.1976112106016704,-1.1454727168061903e-06],""n_contacts"":14},{""t"":1387.5999999990668,""type"":""CONTACT_PERSIST"",""a0"":""/World/Containers/cup_blue"",""a1"":""/World/defaultGroundPlane/collisionPlane"",""c0"":""/World/Containers/cup_blue/mesh"",""c1"":""/World/defaultGroundPlane/collisionPlane"",""impulse"":[0.0,0.0,0.0],""impulse_mag"":0.0,""position"":[0.12323793489485979,-0.2936427490785718,1.6530975699424744e-08],""n_contacts"":32},{""t"":1387.5999999990668,""type"":""CONTACT_PERSIST"",""a0"":""/World/Containers/cup_green"",""a1"":""/World/defaultGroundPlane/collisionPlane"",""c0"":""/World/Containers/cup_green/mesh"",""c1"":""/World/defaultGroundPlane/collisionPlane"",""impulse"":[1.942693089729275e-10,0.0,0.001629649312235415],""impulse_mag"":0.0016296493122354265,""position"":[0.11227953086296717,-0.2110334575176239,1.4404455820719401e-08],""n_contacts"":15},{""t"":1387.5999999990668,""type"":""CONTACT_PERSIST"",""a0"":""/World/Containers/cup_green"",""a1"":""/World/Containers/cup_blue"",""c0"":""/World/Containers/cup_green/mesh"",""c1"":""/World/Containers/cup_blue/mesh"",""impulse"":[0.0,0.0,0.0],""impulse_mag"":0.0,""position"":[0.1044396236538887,-0.24967244267463684,0.044727254658937454],""n_contacts"":1}]",,120.0,1387.5999999990668,,
1777039696.1512399,1387050072340,1.1836642928954972,0.8723035641499378,1.1659479246193534,0.017716368276143868,1.1659479246193534,0.8923823421488386,0.9325132369995117,8.15034294128418,0.2511510558959855,-0.3089793331878896,0.18731801716331759,-0.31278373696796175,0.0038044037800721298,-0.31278373696796175,0.19162972358799885,-0.36015909910202026,1.4440608024597168,0.05117976591413065,0.19012147814509728,0.04737879814554563,0.1891592211156358,0.000962257029461483,0.1891592211156358,0.04846936845720569,0.17705948650836945,-0.25320160388946533,0.013061991636727832,0.9528417356498479,-0.348059340720842,0.9599107741309315,-0.007069038481083645,0.9599107741309315,-0.3560710083558177,1.052258849143982,-0.7147527933120728,-0.09941711349413407,-1.7379776569411376,0.3624689112315558,-1.7453393518647302,0.007361694923592621,-1.7453393518647302,0.37081225992243094,-1.8415323495864868,0.89410400390625,0.10355469264534922,0.19463624392749124,-0.19992064199965523,0.14120218604054469,-0.049156203866004944,-0.2799960970878601,2.2351741790771484e-08,0.07035250216722488,-0.23449163138866425,0.028549540787935257,0.12755648791790009,-0.2812693119049072,7.450580596923828e-09,0,0.0,1,0.02398234326392415,1,0.004469413395899128,10,"[{""t"":1387.6166666657334,""type"":""CONTACT_PERSIST"",""a0"":""/World/Containers/cup_blue"",""a1"":""/World/defaultGroundPlane/geom"",""c0"":""/World/Containers/cup_blue/mesh"",""c1"":""/World/defaultGroundPlane/geom"",""impulse"":[6.998217202659156e-17,-5.2274975978123083e-17,0.0028497305796548744],""impulse_mag"":0.0028497305796548744,""position"":[0.13245611102917257,-0.2831109723983667,3.501240323308034e-11],""n_contacts"":39},{""t"":1387.6166666657334,""type"":""CONTACT_PERSIST"",""a0"":""/World/Containers/cup_green"",""a1"":""/World/defaultGroundPlane/geom"",""c0"":""/World/Containers/cup_green/mesh"",""c1"":""/World/defaultGroundPlane/geom"",""impulse"":[7.639620186461471e-11,-3.8198100932307355e-11,0.0102537265047431],""impulse_mag"":0.0102537265047431,""position"":[0.12474837473460607,-0.1976112106016704,-1.1454727168061903e-06],""n_contacts"":14},{""t"":1387.6166666657334,""type"":""CONTACT_PERSIST"",""a0"":""/World/Containers/cup_blue"",""a1"":""/World/defaultGroundPlane/collisionPlane"",""c0"":""/World/Containers/cup_blue/mesh"",""c1"":""/World/defaultGroundPlane/collisionPlane"",""impulse"":[1.4172780136989527e-11,0.0,0.00011888991139130667],""impulse_mag"":0.00011888991139130751,""position"":[0.12323793489485979,-0.2936427490785718,1.6530975699424744e-08],""n_contacts"":32},{""t"":1387.6166666657334,""type"":""CONTACT_PERSIST"",""a0"":""/World/Containers/cup_green"",""a1"":""/World/defaultGroundPlane/collisionPlane"",""c0"":""/World/Containers/cup_green/mesh"",""c1"":""/World/defaultGroundPlane/collisionPlane"",""impulse"":[2.071175314588558e-10,0.0,0.0017374280141666532],""impulse_mag"":0.0017374280141666655,""position"":[0.11227953086296717,-0.2110334575176239,1.4404455820719401e-08],""n_contacts"":15},{""t"":1387.6166666657334,""type"":""CONTACT_PERSIST"",""a0"":""/World/Containers/cup_green"",""a1"":""/World/Containers/cup_blue"",""c0"":""/World/Containers/cup_green/mesh"",""c1"":""/World/Containers/cup_blue/mesh"",""impulse"":[0.0,0.0,0.0],""impulse_mag"":0.0,""position"":[0.10444087535142899,-0.2496756687760353,0.04470286704599857],""n_contacts"":2},{""t"":1387.6166666657334,""type"":""CONTACT_PERSIST"",""a0"":""/World/Containers/cup_blue"",""a1"":""/World/defaultGroundPlane/geom"",""c0"":""/World/Containers/cup_blue/mesh"",""c1"":""/World/defaultGroundPlane/geom"",""impulse"":[2.902876073751457e-17,-2.10829633773851e-17,0.0011702845092891323],""impulse_mag"":0.0011702845092891323,""position"":[0.13245611102917257,-0.2831109723983667,3.501240323308034e-11],""n_contacts"":39},{""t"":1387.6166666657334,""type"":""CONTACT_PERSIST"",""a0"":""/World/Containers/cup_green"",""a1"":""/World/defaultGroundPlane/geom"",""c0"":""/World/Containers/cup_green/mesh"",""c1"":""/World/defaultGroundPlane/geom"",""impulse"":[1.7085280065720632e-10,-1.4607688322842982e-11,0.01025797426700592],""impulse_mag"":0.010257974267005922,""position"":[0.12342171313670966,-0.20025340639627898,8.732986036473169e-06],""n_contacts"":13},{""t"":1387.6166666657334,""type"":""CONTACT_PERSIST"",""a0"":""/World/Containers/cup_blue"",""a1"":""/World/defaultGroundPlane/collisionPlane"",""c0"":""/World/Containers/cup_blue/mesh"",""c1"":""/World/defaultGroundPlane/collisionPlane"",""impulse"":[3.9399667556283546e-11,0.0,0.00033050839556381106],""impulse_mag"":0.0003305083955638134,""position"":[0.12323793489485979,-0.2936427490785718,1.6530975699424744e-08],""n_contacts"":32},{""t"":1387.6166666657334,""type"":""CONTACT_PERSIST"",""a0"":""/World/Containers/cup_green"",""a1"":""/World/defaultGroundPlane/collisionPlane"",""c0"":""/World/Containers/cup_green/mesh"",""c1"":""/World/defaultGroundPlane/collisionPlane"",""impulse"":[2.0661523880693977e-10,0.0,0.001733214478008449],""impulse_mag"":0.0017332144780084614,""position"":[0.11229189932346344,-0.21101187368233998,1.4404455820719401e-08],""n_contacts"":15},{""t"":1387.6166666657334,""type"":""CONTACT_PERSIST"",""a0"":""/World/Containers/cup_green"",""a1"":""/World/Containers/cup_blue"",""c0"":""/World/Containers/cup_green/mesh"",""c1"":""/World/Containers/cup_blue/mesh"",""impulse"":[0.0,0.0,0.0],""impulse_mag"":0.0,""position"":[0.10444086045026779,-0.2496756613254547,0.04470287077128887],""n_contacts"":2}]",,120.0,1387.6166666657334,,
