inbarajaldrin/isaac-sim-mcp/.planning/saved_runs/2026-04-23-green2x2-postfix/20260423T200655_grasp_home.csv
t_wall,t_sim_ns,ref_pos_shoulder_pan,ref_vel_shoulder_pan,fb_pos_shoulder_pan,err_pos_shoulder_pan,js_pos_shoulder_pan,js_vel_shoulder_pan,isaac_pos_shoulder_pan,isaac_vel_shoulder_pan,isaac_lag_shoulder_pan,ref_pos_shoulder_lift,ref_vel_shoulder_lift,fb_pos_shoulder_lift,err_pos_shoulder_lift,js_pos_shoulder_lift,js_vel_shoulder_lift,isaac_pos_shoulder_lift,isaac_vel_shoulder_lift,isaac_lag_shoulder_lift,ref_pos_elbow_flex,ref_vel_elbow_flex,fb_pos_elbow_flex,err_pos_elbow_flex,js_pos_elbow_flex,js_vel_elbow_flex,isaac_pos_elbow_flex,isaac_vel_elbow_flex,isaac_lag_elbow_flex,ref_pos_wrist_flex,ref_vel_wrist_flex,fb_pos_wrist_flex,err_pos_wrist_flex,js_pos_wrist_flex,js_vel_wrist_flex,isaac_pos_wrist_flex,isaac_vel_wrist_flex,isaac_lag_wrist_flex,ref_pos_wrist_roll,ref_vel_wrist_roll,fb_pos_wrist_roll,err_pos_wrist_roll,js_pos_wrist_roll,js_vel_wrist_roll,isaac_pos_wrist_roll,isaac_vel_wrist_roll,isaac_lag_wrist_roll,tcp_x,tcp_y,tcp_z,cup_red_x,cup_red_y,cup_red_z,cup_green_x,cup_green_y,cup_green_z,cup_blue_x,cup_blue_y,cup_blue_z,attached_lego_xyz,physics_rate_hz,sim_time_s,render_fps,app_dt_ms
1777000015.4911761,422116688681,-0.307840076588961,0.0101498634878581,-0.3079744476138532,0.0001343710248921659,-0.3079744476138532,0.003452392827853133,-0.30836716294288635,0.33837154507637024,0.0005270863539253434,-0.47896745497613935,0.015653689960761805,-0.4791746895232726,0.0002072345471332282,-0.4791746895232726,0.005324474266536913,-0.47989341616630554,-0.06853924691677094,0.0009259611901661913,0.9456350535291704,-0.03086483059947024,0.946043663844544,-0.00040861031537353654,0.946043663844544,-0.01049841901045995,0.9470967650413513,-0.05804990977048874,-0.0014617115121808855,1.1161703179067743,0.014999265604752914,1.1159717470891124,0.00019857081766194717,1.1159717470891124,0.005101877188678675,1.1055426597595215,0.0367993488907814,0.01062765814725286,-0.29202777381895767,-0.040001199517662386,-0.2914982098319609,-0.0005295639869967728,-0.2914982098319609,-0.013606079971961739,-0.2878725528717041,0.01847993955016136,-0.004155220947253568,0.15072188398298347,0.03780922570835067,0.014347130618080711,-0.0492180772125721,-0.2799921929836273,7.450580596923828e-09,0.03877135366201401,-0.27999165654182434,1.1175870895385742e-08,0.1267659068107605,-0.2799922525882721,0.0,,120.0,422.0833333332781,,
1777000015.5696301,422116688681,-0.30672988263096335,0.02538042803502251,-0.30719375068045557,0.00046386804949222205,-0.30672988263096335,0.02538042803502251,-0.30836722254753113,0.339628666639328,0.0016373399165677816,-0.4772552514538365,0.03914312266434608,-0.47797065483223017,0.0007154033783936531,-0.4772552514538365,0.03914312266434608,-0.47989344596862793,-0.06876503676176071,0.0026381945147914143,0.9422590526118045,-0.07717962047272917,0.9436696340235843,-0.0014105814117797433,0.9422590526118045,-0.07717962047272917,0.9470966458320618,-0.057808082550764084,-0.00483759322025723,1.1178109403711765,0.03750668979094056,1.117125445429475,0.0006854949417014478,1.1178109403711765,0.03750668979094056,1.1055426597595215,0.036678969860076904,0.01226828061165497,-0.2964031124695996,-0.10002573599999959,-0.2945749816361359,-0.0018281308334637258,-0.2964031124695996,-0.10002573599999959,-0.2878725528717041,0.018644623458385468,-0.008530559597895504,0.15072190186406445,0.03780919081851697,0.014347124167358616,-0.0492180772125721,-0.2799921929836273,7.450580596923828e-09,0.03877135366201401,-0.27999165654182434,1.1175870895385742e-08,0.1267659068107605,-0.2799922525882721,0.0,,120.0,422.09999999994477,,
1777000015.660403,422133355349,-0.3038884323677293,0.04567427612340728,-0.3047514864381543,0.0008630540704250289,-0.3038884323677293,0.04567427612340728,-0.30836719274520874,0.3405047357082367,0.004478760377479463,-0.4728730071494884,0.07044143583536223,-0.47420405764627205,0.00133105049678367,-0.4728730071494884,0.07044143583536223,-0.47989341616630554,-0.06872603297233582,0.007020409016817164,0.9336184555105298,-0.13889140449900886,0.9362429260478634,-0.002624470537333612,0.9336184555105298,-0.13889140449900886,0.9470966458320618,-0.05793171003460884,-0.013478190321531969,1.122009978836266,0.06749653329809038,1.1207345747631918,0.0012754040730742489,1.122009978836266,0.06749653329809038,1.1055426597595215,0.03675401955842972,0.01646731907674459,-0.30760143243075944,-0.18000496600003096,-0.3042000863824216,-0.003401346048337861,-0.30760143243075944,-0.18000496600003096,-0.2878725528717041,0.01861392892897129,-0.019728879559055335,0.15072191360509346,0.037809213442735225,0.014347197685551996,-0.0492180772125721,-0.2799921929836273,7.450580596923828e-09,0.03877135366201401,-0.27999165654182434,1.1175870895385742e-08,0.1267659068107605,-0.2799922525882721,0.0,,120.0,422.1166666666114,,
1777000015.7622218,422150022016,-0.29500806124526946,0.08119564370320642,-0.2965808301555475,0.0015727689102780218,-0.2965808301555475,0.07612218161984295,-0.3083321154117584,0.349945604801178,0.013324054166488963,-0.4591771996685541,0.12522448545388837,-0.4616028122820502,0.0024256126134961087,-0.4616028122820502,0.11739990706663828,-0.4798165559768677,-0.06530288606882095,0.020639356308313594,0.9066140380931921,-0.24690871865537453,0.9113966882289211,-0.004782650135728983,0.9113966882289211,-0.23148077246248963,0.9469876885414124,-0.06031973659992218,-0.04037365044822028,1.1351332139707926,0.11998930106889825,1.13280900747793,0.0023242064928625794,1.13280900747793,0.11249184010156728,1.1055951118469238,0.037790752947330475,0.02953810212386876,-0.34259948905342436,-0.31999673174147397,-0.3364011157402797,-0.006198373313144656,-0.3364011157402797,-0.3000019240000055,-0.2880212962627411,0.011146201752126217,-0.054578192790683266,0.150730407608134,0.03780756868715405,0.014353105823505352,-0.0492180772125721,-0.2799921929836273,7.450580596923828e-09,0.03877135366201401,-0.27999165654182434,1.1175870895385742e-08,0.1267659068107605,-0.2799922525882721,0.0,,120.0,422.1333333332781,,
1777000015.838717,422166688684,-0.28967849989778904,0.09642279514161264,-0.29155665066276726,0.0018781507649782148,-0.29155665066276726,0.09134682216168699,-0.30682942271232605,0.6353349089622498,0.017150922814537006,-0.4509576506017019,0.14870865426930494,-0.45385424027600635,0.0028965896743044506,-0.45385424027600635,0.1408802034362487,-0.4767126142978668,0.03616410121321678,0.025754963696164923,0.8904073168544081,-0.29321312956891527,0.8961186060033356,-0.00571128914892749,0.8961186060033356,-0.2777775479633198,0.9423403739929199,-0.14429983496665955,-0.05193305713851182,1.1430091333172232,0.14249168143112032,1.1402336396169024,0.002775493700320819,1.1402336396169024,0.13499050991097142,1.1077560186386108,0.039274170994758606,0.03525311467861236,-0.3636035988187609,-0.3800078169645695,-0.3562016979396012,-0.007401900879159706,-0.3562016979396012,-0.36000311363443943,-0.2942766547203064,-0.16625161468982697,-0.06932694409845452,0.151122310585829,0.03775317727500834,0.014610197719140877,-0.0492180772125721,-0.2799921929836273,7.450580596923828e-09,0.03877135366201401,-0.27999165654182434,1.1175870895385742e-08,0.1267659068107605,-0.2799922525882721,0.0,,120.0,422.1499999999447,,
1777000015.913508,422183355351,-0.2811531660267541,0.11672090835387093,-0.2834368760325738,0.0022837100058196724,-0.2834368760325738,0.11164603871478523,-0.30393296480178833,0.9486405849456787,0.02277979877503422,-0.4378094015253684,0.18001354535412142,-0.44133146745602353,0.003522065930655127,-0.44133146745602353,0.17218679615532156,-0.47145164012908936,-0.066350057721138,0.03364223860372095,0.8644825360878318,-0.35493788345702987,0.8714270947562565,-0.006944558668424694,0.8714270947562565,-0.33950565701258434,0.9332816004753113,-0.2707192301750183,-0.06879906438747951,1.1556077014904584,0.1724878278532038,1.1522328804416344,0.0033748210488240282,1.1522328804416344,0.1649882868281264,1.11197829246521,0.12856434285640717,0.04362940902524848,-0.3972024330826798,-0.4600038560647721,-0.388202199760079,-0.009000233322600748,-0.388202199760079,-0.44000350106471936,-0.30614274740219116,-0.3068908154964447,-0.09105968568048861,0.15194441256546215,0.037724011677931386,0.015219122754221798,-0.0492180772125721,-0.2799921929836273,7.450580596923828e-09,0.03877135366201401,-0.27999165654182434,1.1175870895385742e-08,0.1267659068107605,-0.2799922525882721,0.0,,120.0,422.1666666666114,,
1777000015.986205,422200022019,-0.27369301208853525,0.1319455535871208,-0.27628620951470056,0.002593197426165317,-0.27369301208853525,0.1319455535871208,-0.29922565817832947,1.1793482303619385,0.02553264608979422,-0.42630393281161566,0.20349384895908165,-0.43030330763717756,0.003999374825561897,-0.42630393281161566,0.20349384895908165,-0.4644733965396881,-0.0765276849269867,0.03816946372807245,0.8417968725984158,-0.40123467322402145,0.8496825549393946,-0.00788568234097875,0.8417968725984158,-0.40123467322402145,0.919135570526123,-0.3700219392776489,-0.0773386979277072,1.1666321680269303,0.19498650459547642,1.1627999926477113,0.0038321753792189828,1.1666321680269303,0.19498650459547642,1.118815302848816,0.1902262270450592,0.04781686517811434,-0.4266033315747754,-0.5200050641883271,-0.4163833904143057,-0.010219941160469703,-0.4266033315747754,-0.5200050641883271,-0.32433366775512695,-0.4773982763290405,-0.10226966381964847,0.15331903708110664,0.03766383222270618,0.016288114692896233,-0.0492180772125721,-0.2799921929836273,7.450580596923828e-09,0.03877135366201401,-0.27999165654182434,1.1175870895385742e-08,0.1267659068107605,-0.2799922525882721,0.0,,120.0,422.18333333327803,,
1777000016.0592,422216688686,-0.2623257522325319,0.152244055584408,-0.2653194351523434,0.0029936829198115023,-0.2653194351523434,0.14717004539025527,-0.2943994104862213,1.1896427869796753,0.03207365825368941,-0.40877270574613644,0.23479933965001518,-0.41338973180994537,0.004617026063808927,-0.41338973180994537,0.22697391593552135,-0.45719653367996216,-0.03626558929681778,0.048423827933825714,0.8072300481031549,-0.4629606093726886,0.8163335711504383,-0.009103523047283346,0.8163335711504383,-0.447530996423719,0.9045512080192566,-0.39350083470344543,-0.09732115991610168,1.1834304776773352,0.22498322555630762,1.1790064728319147,0.004424004845420493,1.1790064728319147,0.217484954601826,1.1259498596191406,0.20780977606773376,0.0574806180581946,-0.4714023606467439,-0.6000026355127526,-0.4596040829742178,-0.011798277672526114,-0.4596040829742178,-0.5800056676349435,-0.3431326448917389,-0.5055562257766724,-0.128269715755005,0.15470072982857414,0.037634402374833495,0.017367084634584223,-0.0492180772125721,-0.2799921929836273,7.450580596923828e-09,0.03877135366201401,-0.27999165654182434,1.1175870895385742e-08,0.1267659068107605,-0.2799922525882721,0.0,,120.0,422.1999999999447,,
1777000016.1306813,422233355354,-0.24933381998376022,0.17254380974804795,-0.25273436221613305,0.003400542232372822,-0.25273436221613305,0.1674684054510462,-0.28707626461982727,1.4865665435791016,0.037742444636067046,-0.3887358175991442,0.26610676150225515,-0.39398032496298285,0.005244507363838635,-0.39398032496298285,0.25827918772397707,-0.4460693299770355,-0.08507165312767029,0.057333512377891305,0.7677227396060735,-0.5246903532476573,0.7780634855751272,-0.010340745969053655,0.7780634855751272,-0.5092565009561434,0.882436990737915,-0.5532493591308594,-0.11471425113184153,1.2026296957506932,0.2549817969435382,1.1976044423367405,0.005025253413952768,1.1976044423367405,0.24748146581168454,1.1367557048797607,0.2989731729030609,0.06587399087093249,-0.5226043176607192,-0.6800051416972435,-0.509202583886852,-0.01340173377386722,-0.509202583886852,-0.6600026795794051,-0.37167248129844666,-0.7739295363426208,-0.1509318363622726,0.156815837652805,0.037459449336462426,0.019006726105723196,-0.0492180772125721,-0.2799921929836273,7.450580596923828e-09,0.03877135366201401,-0.27999165654182434,1.1175870895385742e-08,0.1267659068107605,-0.2799922525882721,0.0,,120.0,422.21666666661133,,
1777000016.204464,422250022022,-0.23471954253203803,0.19284132945313512,-0.23852479486934192,0.0038052523373038882,-0.23852479486934192,0.18776767724778237,-0.28001463413238525,1.4285013675689697,0.045295091600347226,-0.3661968574935778,0.2974107372469764,-0.37206553152863914,0.005868674035061361,-0.37206553152863914,0.2895858656429041,-0.4353977143764496,-0.019353538751602173,0.06920085688287181,0.7232820238840739,-0.5864133023332851,0.7348534572259712,-0.011571433341897253,0.7348534572259712,-0.5709847779963572,0.861060619354248,-0.5490224957466125,-0.13777859547017413,1.224226383172361,0.28497706629260283,1.2186030572459987,0.005623325926362277,1.2186030572459987,0.2774793243667917,1.1472461223602295,0.3027920126914978,0.0769802608121315,-0.5802000310269235,-0.75999884175127,-0.5652033113033899,-0.014996719723533669,-0.5652033113033899,-0.7400032847280263,-0.3992283344268799,-0.7591270208358765,-0.18097169660004364,0.1588277316582891,0.03738343130651506,0.020570020329640934,-0.0492180772125721,-0.2799921929836273,7.450580596923828e-09,0.03877135366201401,-0.27999165654182434,1.1175870895385742e-08,0.1267659068107605,-0.2799922525882721,0.0,,120.0,422.233333333278,,
1777000016.2819822,422266688689,-0.22268672786970306,0.20807249779618087,-0.22680198545586586,0.004115257586162796,-0.22268672786970306,0.20807249779618087,-0.26996538043022156,1.772697925567627,0.0472786525605185,-0.3476391743971707,0.32090110115850085,-0.3539859559513774,0.006346781554206704,-0.3476391743971707,0.32090110115850085,-0.4200282692909241,-0.06914934515953064,0.07238909489375339,0.6866913065180708,-0.6327299282960189,0.6992054382028985,-0.012514131684827734,0.6866913065180708,-0.6327299282960189,0.830668568611145,-0.755972683429718,-0.14397726209307427,1.2420082364267389,0.30748538275629317,1.235926790933344,0.006081445493394844,1.2420082364267389,0.30748538275629317,1.1621426343917847,0.4160412847995758,0.07986560203495419,-0.627622050115443,-0.8200257578281127,-0.6114035817618949,-0.01621846835354812,-0.627622050115443,-0.8200257578281127,-0.4384767711162567,-1.0805033445358276,-0.18914527899918632,0.16171586662922247,0.03703947837143528,0.022788495073069653,-0.0492180772125721,-0.2799921929836273,7.450580596923828e-09,0.03877135366201401,-0.27999165654182434,1.1175870895385742e-08,0.1267659068107605,-0.2799922525882721,0.0,,120.0,422.24999999994463,,
1777000016.3556693,422283355357,-0.205223422259741,0.22837776960943204,-0.20975095748196512,0.004527535222224127,-0.20975095748196512,0.22329079945785596,-0.25800278782844543,2.0051116943359375,0.05277936556870444,-0.3207062829316505,0.352217032640121,-0.3276889022289343,0.006982619297283832,-0.3276889022289343,0.3443716213508241,-0.40194496512413025,-0.013677597045898438,0.08123868219247976,0.6335869499912106,-0.694476450851894,0.6473547812368458,-0.013767831245635187,0.6473547812368458,-0.6790074278270197,0.7944753170013428,-0.8935385942459106,-0.1608883670101322,1.2678151607754304,0.3374921080159864,1.26112445962322,0.0066907011522103765,1.26112445962322,0.3299746850951739,1.1798765659332275,0.4968274235725403,0.0879385948422029,-0.6964459483656614,-0.9000500093891145,-0.6786026699842256,-0.017843278381435845,-0.6786026699842256,-0.8800019655689099,-0.4851226210594177,-1.2704755067825317,-0.2113233273062437,0.16513573025554099,0.03669229249657168,0.02541162954433776,-0.0492180772125721,-0.2799921929836273,7.450580596923828e-09,0.03877135366201401,-0.27999165654182434,1.1175870895385742e-08,0.1267659068107605,-0.2799922525882721,0.0,,120.0,422.2666666666113,,
1777000016.4309156,422300022024,-0.18614381146670983,0.24867420157101056,-0.19107568595771246,0.00493187449100263,-0.19107568595771246,0.2435899096057855,-0.2443453073501587,2.268362045288086,0.05820149588344886,-0.29128063476570776,0.3835193308056297,-0.29888684880985567,0.007606214044147908,-0.29888684880985567,0.37567804996586596,-0.3811664283275604,0.022178620100021362,0.08988579356185267,0.5755675534017782,-0.756196092206356,0.5905649443405543,-0.014997390938776056,0.5905649443405543,-0.7407352133075996,0.7532201409339905,-0.9950972199440002,-0.17765258753221225,1.2960106286516462,0.36748576991935106,1.2887224030012898,0.007288225650356361,1.2887224030012898,0.3599723047688556,1.2001632452011108,0.5570303797721863,0.09584738345053534,-0.7716397989001363,-0.980039422583,-0.7522029960557778,-0.01943680284435856,-0.7522029960557778,-0.96000193365023,-0.5383594036102295,-1.4492512941360474,-0.23328039528990685,0.16900849016547867,0.036123722540464365,0.028357558931272356,-0.0492180772125721,-0.2799921929836273,7.450580596923828e-09,0.03877135366201401,-0.27999165654182434,1.1175870895385742e-08,0.1267659068107605,-0.2799922525882721,0.0,,120.0,422.28333333327794,,
1777000016.5032213,422316688692,-0.16544736911864086,0.268964377829291,-0.17077710859064962,0.005329739472008765,-0.17077710859064962,0.26388845232909514,-0.23238185048103333,1.2330526113510132,0.06693448136239247,-0.2593614180989066,0.41481198107391604,-0.26758124187941856,0.008219823780511948,-0.26758124187941856,0.4069836034667609,-0.3628332316875458,0.24202421307563782,0.10347181358863916,0.5126315160995103,-0.8178967105245046,0.5288387789991172,-0.016207262899606945,0.5288387789991172,-0.8024612733004894,0.716994047164917,-1.0681548118591309,-0.2043625310654067,1.3265954179173742,0.3974701872693702,1.3187192353420716,0.007876182575302648,1.3187192353420716,0.3899690859138129,1.2181196212768555,0.5700562596321106,0.10847579664051876,-0.853205676181265,-1.0600041816880796,-0.8322008644168499,-0.021004811764415043,-0.8322008644168499,-1.0399996654782724,-0.5851613283157349,-1.391149878501892,-0.2680443478655301,0.17234299910850698,0.03564399452304903,0.030894308446501983,-0.0492180772125721,-0.2799921929836273,7.450580596923828e-09,0.03877135366201401,-0.27999165654182434,1.1175870895385742e-08,0.1267659068107605,-0.2799922525882721,0.0,,120.0,422.2999999999446,,
1777000016.5796697,422333355359,-0.14889334815078362,0.278525374896861,-0.15448674833153342,0.005593400180749802,-0.15448674833153342,0.2791130720762924,-0.2165403664112091,2.1776864528656006,0.06764701826042549,-0.23383087651628057,0.4295574881430943,-0.24245733266129693,0.008626456145016365,-0.24245733266129693,0.43046386776570045,-0.33819136023521423,0.14678922295570374,0.10436048371893367,0.4622922131597093,-0.8469708508028828,0.47930124478465536,-0.017009031624946047,0.47930124478465536,-0.8487579855666783,0.6688065528869629,-1.366302728652954,-0.20651433972725358,1.351058619577227,0.41159923783581304,1.3427928044709379,0.008265815106289098,1.3427928044709379,0.41246772499329754,1.241892695426941,0.7425473928451538,0.10916592415028603,-0.9184460310241567,-1.09768462455758,-0.8964021171449266,-0.022043913879230104,-0.8964021171449266,-1.100000773159827,-0.6474545001983643,-1.763654112815857,-0.2709915308257924,0.17680072522510554,0.0346057029258969,0.03423404815760314,-0.0492180772125721,-0.2799921929836273,7.450580596923828e-09,0.03877135366201401,-0.27999165654182434,1.1175870895385742e-08,0.1267659068107605,-0.2799922525882721,0.0,,120.0,422.31666666661124,,
1777000016.6518798,422350022027,-0.1275849920051598,0.25638884173089127,-0.13275213832058302,0.005167146315423227,-0.13275213832058302,0.26052638380101956,-0.19846370816230774,2.1528422832489014,0.07087871615714794,-0.2009679319972683,0.39541728247425156,-0.20893699547287817,0.007969063475609856,-0.20893699547287817,0.4017984324121546,-0.3108029365539551,0.2563003599643707,0.10983500455668677,0.39749540051542903,-0.7796556256233077,0.4132082321115367,-0.015712831596107646,0.4132082321115367,-0.7922375224384914,0.6141715049743652,-1.5240575075149536,-0.2166761044589362,1.3825476828351817,0.37888631111301774,1.3749117771802584,0.007635905654923336,1.3749117771802584,0.3850006881718185,1.268815279006958,0.8305920958518982,0.1137324038282237,-1.002423496001305,-1.010443266005267,-0.982059473278492,-0.020364022722813013,-0.982059473278492,-1.026749558799993,-0.7178850173950195,-1.9872422218322754,-0.28453847860628545,0.18182743877572424,0.033436227946983754,0.038002070892782014,-0.0492180772125721,-0.2799921929836273,7.450580596923828e-09,0.03877135366201401,-0.27999165654182434,1.1175870895385742e-08,0.1267659068107605,-0.2799922525882721,0.0,,120.0,422.3333333332779,,
1777000016.7294161,422366688694,-0.10788683979519388,0.23609078791908134,-0.1126595410547698,0.0047727012595759205,-0.1126595410547698,0.24116571236543982,-0.17869354784488678,2.4637584686279297,0.0708067080496929,-0.17058833449199046,0.3641124830001505,-0.17794906263203872,0.007360728140048262,-0.17794906263203872,0.37193931672580616,-0.2805689871311188,0.34414881467819214,0.10998065263912832,0.33759507458391347,-0.7179310523667549,0.3521084339069121,-0.014513359322998631,0.3521084339069121,-0.7333634454752215,0.5544040203094482,-1.657463788986206,-0.21680894572553477,1.411657218867216,0.3488902524717702,1.404604216240123,0.0070530026270929636,1.404604216240123,0.35638987448991477,1.2983843088150024,0.9001647233963013,0.11327291005221363,-1.0800550540634077,-0.9304474610057952,-1.0612455621376422,-0.01880949192576553,-1.0612455621376422,-0.9504480320044469,-0.7950379848480225,-2.1679656505584717,-0.2850170692153853,0.18723613502411277,0.03183304416112856,0.042017594350333906,-0.0492180772125721,-0.2799921929836273,7.450580596923828e-09,0.03877135366201401,-0.27999165654182434,1.1175870895385742e-08,0.1267659068107605,-0.2799922525882721,0.0,,120.0,422.34999999994454,,
1777000016.802691,422383355362,-0.08981104991878835,0.2157910916548191,-0.09417381561223583,0.004362765693447471,-0.09417381561223583,0.22086150107007635,-0.16173887252807617,1.7477078437805176,0.07192782260928782,-0.14271083536507462,0.3328051504435681,-0.14943933783393637,0.006728502468861752,-0.14943933783393637,0.3406250208344837,-0.25474730134010315,0.4792921543121338,0.11203646597502853,0.28262820796997373,-0.6562014845586188,0.2958949897581724,-0.013266781788198678,0.2958949897581724,-0.6716201478597601,0.50338214635849,-1.4791796207427979,-0.22075393838851626,1.4383692602356684,0.31889176664701535,1.4319220522032075,0.006447208032460905,1.4319220522032075,0.3263847164423698,1.3238328695297241,0.7883687615394592,0.11453639070594424,-1.1512927882605564,-0.8504451830060422,-1.1340988761295057,-0.017193912131050704,-1.1340988761295057,-0.8704279600058217,-0.8609621524810791,-1.9431495666503906,-0.29033063577947726,0.1917371083097651,0.030443382350079436,0.04538485931918956,-0.0492180772125721,-0.2799921929836273,7.450580596923828e-09,0.03877135366201401,-0.27999165654182434,1.1175870895385742e-08,0.1267659068107605,-0.2799922525882721,0.0,,120.0,422.3666666666112,,
1777000016.8791754,422400022029,-0.07732035790248945,0.20056680777728508,-0.08138345916568863,0.004063101263199184,-0.08138345916568863,0.2056428425854884,-0.1409093588590622,2.976750612258911,0.06358900095657274,-0.12344698807763371,0.3093254041416985,-0.1297133312190338,0.006266343141400094,-0.1297133312190338,0.31715395032980476,-0.22190484404563904,0.415815144777298,0.09845785596800533,0.24464512636357086,-0.6099057936421438,0.2570006553169537,-0.01235552895338285,0.2570006553169537,-0.6253415632620696,0.43967902660369873,-1.7569653987884521,-0.19503390024012787,1.45682775550151,0.29639362390899815,1.45082338558081,0.00600436992069997,1.45082338558081,0.3038948867977296,1.355459213256836,0.9371055364608765,0.10136854224467395,-1.2005193285046998,-0.7904453990062718,-1.1845064112389516,-0.01601291726574816,-1.1845064112389516,-0.8104503460051429,-0.9433533549308777,-2.287278175354004,-0.2571659735738221,0.19728514113357992,0.028109679614936305,0.04942517447906895,-0.0492180772125721,-0.2799921929836273,7.450580596923828e-09,0.03877135366201401,-0.27999165654182434,1.1175870895385742e-08,0.1267659068107605,-0.2799922525882721,0.0,,120.0,422.38333333327785,,
1777000016.95268,422416688697,-0.062087099871227173,0.18026786105761547,-0.06574283957814268,0.0036557397069155104,-0.06574283957814268,0.18534214049961764,-0.12005677074193954,2.2760729789733887,0.05796967087071237,-0.09995340133147912,0.27801922757490966,-0.10559148858435186,0.005638087252872737,-0.10559148858435186,0.285845066538593,-0.19067122042179108,0.5545542240142822,0.09071781909031196,0.1983221458451324,-0.5481785051323337,0.20943892459833102,-0.011116778753198608,0.20943892459833102,-0.5636089368400233,0.3772294521331787,-1.722527265548706,-0.1789073062880463,1.479339160064723,0.26639624574630827,1.4739367809183004,0.005402379146422609,1.4739367809183004,0.27389491458994936,1.386472463607788,0.9011602997779846,0.0928666964569349,-1.2605544801637787,-0.7104460750052004,-1.2461469983709557,-0.01440748179282303,-1.2461469983709557,-0.7304441040043833,-1.0238738059997559,-2.2431161403656006,-0.23668067416402283,0.20263523786842919,0.02583533988242308,0.053423988633761146,-0.0492180772125721,-0.2799921929836273,7.450580596923828e-09,0.03877135366201401,-0.27999165654182434,1.1175870895385742e-08,0.1267659068107605,-0.2799922525882721,0.0,,120.0,422.3999999999445,,
1777000017.0276752,422433355364,-0.05171389857803708,0.16502221286547025,-0.05507957803163724,0.003365679453600161,-0.05171389857803708,0.16502221286547025,-0.10091305524110794,2.350412607192993,0.04919915666307086,-0.08395526725426818,0.25450653202623286,-0.089146007281164,0.005190740026895818,-0.08395526725426818,0.25450653202623286,-0.16100724041461945,0.5814666748046875,0.07705197316035127,0.16677816487716432,-0.5018178472385108,0.17701289624194966,-0.010234731364785338,0.16677816487716432,-0.5018178472385108,0.31918278336524963,-1.6143492460250854,-0.1524046184880853,1.4946684698189074,0.243866531250699,1.4896947359233357,0.004973733895571764,1.4946684698189074,0.243866531250699,1.4154942035675049,0.8281099200248718,0.07917426625140256,-1.301435866899878,-0.6503620930049132,-1.2881715293551415,-0.013264337544736549,-1.301435866899878,-0.6503620930049132,-1.0989325046539307,-2.0807788372039795,-0.20250336224594734,0.20743176337989547,0.023405698002812673,0.05696291447211657,-0.0492180772125721,-0.2799921929836273,7.450580596923828e-09,0.03877135366201401,-0.27999165654182434,1.1175870895385742e-08,0.1267659068107605,-0.2799922525882721,0.0,,120.0,422.41666666661115,,
1777000017.1047592,422450022032,-0.03649182210178933,0.13966911784698183,-0.039325249281656066,0.002833427179866739,-0.039325249281656066,0.14472513366495848,-0.08653579652309418,1.4183886051177979,0.05004397442130485,-0.0604789253307347,0.21540556387628265,-0.06484879598496371,0.004369870654229009,-0.06484879598496371,0.22320323565245692,-0.13900601863861084,0.5713503360748291,0.07852709330787613,0.1204891864713429,-0.4247213440339236,0.12910538609088718,-0.008616199619544282,0.12910538609088718,-0.44009623768808226,0.27614259719848633,-1.2511100769042969,-0.15565341072714345,1.5171633505033777,0.20640023364589166,1.5129761683906948,0.0041871821126828745,1.5129761683906948,0.21387191287057014,1.4372066259384155,0.6113337874412537,0.07995672456496217,-1.3614269514034143,-0.550444078005178,-1.350260250878211,-0.011166700525203188,-1.350260250878211,-0.5703701290049116,-1.1546635627746582,-1.6280344724655151,-0.2067633886287561,0.21086864490112667,0.021587777482139494,0.05955047651086341,-0.0492180772125721,-0.2799921929836273,7.450580596923828e-09,0.03877135366201401,-0.27999165654182434,1.1175870895385742e-08,0.1267659068107605,-0.2799922525882721,0.0,,120.0,422.4333333332778,,
1777000017.1813042,422466688700,-0.02613055451662225,0.11937063115642764,-0.028568423236021316,0.0024378687193990674,-0.028568423236021316,0.12444481595387422,-0.07125135511159897,2.132343053817749,0.04512080059497672,-0.044499196088790535,0.18410009679225364,-0.04825901425227194,0.003759818163481407,-0.04825901425227194,0.19192578978978442,-0.11424314975738525,0.5084729194641113,0.06974395366859472,0.08898149484628018,-0.3629954544316663,0.09639483642846015,-0.007413341582179975,0.09639483642846015,-0.3784255983336935,0.22885733842849731,-1.3523318767547607,-0.13987584358221714,1.532475024862121,0.17640353530503,1.5288723911443851,0.003602633717735948,1.5288723911443851,0.18390206428480763,1.4608830213546753,0.6579649448394775,0.07159200350744577,-1.4022613067054273,-0.47044656700548787,-1.3926535249693281,-0.009607781736099108,-1.3926535249693281,-0.49044422300499196,-1.215929388999939,-1.706400752067566,-0.1863319177054883,0.21455963522203908,0.019280676807642696,0.06221363833232278,-0.0492180772125721,-0.2799921929836273,7.450580596923828e-09,0.03877135366201401,-0.27999165654182434,1.1175870895385742e-08,0.1267659068107605,-0.2799922525882721,0.0,,120.0,422.44999999994445,,
1777000017.251692,422483355367,-0.01942498171641348,0.1041461338842884,-0.021561572301517465,0.0021365905851039833,-0.021561572301517465,0.10922769715754109,-0.05635133013129234,1.6432394981384277,0.036926348414878865,-0.03415748481855184,0.16062002138123135,-0.037452654909489895,0.0032951700909380557,-0.037452654909489895,0.16845709387886965,-0.0919688269495964,0.5364706516265869,0.057811342131044566,0.06859044537074643,-0.31669911460121236,0.07508762698787233,-0.006497181617125897,0.07508762698787233,-0.3321516957907974,0.18454742431640625,-1.2586854696273804,-0.11595697894565982,1.5423843864592126,0.15390507721672886,1.539226975552857,0.0031574109063556843,1.539226975552857,0.16141450996070847,1.4829990863800049,0.595201849937439,0.059385300079207726,-1.4286883572546503,-0.41044594200521645,-1.4202679300849124,-0.008420427169737899,-1.4202679300849124,-0.43047267700499625,-1.2731178998947144,-1.6034634113311768,-0.1555704573599359,0.21798698421106583,0.01699039442488869,0.06482241479246435,-0.0492180772125721,-0.2799921929836273,7.450580596923828e-09,0.03877135366201401,-0.27999165654182434,1.1175870895385742e-08,0.1267659068107605,-0.2799922525882721,0.0,,120.0,422.4666666666111,,
1777000017.3283918,422500022035,-0.013633005733543124,0.08892197180131398,-0.015462267128702809,0.001829261395159685,-0.013633005733543124,0.08892197180131398,-0.0433538518846035,1.5042475461959839,0.029720846151060375,-0.025224773910225345,0.13714046291777807,-0.028045963650488316,0.0028211897402629707,-0.025224773910225345,0.13714046291777807,-0.07167597860097885,0.5115588903427124,0.046451204690753506,0.05097756242297859,-0.2704037940511454,0.05654018335391886,-0.0055626209309402735,0.05097756242297859,-0.2704037940511454,0.14490258693695068,-1.1508063077926636,-0.0939250245139721,1.550943652921005,0.13140711446428305,1.5482404069552502,0.0027032459657547747,1.550943652921005,0.13140711446428305,1.502880573272705,0.529822587966919,0.04806307964829992,-1.4515148698643463,-0.35044663800484654,-1.4443056448215397,-0.007209225042806633,-1.4515148698643463,-0.35044663800484654,-1.324390172958374,-1.4352537393569946,-0.12712469690597228,0.22093774257936954,0.014967784053394672,0.0670376054968375,-0.0492180772125721,-0.2799921929836273,7.450580596923828e-09,0.03877135366201401,-0.27999165654182434,1.1175870895385742e-08,0.1267659068107605,-0.2799922525882721,0.0,,120.0,422.48333333327776,,
1777000017.4015365,422516688702,-0.006009648397655735,0.06354865277136428,-0.007331901568298651,0.0013222531706429163,-0.007331901568298651,0.06862540058632308,-0.03386286646127701,0.9976930618286133,0.027853218063621274,-0.013467603743472509,0.09800830416062989,-0.015506856902653934,0.0020392531591814245,-0.015506856902653934,0.1058379499878265,-0.057196926325559616,0.451754629611969,0.04372932258208711,0.027795611941296615,-0.1932457914294906,0.03181646603163201,-0.004020854090335396,0.03181646603163201,-0.20868372923942807,0.11663311719894409,-0.8575401902198792,-0.08883750525764747,1.5622092981799451,0.09391093021911122,1.5602552988451837,0.0019539993347614804,1.5602552988451837,0.10141324677497936,1.5171791315078735,0.3610612750053406,0.0450301666720716,-1.4815589623934757,-0.2504489190053183,-1.4763478861110197,-0.005211076282455984,-1.4763478861110197,-0.2704566760052108,-1.3610068559646606,-1.0816296339035034,-0.12055210642881509,0.22297868324504677,0.013427543774688274,0.06860802277274355,-0.0492180772125721,-0.2799921929836273,7.450580596923828e-09,0.03877135366201401,-0.27999165654182434,1.1175870895385742e-08,0.1267659068107605,-0.2799922525882721,0.0,,120.0,422.4999999999444,,
1777000017.476416,422533355370,-0.0026532787574183175,0.04832336560982804,-0.003670759150348672,0.0010174803929303543,-0.003670759150348672,0.05339940574679545,-0.02440587431192398,1.2371363639831543,0.021752595554505663,-0.00829122183401807,0.0745270105377823,-0.009860437285155536,0.0015692154511374665,-0.009860437285155536,0.08235556494420462,-0.041683897376060486,0.38468557596206665,0.033392675542042415,0.01758919088952161,-0.14694704961575167,0.020683258115513435,-0.003094067225991825,0.020683258115513435,-0.16238283543996715,0.08711805939674377,-0.8854499459266663,-0.06952886850722216,1.5671692742192145,0.07141130484801174,1.5656656620101024,0.001503612209112104,1.5656656620101024,0.07891257561159343,1.5319854021072388,0.3742166757583618,0.03518387211197571,-1.4947866094248636,-0.190445181005232,-1.490776660300757,-0.004009949124106571,-1.490776660300757,-0.21045014900511397,-1.3992494344711304,-1.0811759233474731,-0.09553717495373326,0.22506267749847944,0.01179467004774248,0.07012822494828677,-0.0492180772125721,-0.2799921929836273,7.450580596923828e-09,0.03877135366201401,-0.27999165654182434,1.1175870895385742e-08,0.1267659068107605,-0.2799922525882721,0.0,,120.0,422.51666666661106,,
1777000017.5516458,422550022037,0.00040074135935043366,0.028023200689584648,-0.00021053836764820983,0.0006112797269986435,-0.00021053836764820983,0.0330985009236947,-0.01562016922980547,1.032786250114441,0.016020910589155904,-0.003581140353709645,0.04321895519359905,-0.0045238903066701945,0.0009427499529605496,-0.0045238903066701945,0.05104636848024705,-0.028653793036937714,0.37818488478660583,0.02507265268322807,0.008302187801825915,-0.08521605666653005,0.010161034991768006,-0.0018588471899420901,0.010161034991768006,-0.10064959251207327,0.06124389171600342,-0.7668297290802002,-0.052941703914177504,1.5716824441695743,0.041412126452838684,1.5707791071941526,0.0009033369754216647,1.5707791071941526,0.04891230380257951,1.544944167137146,0.300281822681427,0.02673827703242826,-1.5068226794831407,-0.11044105600518207,-1.5044135906958855,-0.002409088787255209,-1.5044135906958855,-0.13044310800514752,-1.4326714277267456,-0.9486661553382874,-0.07415125175639514,0.22688619767831447,0.010203333430464648,0.07155721559203669,-0.0492180772125721,-0.2799921929836273,7.450580596923828e-09,0.03877135366201401,-0.27999165654182434,1.1175870895385742e-08,0.1267659068107605,-0.2799922525882721,0.0,,120.0,422.5333333332777,,
1777000017.6238234,422566688705,0.0018305201410089092,0.00772777865833716,0.0016252473696143348,0.00020527277139457435,0.0016252473696143348,0.012801951783908083,-0.009940545074641705,0.7693319320678711,0.011771065215650614,-0.0013760551535660695,0.011918214599407248,-0.001692638359304783,0.00031658320573871345,-0.001692638359304783,0.019743889595915387,-0.0197365153580904,0.2876449227333069,0.01836046020452433,0.0039543579080159935,-0.02349948642019381,0.0045785741177566995,-0.0006242162097407061,0.0045785741177566995,-0.03892959482908598,0.04381047934293747,-0.5630185604095459,-0.039856121434921475,1.5737953427053815,0.01141995700436457,1.5734919947024,0.000303348002981485,1.5734919947024,0.018918468735654555,1.5537728071212769,0.19384515285491943,0.020022535584104606,-1.5124575204225943,-0.030455623005241298,-1.5116485285485726,-0.000808991874021725,-1.5116485285485726,-0.05045323300518914,-1.4552396535873413,-0.67503422498703,-0.057217866835252984,0.22806122960080125,0.00929249677004756,0.07248512022356471,-0.0492180772125721,-0.2799921929836273,7.450580596923828e-09,0.03877135366201401,-0.27999165654182434,1.1175870895385742e-08,0.1267659068107605,-0.2799922525882721,0.0,,120.0,422.54999999994436,,
1777000017.698309,422583355372,0.0019481972977518863,-2.598160257167441e-18,0.0019481972977518863,0.0,0.0019481972977518863,-2.598160257167441e-18,-0.004619021434336901,0.7239595055580139,0.006567218732088787,-0.0011945668281987576,-4.007028782477514e-18,-0.0011945668281987576,0.0,-0.0011945668281987576,-4.007028782477514e-18,-0.011015507392585278,0.262612521648407,0.00982094056438652,0.0035965121584013633,7.900773867911394e-18,0.0035965121584013633,0.0,0.0035965121584013633,7.900773867911394e-18,0.027337122708559036,-0.5190452933311462,-0.02374061055015767,1.5739692436580102,-3.839509351783209e-18,1.5739692436580102,0.0,1.5739692436580102,-3.839509351783209e-18,1.5620640516281128,0.16573679447174072,0.011905192029897371,-1.5129212929089109,1.0239499964717292e-17,-1.5129212929089109,0.0,-1.5129212929089109,1.0239499964717292e-17,-1.476601243019104,-0.6181109547615051,-0.03632004988980686,0.22916348946087875,0.008277568555253462,0.07328751207174969,-0.0492180772125721,-0.2799921929836273,7.450580596923828e-09,0.03877135366201401,-0.27999165654182434,1.1175870895385742e-08,0.1267659068107605,-0.2799922525882721,0.0,,120.0,422.566666666611,,
1777000017.7778618,422600022040,0.0019481972977518863,-2.598160257167441e-18,0.0019481972977518863,0.0,0.0019481972977518863,-2.598160257167441e-18,-0.00041168933967128396,0.8169583082199097,0.00235988663742317,-0.0011945668281987576,-4.007028782477514e-18,-0.0011945668281987576,0.0,-0.0011945668281987576,-4.007028782477514e-18,-0.004773493390530348,0.21564555168151855,0.00357892656233159,0.0035965121584013633,7.900773867911394e-18,0.0035965121584013633,0.0,0.0035965121584013633,7.900773867911394e-18,0.014973137527704239,-0.4082092046737671,-0.011376625369302876,1.5739692436580102,-3.839509351783209e-18,1.5739692436580102,0.0,1.5739692436580102,-3.839509351783209e-18,1.5682905912399292,0.10377015918493271,0.005678652418080965,-1.5129212929089109,1.0239499964717292e-17,-1.5129212929089109,0.0,-1.5129212929089109,1.0239499964717292e-17,-1.4925823211669922,-0.46152082085609436,-0.020338971741918677,0.22998745734057638,0.007516938639444073,0.07395165359096614,-0.0492180772125721,-0.2799921929836273,7.450580596923828e-09,0.03877135366201401,-0.27999165654182434,1.1175870895385742e-08,0.1267659068107605,-0.2799922525882721,0.0,,120.0,422.58333333327766,,
1777000017.8487794,422616688707,0.0019481972977518863,-2.598160257167441e-18,0.0019481972977518863,0.0,0.0019481972977518863,-2.598160257167441e-18,0.0019786120392382145,0.7763033509254456,-3.041474148632816e-05,-0.0011945668281987576,-4.007028782477514e-18,-0.0011945668281987576,0.0,-0.0011945668281987576,-4.007028782477514e-18,-0.0008667453657835722,0.11657192558050156,-0.0003278214624151854,0.0035965121584013633,7.900773867911394e-18,0.0035965121584013633,0.0,0.0035965121584013633,7.900773867911394e-18,0.007435832172632217,-0.2818529009819031,-0.003839320014230854,1.5739692436580102,-3.839509351783209e-18,1.5739692436580102,0.0,1.5739692436580102,-3.839509351783209e-18,1.5721303224563599,0.040789391845464706,0.001838921201650301,-1.5129212929089109,1.0239499964717292e-17,-1.5129212929089109,0.0,-1.5129212929089109,1.0239499964717292e-17,-1.5023512840270996,-0.28403353691101074,-0.010570008881811255,0.2304715895075034,0.0071234803276225955,0.07433170106260942,-0.0492180772125721,-0.2799921929836273,7.450580596923828e-09,0.03877135366201401,-0.27999165654182434,1.1175870895385742e-08,0.1267659068107605,-0.2799922525882721,0.0,,120.0,422.5999999999443,,
1777000017.921676,422633355375,0.0019481972977518863,-2.598160257167441e-18,0.0019481972977518863,0.0,0.0019481972977518863,-2.598160257167441e-18,0.0028771227225661278,-0.00505022332072258,-0.0009289254248142414,-0.0011945668281987576,-4.007028782477514e-18,-0.0011945668281987576,0.0,-0.0011945668281987576,-4.007028782477514e-18,0.0006221262156032026,0.07595578581094742,-0.0018166930438019602,0.0035965121584013633,7.900773867911394e-18,0.0035965121584013633,0.0,0.0035965121584013633,7.900773867911394e-18,0.004753091372549534,-0.15474262833595276,-0.0011565792141481706,1.5739692436580102,-3.839509351783209e-18,1.5739692436580102,0.0,1.5739692436580102,-3.839509351783209e-18,1.5735572576522827,-0.028569471091032028,0.00041198600572744937,-1.5129212929089109,1.0239499964717292e-17,-1.5129212929089109,0.0,-1.5129212929089109,1.0239499964717292e-17,-1.5058667659759521,-0.13849274814128876,-0.007054526932958716,0.23063010708883516,0.006973760715432756,0.07445302031711534,-0.0492180772125721,-0.2799921929836273,7.450580596923828e-09,0.03877135366201401,-0.27999165654182434,1.1175870895385742e-08,0.1267659068107605,-0.2799922525882721,0.0,,120.0,422.61666666661097,,
1777000017.9973516,422650022042,0.0019481972977518863,-2.598160257167441e-18,0.0019481972977518863,0.0,0.0019481972977518863,-2.598160257167441e-18,0.002962457947432995,-0.042653393000364304,-0.0010142606496811085,-0.0011945668281987576,-4.007028782477514e-18,-0.0011945668281987576,0.0,-0.0011945668281987576,-4.007028782477514e-18,0.0010155938798561692,0.04554619640111923,-0.002210160708054927,0.0035965121584013633,7.900773867911394e-18,0.0035965121584013633,0.0,0.0035965121584013633,7.900773867911394e-18,0.004280337132513523,-0.10420217365026474,-0.0006838249741121598,1.5739692436580102,-3.839509351783209e-18,1.5739692436580102,0.0,1.5739692436580102,-3.839509351783209e-18,1.5738534927368164,-0.056965071707963943,0.00011575092119375796,-1.5129212929089109,1.0239499964717292e-17,-1.5129212929089109,0.0,-1.5129212929089109,1.0239499964717292e-17,-1.5065250396728516,-0.06665932387113571,-0.006396253236059302,0.23064316898078716,0.006987651737845586,0.07445355975277355,-0.0492180772125721,-0.2799921929836273,7.450580596923828e-09,0.03877135366201401,-0.27999165654182434,1.1175870895385742e-08,0.1267659068107605,-0.2799922525882721,0.0,,120.0,422.6333333332776,,
1777000018.0714135,422666688710,0.0019481972977518863,-2.598160257167441e-18,0.0019481972977518863,0.0,0.0019481972977518863,-2.598160257167441e-18,0.002981186378747225,0.0652686282992363,-0.0010329890809953385,-0.0011945668281987576,-4.007028782477514e-18,-0.0011945668281987576,0.0,-0.0011945668281987576,-4.007028782477514e-18,0.0011191306402906775,0.006381459534168243,-0.002313697468489435,0.0035965121584013633,7.900773867911394e-18,0.0035965121584013633,0.0,0.0035965121584013633,7.900773867911394e-18,0.004195523913949728,-0.09572934359312057,-0.0005990117555483647,1.5739692436580102,-3.839509351783209e-18,1.5739692436580102,0.0,1.5739692436580102,-3.839509351783209e-18,1.5739147663116455,-0.05947676673531532,5.44773463646564e-05,-1.5129212929089109,1.0239499964717292e-17,-1.5129212929089109,0.0,-1.5129212929089109,1.0239499964717292e-17,-1.506650686264038,-0.05084799602627754,-0.006270606644872778,0.2306439442109752,0.006976454205656576,0.07444765113850478,-0.0492180772125721,-0.2799921929836273,7.450580596923828e-09,0.03877135366201401,-0.27999165654182434,1.1175870895385742e-08,0.1267659068107605,-0.2799922525882721,0.0,,120.0,422.64999999994427,,
1777000018.1458707,422683355377,0.0019481972977518863,-2.598160257167441e-18,0.0019481972977518863,0.0,0.0019481972977518863,-2.598160257167441e-18,0.0029829172417521477,0.010111643001437187,-0.0010347199440002613,-0.0011945668281987576,-4.007028782477514e-18,-0.0011945668281987576,0.0,-0.0011945668281987576,-4.007028782477514e-18,0.0011307933600619435,0.017696358263492584,-0.002325360188260701,0.0035965121584013633,7.900773867911394e-18,0.0035965121584013633,0.0,0.0035965121584013633,7.900773867911394e-18,0.004179645329713821,-0.09431029111146927,-0.0005831331713124581,1.5739692436580102,-3.839509351783209e-18,1.5739692436580102,0.0,1.5739692436580102,-3.839509351783209e-18,1.573927640914917,-0.062280572950839996,4.160274309317202e-05,-1.5129212929089109,1.0239499964717292e-17,-1.5129212929089109,0.0,-1.5129212929089109,1.0239499964717292e-17,-1.5066744089126587,-0.05005907639861107,-0.006246883996252173,0.23064349941702492,0.006979288405648807,0.07444913092373392,-0.0492180772125721,-0.2799921929836273,7.450580596923828e-09,0.03877135366201401,-0.27999165654182434,1.1175870895385742e-08,0.1267659068107605,-0.2799922525882721,0.0,,120.0,422.6666666666109,,
