inbarajaldrin/isaac-sim-mcp/.planning/saved_runs/2026-04-23-green2x2-postfix/20260423T200207_grasp_home.csv
t_wall,t_sim_ns,ref_pos_shoulder_pan,ref_vel_shoulder_pan,fb_pos_shoulder_pan,err_pos_shoulder_pan,js_pos_shoulder_pan,js_vel_shoulder_pan,isaac_pos_shoulder_pan,isaac_vel_shoulder_pan,isaac_lag_shoulder_pan,ref_pos_shoulder_lift,ref_vel_shoulder_lift,fb_pos_shoulder_lift,err_pos_shoulder_lift,js_pos_shoulder_lift,js_vel_shoulder_lift,isaac_pos_shoulder_lift,isaac_vel_shoulder_lift,isaac_lag_shoulder_lift,ref_pos_elbow_flex,ref_vel_elbow_flex,fb_pos_elbow_flex,err_pos_elbow_flex,js_pos_elbow_flex,js_vel_elbow_flex,isaac_pos_elbow_flex,isaac_vel_elbow_flex,isaac_lag_elbow_flex,ref_pos_wrist_flex,ref_vel_wrist_flex,fb_pos_wrist_flex,err_pos_wrist_flex,js_pos_wrist_flex,js_vel_wrist_flex,isaac_pos_wrist_flex,isaac_vel_wrist_flex,isaac_lag_wrist_flex,ref_pos_wrist_roll,ref_vel_wrist_roll,fb_pos_wrist_roll,err_pos_wrist_roll,js_pos_wrist_roll,js_vel_wrist_roll,isaac_pos_wrist_roll,isaac_vel_wrist_roll,isaac_lag_wrist_roll,tcp_x,tcp_y,tcp_z,cup_red_x,cup_red_y,cup_red_z,cup_green_x,cup_green_y,cup_green_z,cup_blue_x,cup_blue_y,cup_blue_z,attached_lego_xyz,physics_rate_hz,sim_time_s,render_fps,app_dt_ms
1776999727.3894491,325333350300,1.2483175632077038e-06,7.952695113374483e-05,1.9325912772903457e-07,1.0550584354786693e-06,1.2483175632077038e-06,7.952695113374483e-05,-1.88381272892002e-05,0.0560947023332119,2.0086444852407905e-05,-4.296433862704394e-07,-2.7371423419747824e-05,-6.651553139396014e-08,-3.6312785487647925e-07,-4.296433862704394e-07,-2.7371423419747824e-05,0.002875251928344369,0.09428556263446808,-0.0028756815717306396,1.8472184670306283e-06,0.00011768131530842931,2.8597837616413043e-07,1.561240090866498e-06,1.8472184670306283e-06,0.00011768131530842931,0.0010537252528592944,-0.04220414534211159,-0.0010518780343922638,0.0006286387986893047,0.04004888539393405,9.732314073923582e-05,0.0005313156579500689,0.0006286387986893047,0.04004888539393405,0.00019532477017492056,-0.033690594136714935,0.0004333140285143842,-0.0006060204134328361,-0.038607928964231,-9.382146012995879e-05,-0.0005121989533028773,-0.0006060204134328361,-0.038607928964231,1.3772622878605034e-05,0.038756273686885834,-0.0006197930363114412,0.3919603683834466,6.564230367718276e-05,0.22494113698975743,-0.049156397581100464,-0.28000012040138245,1.862645149230957e-08,0.038835640996694565,-0.2799999713897705,1.4901161193847656e-08,0.12682759761810303,-0.27999991178512573,-1.4901161193847656e-08,,120.0,325.3000000000328,,
1776999727.4215734,325333350300,6.300588718612504e-06,0.00016518561761440324,3.3434752616830814e-06,2.9571134569294227e-06,6.300588718612504e-06,0.00016518561761440324,-1.8863060176954605e-05,0.05670851841568947,2.516364889556711e-05,-2.1685237413515374e-06,-5.685324808909822e-05,-1.1507504786279667e-06,-1.0177732627235707e-06,-2.1685237413515374e-06,-5.685324808909822e-05,0.0028752523940056562,0.09418492764234543,-0.0028774209177470076,9.323399892154989e-06,0.000244436137356834,4.947562566988757e-06,4.375837325166232e-06,9.323399892154989e-06,0.000244436137356834,0.0010537317721173167,-0.042162392288446426,-0.0010444083722251616,0.0031729061897728984,0.08318563423159256,0.0016837368422109918,0.0014891693475619066,0.0031729061897728984,0.08318563423159256,0.000195325817912817,-0.03371063247323036,0.0029775803718600814,-0.0030587452204968264,-0.08019262023567507,-0.0016231560943363128,-0.0014355891261605136,-0.0030587452204968264,-0.08019262023567507,1.3772326383332256e-05,0.03890300542116165,-0.0030725175468801586,0.39196036982094473,6.563598893274601e-05,0.22494119856337652,-0.049156397581100464,-0.28000012040138245,1.862645149230957e-08,0.038835640996694565,-0.2799999713897705,1.4901161193847656e-08,0.12682759761810303,-0.27999991178512573,-1.4901161193847656e-08,,120.0,325.31666666669946,,
1776999727.4594512,325350016968,1.429235374661076e-05,0.00023824775987905434,9.92402857939635e-06,4.368325167214409e-06,9.92402857939635e-06,0.00019852764333148942,-1.8801645637722686e-05,0.05708621069788933,3.3093999384333444e-05,-4.919113086649028e-06,-8.1999626811909e-05,-3.415631863209657e-06,-1.503481223439371e-06,-3.415631863209657e-06,-6.83288383206374e-05,0.0028751548379659653,0.09425599128007889,-0.002880073951052614,2.114934577242748e-05,0.00035255104530163727,1.4685244684128943e-05,6.464101088298535e-06,1.4685244684128943e-05,0.00029377454887012666,0.0010536910267546773,-0.04224036633968353,-0.0010325416809822499,0.007197469902309646,0.11997891400000008,0.004997630080825843,0.002199839821483803,0.004997630080825843,0.09997630642144567,0.00019531679572537541,-0.0336751863360405,0.007002153106584271,-0.006938505378545448,-0.11566208006426024,-0.004817815658341713,-0.0021206897202037346,-0.004817815658341713,-0.09637916507434183,1.3771499652648345e-05,0.03894229233264923,-0.006952276878198096,0.3919603981686509,6.560083561038095e-05,0.22494116633187639,-0.049156397581100464,-0.28000012040138245,1.862645149230957e-08,0.038835640996694565,-0.2799999713897705,1.4901161193847656e-08,0.12682759761810303,-0.27999991178512573,-1.4901161193847656e-08,,120.0,325.3333333333661,,
1776999727.4872136,325366683635,2.541226647395735e-05,0.00031768641796490023,1.9454759642488422e-05,5.9575068314689285e-06,1.9454759642488422e-05,0.000277964850985201,-1.8835762602975592e-05,0.05647168681025505,4.4248029076932946e-05,-8.746341910484792e-06,-0.00010934066171097816,-6.695899391495972e-06,-2.0504425189888197e-06,-6.695899391495972e-06,-9.566937401294005e-05,0.0028752253856509924,0.09425169974565506,-0.002883971727561477,3.7604219714071983e-05,0.00047010170751874244,2.8788500893075538e-05,8.815718820996446e-06,2.8788500893075538e-05,0.0004113230647863984,0.0010537197813391685,-0.04217413440346718,-0.0010161155616250966,0.012797333898844616,0.15998333600000353,0.009797199920040037,0.0030001339788045794,0.009797199920040037,0.13997999800000746,0.00019532322767190635,-0.03370746970176697,0.01260201067117271,-0.01233688661340306,-0.15422714542473576,-0.009444697270365645,-0.0028921893430374143,-0.009444697270365645,-0.13494352629389392,1.3772340025752783e-05,0.03883824124932289,-0.012350658953428812,0.3919603683834466,6.565254822550353e-05,0.22494113698975743,-0.049156397581100464,-0.28000012040138245,1.862645149230957e-08,0.038835640996694565,-0.2799999713897705,1.4901161193847656e-08,0.12682759761810303,-0.27999991178512573,-1.4901161193847656e-08,,120.0,325.35000000003276,,
1776999727.521679,325383350303,3.9689359107448915e-05,0.0003970214677190281,3.216256916260754e-05,7.5267899448413735e-06,3.216256916260754e-05,0.00035739816145453354,-1.8877773982239887e-05,0.056972358375787735,5.85671330896888e-05,-1.3660202458427337e-05,-0.00013664603690630254,-1.1069647286441898e-05,-2.5905551719854393e-06,-1.1069647286441898e-05,-0.00012300856838029346,0.0028751820791512728,0.09414263814687729,-0.0028888422816097,5.873098260309552e-05,0.0005874990536011376,4.759309125768775e-05,1.1137891345407767e-05,4.759309125768775e-05,0.0005288658137799239,0.0010537022026255727,-0.04212847352027893,-0.0009949712200224771,0.019987118474839385,0.19993558200000305,0.01619671102695139,0.003790407447887993,0.01619671102695139,0.17998172699999304,0.00019532031728886068,-0.03372907266020775,0.019791798157550524,-0.019267983183201078,-0.19274191207447375,-0.015613954361821768,-0.00365402882137931,-0.015613954361821768,-0.17350599554832657,1.3772586498816963e-05,0.038981303572654724,-0.019281755769699895,0.3919604279596412,6.56333972027158e-05,0.22494112159292518,-0.049156397581100464,-0.28000012040138245,1.862645149230957e-08,0.038835640996694565,-0.2799999713897705,1.4901161193847656e-08,0.12682759761810303,-0.27999991178512573,-1.4901161193847656e-08,,120.0,325.3666666666994,,
1776999727.5561848,325400016970,4.8080279475702164e-05,0.0004369788719326498,3.9689359107448915e-05,8.390920368253248e-06,3.9689359107448915e-05,0.0003970214677190281,-1.879758565337397e-05,0.05731379613280296,6.687786512907614e-05,-1.654817227251704e-05,-0.00015039849458125566,-1.3660202458427337e-05,-2.8879698140897034e-06,-1.3660202458427337e-05,-0.00013664603690630254,0.0028751466888934374,0.09409549832344055,-0.0028916948611659543,7.114758516998712e-05,0.0006466266803633025,5.873098260309552e-05,1.2416602566891604e-05,5.873098260309552e-05,0.0005874990536011376,0.001053698593750596,-0.04208880290389061,-0.000982551008580609,0.024212692363779847,0.22005768500001613,0.019987118474839385,0.004225573888940463,0.019987118474839385,0.19993558200000305,0.000195317916222848,-0.033757489174604416,0.024017374447557,-0.023341521183887423,-0.21214002304794663,-0.019267983183201078,-0.004073538000686345,-0.019267983183201078,-0.19274191207447375,1.377097396471072e-05,0.039017368108034134,-0.023355292157852134,0.3919603683663285,6.558220915888864e-05,0.22494118123303758,-0.049156397581100464,-0.28000012040138245,1.862645149230957e-08,0.038835640996694565,-0.2799999713897705,1.4901161193847656e-08,0.12682759761810303,-0.27999991178512573,-1.4901161193847656e-08,,120.0,325.38333333336607,,
1776999727.5972662,325416683638,6.714673313354206e-05,0.0005164037548919996,5.718140138296298e-05,9.965331750579079e-06,5.718140138296298e-05,0.0004765454692363425,-1.829987741075456e-05,0.05502007156610489,8.544661054429662e-05,-2.3110425304247983e-05,-0.00017773478838545574,-1.968057780003984e-05,-3.4298475042081432e-06,-1.968057780003984e-05,-0.0001640164451330969,0.0028407485224306583,0.0969311073422432,-0.002863858947734906,9.936148388903084e-05,0.0007641569586101756,8.461512015730983e-05,1.474636373172101e-05,8.461512015730983e-05,0.0007051760041660831,0.0010435120202600956,-0.04245297238230705,-0.0009441505363710648,0.03381434572186488,0.26005516999999073,0.028795915824806635,0.0050184298970582485,0.028795915824806635,0.23998298200000576,0.000911176553927362,-0.0025570280849933624,0.03290316916793752,-0.03259770764555271,-0.25069840100122676,-0.027759840547085492,-0.00483786709846722,-0.027759840547085492,-0.23134840908915533,-0.0006787890451960266,0.008600737899541855,-0.031918918600356685,0.39195012806151114,6.986855380276931e-05,0.22484181357354466,-0.049156397581100464,-0.28000012040138245,1.862645149230957e-08,0.038835640996694565,-0.2799999713897705,1.4901161193847656e-08,0.12682759761810303,-0.27999991178512573,-1.4901161193847656e-08,,120.0,325.4000000000327,,
1776999727.625074,325433350306,8.93484674546304e-05,0.0005956902630625022,7.783201451007109e-05,1.1516452944559304e-05,7.783201451007109e-05,0.0005559760493036379,-1.3208520613261499e-05,0.05104341730475426,0.0001025569880678919,-3.075177282344645e-05,-0.00020502345663778873,-2.6788063598519536e-05,-3.963709224926914e-06,-2.6788063598519536e-05,-0.0001913546997562604,0.002798286732286215,0.10964487493038177,-0.0028290385051096614,0.00013221486579021832,0.0008814824744849897,0.00011517320493333283,1.7041660856885493e-05,0.00011517320493333283,0.000822714712802241,0.0010394123382866383,-0.04171336069703102,-0.0009071974724964199,0.04499489144499347,0.2999829710000041,0.03919533421884462,0.0057995572261488465,0.03919533421884462,0.27998333599998665,0.003328632330521941,0.053238652646541595,0.04166625911447153,-0.043375978022217515,-0.28918960218056977,-0.037785088507847675,-0.00559088951436984,-0.037785088507847675,-0.26990955281599727,-0.0030120438896119595,-0.046226851642131805,-0.040363934132605556,0.3919246013509343,8.452806221793167e-05,0.22447037457010777,-0.049156397581100464,-0.28000012040138245,1.862645149230957e-08,0.038835640996694565,-0.2799999713897705,1.4901161193847656e-08,0.12682759761810303,-0.27999991178512573,-1.4901161193847656e-08,,120.0,325.41666666669937,,
1776999727.674439,325450016973,0.00011476693178198778,0.0006751267765416701,0.00010166112944239088,1.3105802339596906e-05,0.00010166112944239088,0.0006354105373209878,-6.1113405536161736e-06,0.05141262710094452,0.00012087827233560396,-3.9500247898440665e-05,-0.00023236375341051429,-3.498951964872641e-05,-4.510728249714251e-06,-3.498951964872641e-05,-0.00021869429940968066,0.0029073304031044245,0.11286582797765732,-0.002946830651002865,0.00016982825687990302,0.000999029963185045,0.0001504347300879319,1.939352679197111e-05,0.0001504347300879319,0.0009402592042918249,0.0010863823117688298,-0.041889581829309464,-0.0009165540548889268,0.0577953465136674,0.3399863130000049,0.051195410662846684,0.006599935850820714,0.051195410662846684,0.31998565800001394,0.005364622920751572,0.04848252236843109,0.052430723592915826,-0.055715873505951766,-0.3277536263993793,-0.04935340294052717,-0.006362470565424598,-0.04935340294052717,-0.30847259373436764,-0.004966670647263527,-0.044126246124506,-0.05074920285868824,0.39192154138391816,0.0001006901561826368,0.22408899918575584,-0.049156397581100464,-0.28000012040138245,1.862645149230957e-08,0.038835640996694565,-0.2799999713897705,1.4901161193847656e-08,0.12682759761810303,-0.27999991178512573,-1.4901161193847656e-08,,120.0,325.433333333366,,
1776999727.7184222,325466683641,0.00014335618928164702,0.0007545450449780214,0.0001286631325834527,1.469305669819432e-05,0.0001286631325834527,0.0007148320365675799,-3.884861143887974e-08,0.03320978954434395,0.0001433950378930859,-4.934004008365031e-05,-0.0002596977706417117,-4.428301387450663e-05,-5.057026209143684e-06,-4.428301387450663e-05,-0.0002460294286145415,0.0026996154338121414,0.11676210910081863,-0.002748955473895792,0.0002121336813716977,0.001116550453482604,0.00019039138880930687,2.174229256239084e-05,0.00019039138880930687,0.0010577844754340333,0.0010450923582538962,-0.0415959395468235,-0.0008329586768821985,0.07219257765076915,0.3799804669999858,0.06479331821225573,0.007399259438513425,0.06479331821225573,0.35998143899999097,0.012356049381196499,0.19168858230113983,0.059836528269572656,-0.06959509315352355,-0.366308793201842,-0.0624620586138579,-0.007133034539665649,-0.0624620586138579,-0.3470293289974661,-0.011720503680408001,-0.1765584498643875,-0.05787458947311555,0.39182341190054776,0.00014543739673059816,0.22306670137105652,-0.049156397581100464,-0.28000012040138245,1.862645149230957e-08,0.038835640996694565,-0.2799999713897705,1.4901161193847656e-08,0.12682759761810303,-0.27999991178512573,-1.4901161193847656e-08,,120.0,325.4500000000327,,
1776999727.7438247,325483350308,0.00015884526734085354,0.0007942625530910413,0.00014335618928164702,1.548907805920652e-05,0.00015884526734085354,0.0007942625530910413,3.027363527507987e-05,0.07907331734895706,0.00012857163206577368,-5.4671039297075047e-05,-0.0002733676613673138,-4.934004008365031e-05,-5.330999213424734e-06,-5.4671039297075047e-05,-0.0002733676613673138,0.002885983558371663,0.15312081575393677,-0.0029406545976687383,0.00023505389964910777,0.001175323090040149,0.0002121336813716977,2.2920218277410067e-05,0.00023505389964910777,0.001175323090040149,0.001142837107181549,-0.03518054261803627,-0.0009077832075324413,0.0799927045663305,0.3999817609999999,0.07219257765076915,0.0078001269155613395,0.0799927045663305,0.3999817609999999,0.019735565409064293,0.2097235918045044,0.0602571391572662,-0.07711457198310401,-0.38559044187569674,-0.06959509315352355,-0.007519478829580456,-0.07711457198310401,-0.38559044187569674,-0.018820464611053467,-0.20173263549804688,-0.05829410737205054,0.3917706057657786,0.0001889292249463364,0.22178453722176553,-0.049156397581100464,-0.28000012040138245,1.862645149230957e-08,0.038835640996694565,-0.2799999713897705,1.4901161193847656e-08,0.12682759761810303,-0.27999991178512573,-1.4901161193847656e-08,,120.0,325.4666666666993,,
1776999727.7780616,325500016976,0.00019220241550308782,0.0008736877971888601,0.0001751277256811925,1.7074689821895304e-05,0.0001751277256811925,0.000833977562505878,3.136840314255096e-05,0.02096734754741192,0.00016083401236053685,-6.6151834340862e-05,-0.00030070407946741745,-6.02751025133087e-05,-5.8767318275532924e-06,-6.02751025133087e-05,-0.00028703669209609095,0.003088854718953371,0.12377075850963593,-0.003155006553294233,0.00028441468884959063,0.001292853902687615,0.0002591481354601011,2.526655338948953e-05,0.0002591481354601011,0.0012340920291079205,0.0012285783886909485,-0.04531995207071304,-0.0009441636998413579,0.09679099225085547,0.43997942786528255,0.08819236894057624,0.008598623310279233,0.08819236894057624,0.4199817966834915,0.024685552343726158,0.15811999142169952,0.07210543990712931,-0.0933084583114133,-0.42414899515077914,-0.08501921293821438,-0.008289245373198917,-0.08501921293821438,-0.4048708775071751,-0.02357732318341732,-0.15701065957546234,-0.06973113512799597,0.39173233419741327,0.00024313377294536259,0.22090458204392666,-0.049156397581100464,-0.28000012040138245,1.862645149230957e-08,0.038835640996694565,-0.2799999713897705,1.4901161193847656e-08,0.12682759761810303,-0.27999991178512573,-1.4901161193847656e-08,,120.0,325.483333333366,,
1776999727.8125362,325516683643,0.00022873981349647962,0.000953120160697507,0.00021007590350883198,1.8663909987647634e-05,0.00021007590350883198,0.0009134082244864617,3.936804932891391e-05,0.0587364062666893,0.0001893717641675657,-7.872720126837163e-05,-0.00032804294791177697,-7.23034948939021e-05,-6.423706374469526e-06,-7.23034948939021e-05,-0.00031437497491200136,0.0027592661790549755,0.09904851764440536,-0.002837993380323347,0.00033848150509882357,0.00141039525040047,0.00031086327700341086,2.7618228095412708e-05,0.00031086327700341086,0.0013516308589566085,0.001145671820268035,-0.04443773999810219,-0.0008071903151692114,0.11519081827171,0.47998067998642985,0.1057918814151852,0.009398936856524806,0.1057918814151852,0.4599821919340883,0.033577125519514084,0.271818071603775,0.08161369275219592,-0.11104625972535617,-0.46271100468444193,-0.10198549603801113,-0.009060763687345041,-0.10198549603801113,-0.4434320610004384,-0.03217191621661186,-0.25106292963027954,-0.07887434350874431,0.3915680955831285,0.0002879836188176791,0.2196485883567574,-0.049156397581100464,-0.28000012040138245,1.862645149230957e-08,0.038835640996694565,-0.2799999713897705,1.4901161193847656e-08,0.12682759761810303,-0.27999991178512573,-1.4901161193847656e-08,,120.0,325.5000000000326,,
1776999727.847738,325533350311,0.00024821409273057183,0.0009928645314732818,0.00022873981349647962,1.9474279234092212e-05,0.00024821409273057183,0.0009928645314732818,8.24255621409975e-05,0.07646545022726059,0.00016578853058957433,-8.542981887299097e-05,-0.00034172208417371637,-7.872720126837163e-05,-6.7026176046193335e-06,-8.542981887299097e-05,-0.00034172208417371637,0.0027783699333667755,0.15957587957382202,-0.0028637997522397663,0.0003672988904289543,0.0014692076374255084,0.00033848150509882357,2.881738533013075e-05,0.0003672988904289543,0.0014692076374255084,0.0011978315887972713,-0.038878194987773895,-0.0008305326983683169,0.12499784804032249,0.49999550172373014,0.11519081827171,0.009807029768612488,0.12499784804032249,0.49999550172373014,0.04453490674495697,0.3307792842388153,0.08046294129536552,-0.12050043316694803,-0.48200569436842605,-0.11104625972535617,-0.009454173441591857,-0.12050043316694803,-0.48200569436842605,-0.042733438313007355,-0.3160155415534973,-0.07776699485394067,0.3914146879587727,0.0003505386847141063,0.2178749597275364,-0.049156397581100464,-0.28000012040138245,1.862645149230957e-08,0.038835640996694565,-0.2799999713897705,1.4901161193847656e-08,0.12682759761810303,-0.27999991178512573,-1.4901161193847656e-08,,120.0,325.5166666666993,,
1776999727.8824093,325550016978,0.0002895030294925858,0.0010722680338958138,0.000268460264945441,2.104276454714481e-05,0.0002895030294925858,0.0010722680338958138,9.055824193637818e-05,0.031461503356695175,0.00019894478755620764,-9.964056069765445e-05,-0.00036905101926847594,-9.239810502532122e-05,-7.242455672333223e-06,-9.964056069765445e-05,-0.00036905101926847594,0.0031349032651633024,0.1453031599521637,-0.0032345438258609568,0.00042839687440257405,0.0015867062774710063,0.0003972584971061908,3.113837729638326e-05,0.00042839687440257405,0.0015867062774710063,0.0013460519257932901,-0.04368024319410324,-0.0009176550513907161,0.1457904959772261,0.5399822197238848,0.13519359450287108,0.01059690147435502,0.1457904959772261,0.5399822197238848,0.05178091675043106,0.24490946531295776,0.09400957922679504,-0.14054496291178417,-0.5205536927178804,-0.13032933729977095,-0.010215625612013224,-0.14054496291178417,-0.5205536927178804,-0.049692802131175995,-0.24455663561820984,-0.09085216078060818,0.39133830251806834,0.00042905668189468544,0.21655450291145387,-0.049156397581100464,-0.28000012040138245,1.862645149230957e-08,0.038835640996694565,-0.2799999713897705,1.4901161193847656e-08,0.12682759761810303,-0.27999991178512573,-1.4901161193847656e-08,,120.0,325.53333333336593,,
1776999727.9321086,325566683646,0.0003339802592139241,0.001151694308863217,0.0003113445965952188,2.263566261870531e-05,0.0003339802592139241,0.001151694308863217,9.54175484366715e-05,0.0965963825583458,0.0002385627107772526,-0.00011494864267344613,-0.000396387792171165,-0.0001071579466000964,-7.790696073349735e-06,-0.00011494864267344613,-0.000396387792171165,0.002741103060543537,0.09756391495466232,-0.0028560517032169834,0.0004942127873762742,0.001704238615564712,0.0004607172929322934,3.3495494443980744e-05,0.0004942127873762742,0.001704238615564712,0.0012548879021778703,-0.0442679189145565,-0.0007606751148015961,0.16818873268007561,0.5799804057235939,0.1567896655071404,0.011399067172935207,0.16818873268007561,0.5799804057235939,0.06433562189340591,0.39438292384147644,0.1038531107866697,-0.16213731243766194,-0.5591127464489671,-0.1511483829994949,-0.010988929438167039,-0.16213731243766194,-0.5591127464489671,-0.06182242929935455,-0.3705527186393738,-0.10031488313830739,0.391059404026712,0.0005008328310102069,0.21475719954984748,-0.049156397581100464,-0.28000012040138245,1.862645149230957e-08,0.038835640996694565,-0.2799999713897705,1.4901161193847656e-08,0.12682759761810303,-0.27999991178512573,-1.4901161193847656e-08,,120.0,325.5500000000326,,
1776999727.9665453,325583350313,0.00038165447121667905,0.0012311528580079532,0.00035736086420237024,2.429360701430882e-05,0.00038165447121667905,0.0012311528580079532,0.0001544965780340135,0.05208488181233406,0.00022715789318266555,-0.0001313570554734752,-0.00042373567313420474,-0.0001229957314883107,-8.361323985164512e-06,-0.0001313570554734752,-0.00042373567313420474,0.0027706176042556763,0.15031751990318298,-0.0029019746597291514,0.0005647594875174864,0.0018218187119037111,0.0005288106225569525,3.594886496053392e-05,0.0005647594875174864,0.0018218187119037111,0.001327299396507442,-0.03981557488441467,-0.0007625399089899556,0.19219693399453905,0.6199948446389446,0.17996294451988826,0.012233989474650792,0.19219693399453905,0.6199948446389446,0.07924634218215942,0.464290052652359,0.11295059181237962,-0.18528170014759193,-0.5976874683167919,-0.17348788886069885,-0.01179381128689308,-0.18528170014759193,-0.5976874683167919,-0.07619363814592361,-0.44986608624458313,-0.10908806200166832,0.3907718972953952,0.0005813608763504851,0.2123580564114863,-0.049156397581100464,-0.28000012040138245,1.862645149230957e-08,0.038835640996694565,-0.2799999713897705,1.4901161193847656e-08,0.12682759761810303,-0.27999991178512573,-1.4901161193847656e-08,,120.0,325.56666666669923,,
1776999728.0013754,325600016981,0.0004325119454384851,0.001310616942476044,0.0004066607003343901,2.5851245104095027e-05,0.0004325119454384851,0.001310616942476044,0.0001767721405485645,0.006139347795397043,0.0002557398048899206,-0.00014886107695473246,-0.0004510854592335207,-0.00013996364827697662,-8.897428677755843e-06,-0.00014886107695473246,-0.0004510854592335207,0.002932522678747773,0.17084063589572906,-0.003081383755702506,0.0006400166723380315,0.001939406999228573,0.0006017628667684673,3.825380556956421e-05,0.0006400166723380315,0.001939406999228573,0.0014520777622237802,-0.04141128063201904,-0.0008120610898857487,0.21780819065026957,0.6600120710813904,0.20478979201050196,0.013018398639767614,0.21780819065026957,0.6600120710813904,0.09590497612953186,0.5164099931716919,0.12190321452073771,-0.20997146536634875,-0.636264877416659,-0.1974214679077849,-0.01254999745856386,-0.20997146536634875,-0.636264877416659,-0.09223940968513489,-0.5070783495903015,-0.11773205568121387,0.3904137825159105,0.0007240447479167678,0.20964241972772232,-0.049156397581100464,-0.28000012040138245,1.862645149230957e-08,0.038835640996694565,-0.2799999713897705,1.4901161193847656e-08,0.12682759761810303,-0.27999991178512573,-1.4901161193847656e-08,,120.0,325.5833333333659,,
1776999728.0351863,325616683648,0.00048651084206683976,0.001390026299080888,0.0004590834493885771,2.742739267826269e-05,0.0004590834493885771,0.0013502760132640677,0.00020863418467342854,0.10245483368635178,0.0002778766573934112,-0.00016744630677610714,-0.0004784164092087757,-0.00015800640284927513,-9.439903926832015e-06,-0.00015800640284927513,-0.00046473523712010207,0.002952761249616742,0.14605051279067993,-0.003120207556392849,0.0007199224286864887,0.002056914302096725,0.0006793362927936322,4.058613589285644e-05,0.0006793362927936322,0.0019980931621923054,0.0015292114112526178,-0.04131711274385452,-0.0008092889825661292,0.24500143258445234,0.7000017371824448,0.23118930360972456,0.013812128974727778,0.23118930360972456,0.6799839366964534,0.1141812801361084,0.5690259337425232,0.13082015244834394,-0.23618629613068,-0.6748157177945221,-0.22287112670571865,-0.01331516942496136,-0.22287112670571865,-0.6555181565370426,-0.10985496640205383,-0.5455973744392395,-0.12633132972862618,0.38995073054647567,0.0008368136520692407,0.20675484834838775,-0.049156397581100464,-0.28000012040138245,1.862645149230957e-08,0.038835640996694565,-0.2799999713897705,1.4901161193847656e-08,0.12682759761810303,-0.27999991178512573,-1.4901161193847656e-08,,120.0,325.60000000003254,,
1776999728.0730824,325633350316,0.0005436661568507369,0.0014694097703480161,0.0005146725057785518,2.899365107218504e-05,0.0005146725057785518,0.0014296912244319364,0.0002594270627014339,0.09172668308019638,0.000284239094149303,-0.00018711790614382406,-0.0005057384500214293,-0.00017713893060575055,-9.978975538073504e-06,-0.00017713893060575055,-0.0004920682021068919,0.0029230101499706507,0.1506137251853943,-0.003110128056114475,0.0008044989467693293,0.002174383300710214,0.000761595114230468,4.290383253886137e-05,0.000761595114230468,0.0021156091284465104,0.0015928123611956835,-0.04148392379283905,-0.0007883134144263541,0.2737842114889898,0.7399783677162034,0.25918333226015,0.014600879228839792,0.25918333226015,0.7199765510901482,0.1340615600347519,0.6211277842521667,0.1397226514542379,-0.26393347242307846,-0.7133539916239944,-0.2498579319295658,-0.014075540493512673,-0.2498579319295658,-0.6940718391281534,-0.1290208101272583,-0.6111018657684326,-0.13491266229582016,0.38938424694931195,0.000962350837251542,0.20364831472147343,-0.049156397581100464,-0.28000012040138245,1.862645149230957e-08,0.038835640996694565,-0.2799999713897705,1.4901161193847656e-08,0.12682759761810303,-0.27999991178512573,-1.4901161193847656e-08,,120.0,325.6166666666992,,
1776999728.1049137,325650016983,0.000604138566544477,0.0015489772739102896,0.0005734615717337359,3.067699481074104e-05,0.0005734615717337359,0.0015091379210880578,0.00029491374152712524,0.08595321327447891,0.0003092248250173517,-0.0002079311764546165,-0.0005331238306930972,-0.00019737283111080878,-1.0558345343807726e-05,-0.00019737283111080878,-0.0005194120037046348,0.002918446436524391,0.17191064357757568,-0.0031263776129790075,0.000893983990659185,0.0022921246241424517,0.0008485892025078502,4.539478815133481e-05,0.0008485892025078502,0.002233171685870321,0.0016709528863430023,-0.037543948739767075,-0.0007769688956838173,0.30423744238484857,0.7800476748607342,0.2887888500285352,0.015448592356313351,0.2887888500285352,0.7599850212244528,0.15553973615169525,0.6689315438270569,0.14869770623315332,-0.29329099794704017,-0.7519816075654915,-0.27839824499216664,-0.014892752954873523,-0.27839824499216664,-0.7326408069713066,-0.14972491562366486,-0.6737087965011597,-0.1435660823233753,0.3887070030403226,0.00111585945356831,0.2002935506019858,-0.049156397581100464,-0.28000012040138245,1.862645149230957e-08,0.038835640996694565,-0.2799999713897705,1.4901161193847656e-08,0.12682759761810303,-0.27999991178512573,-1.4901161193847656e-08,,120.0,325.63333333336584,,
1776999728.1451404,325666683651,0.0006675565775124914,0.0016282490133738225,0.0006354123004562184,3.214427705627301e-05,0.0006354123004562184,0.0015885634833515145,0.0003280538076069206,0.05291983112692833,0.0003395027699055708,-0.0002297582577886472,-0.000560407415882071,-0.00021869490624195866,-1.1063351546688528e-05,-0.00021869490624195866,-0.0005467485313103332,0.0033144562039524317,0.15878278017044067,-0.003544214461741079,0.0009878278365323802,0.0024094282857799387,0.0009402618133202124,4.7566023212167836e-05,0.0009402618133202124,0.0023507029693286855,0.0018382153939455748,-0.051366448402404785,-0.0008503875574131946,0.33617404522151356,0.819968038504684,0.3199865458952465,0.016187499326267063,0.3199865458952465,0.7999828483143979,0.1690073013305664,0.48053690791130066,0.16716674389094716,-0.3240785237807448,-0.7904656389843889,-0.308473449683184,-0.01560507409756079,-0.308473449683184,-0.7711995147061708,-0.16268274188041687,-0.499563068151474,-0.16139578190032794,0.3882850002717397,0.0012059278865547067,0.19802000887795979,-0.049156397581100464,-0.28000012040138245,1.862645149230957e-08,0.038835640996694565,-0.2799999713897705,1.4901161193847656e-08,0.12682759761810303,-0.27999991178512573,-1.4901161193847656e-08,,120.0,325.6500000000325,,
1776999728.1970215,325683350319,0.0007005385230156329,0.0016679875621917325,0.0006675565775124914,3.298194550314145e-05,0.0007005385230156329,0.0016679875621917325,0.0003431948716752231,0.22785863280296326,0.00035734365134040976,-0.00024110991634846435,-0.0005740845483544558,-0.0002297582577886472,-1.135165855981716e-05,-0.00024110991634846435,-0.0005740845483544558,0.0025748135522007942,0.1368238627910614,-0.0028159234685492585,0.0010366334134205614,0.0024682320576669657,0.0009878278365323802,4.880557688818118e-05,0.0010366334134205614,0.0024682320576669657,0.0016571804881095886,-0.014312662184238434,-0.0006205470746890273,0.3527833850326535,0.8399799283689491,0.33617404522151356,0.016609339811139934,0.3527833850326535,0.8399799283689491,0.19114503264427185,0.6895182728767395,0.16163835238838165,-0.3400902605685155,-0.8097575022839514,-0.3240785237807448,-0.01601173678777068,-0.3400902605685155,-0.8097575022839514,-0.18407182395458221,-0.7026236057281494,-0.15601843661393328,0.3873875911864089,0.0013503033154053214,0.19496272314660035,-0.049156397581100464,-0.28000012040138245,1.862645149230957e-08,0.038835640996694565,-0.2799999713897705,1.4901161193847656e-08,0.12682759761810303,-0.27999991178512573,-1.4901161193847656e-08,,120.0,325.66666666669914,,
1776999728.223055,325700016986,0.0007688464647840403,0.0017474170870999649,0.0007342921410011638,3.4554323782876495e-05,0.0007688464647840403,0.0017474170870999649,0.0004410336259752512,0.323178231716156,0.00032781283880878905,-0.00026462000406615136,-0.0006014224398151296,-0.0002527271675653082,-1.1892836500843149e-05,-0.00026462000406615136,-0.0006014224398151296,0.002257529878988862,0.2780035734176636,-0.0025221498830550132,0.0011377132149057063,0.0025857692049141173,0.0010865808853697293,5.113232953597702e-05,0.0011377132149057063,0.0025857692049141173,0.0017177059780806303,0.14423829317092896,-0.000579992763174924,0.3871825024686751,0.8799797510025852,0.3697813304972013,0.017401171971473783,0.3871825024686751,0.8799797510025852,0.22720810770988464,0.9632271528244019,0.15997439475879044,-0.37325169987796797,-0.8483181337629729,-0.35647662100222016,-0.016775078875747806,-0.37325169987796797,-0.8483181337629729,-0.2188524603843689,-1.0431561470031738,-0.15439923949359907,0.38588208427649817,0.0015584495161270618,0.18953539322521495,-0.049156397581100464,-0.28000012040138245,1.862645149230957e-08,0.038835640996694565,-0.2799999713897705,1.4901161193847656e-08,0.12682759761810303,-0.27999991178512573,-1.4901161193847656e-08,,120.0,325.6833333333658,,
1776999728.2579863,325716683654,0.0008403306330100443,0.0018268457298967371,0.0008041945069877169,3.613612602232732e-05,0.0008041945069877169,0.0017871347859925047,0.0005244920612312853,-0.06730248779058456,0.0003158385717787589,-0.00028922327891107633,-0.0006287600276724865,-0.0002767860209500227,-1.243725796105363e-05,-0.0002767860209500227,-0.0006150923962028417,0.003846455831080675,0.2058619260787964,-0.0041356791099917516,0.0012434930897863331,0.0027033050468423256,0.001190020062343008,5.3473027443325235e-05,0.001190020062343008,0.0026445421237807766,0.00232194853015244,0.05094781890511513,-0.001078455440366107,0.42318113211498637,0.919979129414755,0.40498338218219754,0.01819774993278883,0.40498338218219754,0.8999811410770315,0.24551109969615936,0.5821387767791748,0.177670032418827,-0.40795510104690436,-0.8868783370035984,-0.39041210503582496,-0.017542996011079393,-0.39041210503582496,-0.8675998750544986,-0.23639538884162903,-0.6706770658493042,-0.17155971220527533,0.3851957029377774,0.0017251666275916347,0.18599308648546642,-0.049156397581100464,-0.28000012040138245,1.862645149230957e-08,0.038835640996694565,-0.2799999713897705,1.4901161193847656e-08,0.12682759761810303,-0.27999991178512573,-1.4901161193847656e-08,,120.0,325.70000000003245,,
1776999728.3134134,325733350321,0.0009535200515688962,0.0019459947832865608,0.0009149903286898912,3.8529722879004956e-05,0.0009149903286898912,0.001906272726590028,0.00048242314369417727,0.3209613859653473,0.00047109690787471893,-0.0003281805815341715,-0.0006697685052250846,-0.00031491950030155657,-1.3261081232614907e-05,-0.00031491950030155657,-0.0006560970489773117,0.002820810303092003,0.08980347961187363,-0.0031489908846261743,0.0014109869955013985,0.002879617820320697,0.0013539720037001267,5.701499180127173e-05,0.0013539720037001267,0.002820838452921811,0.002049502218142152,-0.04326469823718071,-0.0006385152226407534,0.48018206056810847,0.9799812634835102,0.4607789219610938,0.019403138607014647,0.4607789219610938,0.9599776788675709,0.2724030315876007,0.8522873520851135,0.20777902898050776,-0.462905139605198,-0.9447215979843402,-0.44420012473014675,-0.018705014875051273,-0.44420012473014675,-0.9254377411107761,-0.2623819410800934,-0.8089286088943481,-0.20052319852510464,0.3837753278543935,0.0019228880917444714,0.1824919182091278,-0.049156397581100464,-0.28000012040138245,1.862645149230957e-08,0.038835640996694565,-0.2799999713897705,1.4901161193847656e-08,0.12682759761810303,-0.27999991178512573,-1.4901161193847656e-08,,120.0,325.7166666666991,,
1776999728.3341584,325750016989,0.000992845199101003,0.00198571772914986,0.0009535200515688962,3.932514753210686e-05,0.0009535200515688962,0.0019459947832865608,0.0006428352207876742,0.45114320516586304,0.00035000997831332887,-0.00034171543039735906,-0.0006834402675044541,-0.0003281805815341715,-1.3534848863187583e-05,-0.0003281805815341715,-0.0006697685052250846,0.0020722991321235895,0.225118950009346,-0.0024140145625209486,0.0014691790300293344,0.0029383985034787366,0.0014109869955013985,5.8192034527935945e-05,0.0014109869955013985,0.002879617820320697,0.001982721732929349,0.1540597677230835,-0.0005135427029000145,0.49998576615672463,0.9999852958739206,0.48018206056810847,0.01980370558861616,0.48018206056810847,0.9799812634835102,0.3151800036430359,1.1634621620178223,0.18480576251368874,-0.48199630908652524,-0.96400588652148,-0.462905139605198,-0.01909116948132722,-0.462905139605198,-0.9447215979843402,-0.3036630153656006,-1.152563452720642,-0.17833329372092466,0.3814389333598197,0.002120773568211081,0.1764222454390389,-0.049156397581100464,-0.28000012040138245,1.862645149230957e-08,0.038835640996694565,-0.2799999713897705,1.4901161193847656e-08,0.12682759761810303,-0.27999991178512573,-1.4901161193847656e-08,,120.0,325.73333333336575,,
1776999728.3623245,325766683656,0.001073855818150923,0.002065141231618334,0.0010329521420920406,4.090367605888239e-05,0.0010329521420920406,0.002025428232668239,0.0007240620325319469,0.18058224022388458,0.00034979378561897606,-0.0003695974996066033,-0.0007107760861741369,-0.0003555193560229395,-1.4078143583663835e-05,-0.0003555193560229395,-0.0006971077474030082,0.003931763116270304,0.14514315128326416,-0.004301360615876907,0.0015890558273645144,0.003055926738921505,0.0015285279392594628,6.052788810505163e-05,0.0015285279392594628,0.00299716077487205,0.002674558898434043,0.07796479761600494,-0.0010855030710695285,0.5407818101615495,1.0399820856740507,0.5201831752168019,0.020598634944747563,0.5201831752168019,1.01998306243818,0.3367082178592682,0.6901626586914062,0.20407359230228128,-0.5213245139408473,-1.0025635942881481,-0.5014670166126597,-0.019857497328187645,-0.5014670166126597,-0.9832841346764867,-0.32430538535118103,-0.7214248776435852,-0.1970191285896663,0.38031118555619964,0.002318485452039503,0.17238297579040973,-0.049156397581100464,-0.28000012040138245,1.862645149230957e-08,0.038835640996694565,-0.2799999713897705,1.4901161193847656e-08,0.12682759761810303,-0.27999991178512573,-1.4901161193847656e-08,,120.0,325.7500000000324,,
1776999728.4126241,325783350324,0.0011155651667215667,0.0021048649498854816,0.001073855818150923,4.170934857064372e-05,0.0011155651667215667,0.0021048649498854816,0.0006597164901904762,0.15476086735725403,0.0004558486765310905,-0.0003839529379078778,-0.0007244481142978868,-0.0003695974996066033,-1.4355438301274473e-05,-0.0003839529379078778,-0.0007244481142978868,0.003333492437377572,0.01818077266216278,-0.00371744537528545,0.001650775922633807,0.003114708565056825,0.0015890558273645144,6.172009526929259e-05,0.001650775922633807,0.003114708565056825,0.00247225072234869,-0.07085230946540833,-0.0008214747997148831,0.5617861727951946,1.0599865070384062,0.5407818101615495,0.021004362633645135,0.5617861727951946,1.0599865070384062,0.35430270433425903,0.6676979660987854,0.20748346846093557,-0.5415731409006765,-1.0218482578039516,-0.5213245139408473,-0.020248626959829208,-0.5415731409006765,-1.0218482578039516,-0.34130609035491943,-0.6169552206993103,-0.2002670505457571,0.37917097340305533,0.0024793197369035514,0.1701964318779075,-0.049156397581100464,-0.28000012040138245,1.862645149230957e-08,0.038835640996694565,-0.2799999713897705,1.4901161193847656e-08,0.12682759761810303,-0.27999991178512573,-1.4901161193847656e-08,,120.0,325.76666666669905,,
1776999728.4473624,325800016991,0.001245430013530685,0.0022240083171633927,0.0012013415686128117,4.4088444917873447e-05,0.0012013415686128117,0.0021842884437892236,0.0007606516592204571,0.42539945244789124,0.000484778354310228,-0.00042864955532723685,-0.0007654546348161216,-0.0004134752845100911,-1.5174270817145741e-05,-0.0004134752845100911,-0.0007517839300197669,0.0019957784097641706,0.12259594351053238,-0.0024244279650914077,0.0018429455678541182,0.00329101292441755,0.0017777049655944707,6.524060225964758e-05,0.0017777049655944707,0.0032322367878256666,0.002127831568941474,0.07535044848918915,-0.0002848860010873557,0.627184660885257,1.1199857776446176,0.6049822118721763,0.02220244901308077,0.6049822118721763,1.0999832925254467,0.3856084942817688,0.9479041695594788,0.24157616660348824,-0.6046185954174125,-1.0796887583493673,-0.5832149891522835,-0.02140360626512894,-0.5832149891522835,-1.0604059614126964,-0.37156620621681213,-0.9001155495643616,-0.23305238920060034,0.3770883717977769,0.0025837113906642694,0.16628586726111588,-0.049156397581100464,-0.28000012040138245,1.862645149230957e-08,0.038835640996694565,-0.2799999713897705,1.4901161193847656e-08,0.12682759761810303,-0.27999991178512573,-1.4901161193847656e-08,,120.0,325.7833333333657,,
1776999728.4823897,325816683659,0.001335965346587261,0.0023034264712426494,0.0012902969659554324,4.5668380631828584e-05,0.0012902969659554324,0.002263714164852135,0.0008697820594534278,0.14739872515201569,0.0004661832871338332,-0.0004598098211265869,-0.0007927886126881225,-0.0004440917712661595,-1.5718049860427433e-05,-0.0004440917712661595,-0.0007791205122807375,0.002581235021352768,0.2681207060813904,-0.003041044842479355,0.001976916717559916,0.0034085332454933115,0.0019093381794147621,6.757853814515387e-05,0.0019093381794147621,0.0033497683062702834,0.0024928043130785227,0.09251716732978821,-0.0005158875955186067,0.6727772446068017,1.1599798740556482,0.6497791575938242,0.022998087012977453,0.6497791575938242,1.1399811995850528,0.4209740459918976,1.0499987602233887,0.2518031986149041,-0.6485707607848853,-1.1182438696349235,-0.6264001435260909,-0.022170617258794434,-0.6264001435260909,-1.0989647462399799,-0.40561893582344055,-1.0416958332061768,-0.24295182496144474,0.3746869832851508,0.0028289803670073733,0.16095993429497168,-0.049156397581100464,-0.28000012040138245,1.862645149230957e-08,0.038835640996694565,-0.2799999713897705,1.4901161193847656e-08,0.12682759761810303,-0.27999991178512573,-1.4901161193847656e-08,,120.0,325.80000000003236,,
1776999728.5176175,325833350326,0.0013824786876316453,0.0023431818002312968,0.001335965346587261,4.6513341044384336e-05,0.001335965346587261,0.0023034264712426494,0.0009042050805874169,0.35468578338623047,0.00047827360704422845,-0.00047581868773398237,-0.0008064715205253564,-0.0004598098211265869,-1.6008866607395463e-05,-0.0004598098211265869,-0.0007927886126881225,0.003076310735195875,0.2042088359594345,-0.0035521294229298576,0.0020457455997873685,0.0034673618481143,0.001976916717559916,6.88288822274525e-05,0.001976916717559916,0.0034085332454933115,0.002816942287608981,0.07309378683567047,-0.0007711966878216126,0.696200844257224,1.1800002142267036,0.6727772446068017,0.02342359965042229,0.6727772446068017,1.1599798740556482,0.45838120579719543,1.115192174911499,0.23781963846002852,-0.6711515807626387,-1.1375438791997743,-0.6485707607848853,-0.022580819977753408,-0.6485707607848853,-1.1182438696349235,-0.4416438341140747,-1.0664116144180298,-0.229507746648564,0.3719257451785122,0.00309570216859135,0.15556726880401012,-0.049156397581100464,-0.28000012040138245,1.862645149230957e-08,0.038835640996694565,-0.2799999713897705,1.4901161193847656e-08,0.12682759761810303,-0.27999991178512573,-1.4901161193847656e-08,,120.0,325.816666666699,,
1776999728.5567112,325850016994,0.0014778001218114837,0.0024286661650546717,0.0014296966836528486,4.8103438158635103e-05,0.0014296966836528486,0.0023828610797524625,0.0010086132679134607,0.4525899291038513,0.00046918685389802295,-0.0005086262240310316,-0.0008358933544067322,-0.0004920700810503783,-1.6556142980653286e-05,-0.0004920700810503783,-0.0008201282538123708,0.002970337402075529,0.1667749136686325,-0.0034789636261065605,0.002186799061430879,0.0035938587444154977,0.0021156172068185304,7.118185461234879e-05,0.0021156172068185304,0.003526077915283696,0.0029190287459641695,0.03691508620977402,-0.0007322296845332903,0.7442036551110393,1.2230491866942463,0.7199793002928908,0.02422435481814844,0.7199793002928908,1.199982256734331,0.49744194746017456,1.1852836608886719,0.2467617076508647,-0.7174272534386178,-1.1790439522894725,-0.6940744894147535,-0.023352764023864325,-0.6940744894147535,-1.156806969048783,-0.47930437326431274,-1.1320425271987915,-0.23812288017430505,0.3688312299323335,0.00328789723826152,0.1503395389615765,-0.049156397581100464,-0.28000012040138245,1.862645149230957e-08,0.038835640996694565,-0.2799999713897705,1.4901161193847656e-08,0.12682759761810303,-0.27999991178512573,-1.4901161193847656e-08,,120.0,325.83333333336566,,
1776999728.5883315,325866683661,0.0015762218789846525,0.002468287161910647,0.0015267657869219536,4.945609206269885e-05,0.0015267657869219536,0.002463877768435501,0.0010956707410514355,0.38150811195373535,0.000480551137933217,-0.000542500823156199,-0.0008495300280852429,-0.0005254791265208333,-1.7021696635365698e-05,-0.0005254791265208333,-0.0008480124120555562,0.0028505437076091766,0.19381940364837646,-0.0033930445307653757,0.0023324402770689163,0.0036524885668514336,0.002259256810571311,7.31834664976054e-05,0.002259256810571311,0.003645963694258303,0.0030181051697582006,0.07007689028978348,-0.0006856648926892844,0.7937677540373125,1.2430018787018866,0.7688622178031889,0.024905536234123615,0.7688622178031889,1.2407813573386863,0.5381108522415161,1.2165483236312866,0.25565690179579637,-0.7652080391383745,-1.1982787476676386,-0.7411986025639232,-0.024009436574451315,-0.7411986025639232,-1.1961381205263188,-0.5185158252716064,-1.176611065864563,-0.2466922138667681,0.36540396245296164,0.0035449018584678134,0.14502581655299757,-0.049156397581100464,-0.28000012040138245,1.862645149230957e-08,0.038835640996694565,-0.2799999713897705,1.4901161193847656e-08,0.12682759761810303,-0.27999991178512573,-1.4901161193847656e-08,,120.0,325.8500000000323,,
1776999728.6241632,325883350329,0.0016736660125861065,0.0023977864251228703,0.0016252820613034988,4.838395128260774e-05,0.0016252820613034988,0.002440508746026884,0.0011658910661935806,0.2378714233636856,0.0005077749463925259,-0.0005760389457995571,-0.0008252652286617584,-0.0005593862563855055,-1.6652689414051593e-05,-0.0005593862563855055,-0.0008399693097093377,0.0034839031286537647,0.12865424156188965,-0.0040599420744533215,0.002476634838130665,0.0035481639408331666,0.0024050378896046166,7.159694852604823e-05,0.0024050378896046166,0.0036113829985908257,0.0032301857136189938,-0.049783818423748016,-0.0007535508754883289,0.8428395326391689,1.2074984941567422,0.818473914541173,0.024365618097995867,0.818473914541173,1.2290129783568466,0.5630244612693787,0.9027997255325317,0.2798150713697902,-0.8125142181686629,-1.1640527727116436,-0.7890252735090573,-0.023488944659605604,-0.7890252735090573,-1.1847931670953813,-0.5425137877464294,-0.8535848259925842,-0.27000043042223343,0.3632306113846029,0.003700275569938804,0.14155002011345275,-0.049156397581100464,-0.28000012040138245,1.862645149230957e-08,0.038835640996694565,-0.2799999713897705,1.4901161193847656e-08,0.12682759761810303,-0.27999991178512573,-1.4901161193847656e-08,,120.0,325.86666666669896,,
1776999728.686791,325900016997,0.0018139472776895545,0.0022786516902294387,0.001767976438401555,4.5970839287999554e-05,0.001767976438401555,0.002318367190754031,0.0011548729380592704,0.4432067573070526,0.0006590743396302841,-0.0006243206647673438,-0.0007842616792199596,-0.0006084985153051207,-1.582214946222306e-05,-0.0006084985153051207,-0.0007979308789778797,0.0021843949798494577,0.09589236974716187,-0.0028087156446168016,0.0026842183498227068,0.003371872355385642,0.0026161922435012654,6.802610632144135e-05,0.0026161922435012654,0.00343064202118112,0.002958745928481221,0.07438302040100098,-0.00027452757865851444,0.9134836127774338,1.1475035707231078,0.8903332109594161,0.023150401818017752,0.8903332109594161,1.1675038537239728,0.6028476357460022,1.2165749073028564,0.31063597703143164,-0.8806165286548038,-1.1062164629277962,-0.8582990768682727,-0.022317451786531106,-0.8582990768682727,-1.1254971369782012,-0.5809615254402161,-1.1901881694793701,-0.2996550032145877,0.3595320050934425,0.003950033354723017,0.1371210189049301,-0.049156397581100464,-0.28000012040138245,1.862645149230957e-08,0.038835640996694565,-0.2799999713897705,1.4901161193847656e-08,0.12682759761810303,-0.27999991178512573,-1.4901161193847656e-08,,120.0,325.8833333333656,,
1776999728.7225041,325916683664,0.001859156226510003,0.002238907426164299,0.0018139472776895545,4.5208948820448566e-05,0.001859156226510003,0.002238907426164299,0.0013418062590062618,0.4164130389690399,0.0005173499675037412,-0.0006398805883264044,-0.0007705825796854746,-0.0006243206647673438,-1.5559923559060667e-05,-0.0006398805883264044,-0.0007705825796854746,0.0018472196534276009,0.3410326838493347,-0.002487100241754005,0.002751117036180677,0.0033130601262675243,0.0026842183498227068,6.689868635797016e-05,0.002751117036180677,0.0033130601262675243,0.0032029917929321527,0.17636704444885254,-0.00045187475675147583,0.9362503350555896,1.1274888027241239,0.9134836127774338,0.022766722278155793,0.9362503350555896,1.1274888027241239,0.6656013131141663,1.7360608577728271,0.2706490219414234,-0.9025641056676842,-1.0869218250486028,-0.8806165286548038,-0.021947577012880415,-0.9025641056676842,-1.0869218250486028,-0.6414511799812317,-1.7811347246170044,-0.2611129256864525,0.3533789687404668,0.004218869423298108,0.1295952161912675,-0.049156397581100464,-0.28000012040138245,1.862645149230957e-08,0.038835640996694565,-0.2799999713897705,1.4901161193847656e-08,0.12682759761810303,-0.27999991178512573,-1.4901161193847656e-08,,120.0,325.90000000003226,,
1776999728.7455328,325933350332,0.0019470934210363581,0.002159505599713257,0.0019035072042860694,4.3586216750288696e-05,0.0019035072042860694,0.0021992195950396136,0.001530445646494627,0.34102803468704224,0.0004166477745417311,-0.000670146632119252,-0.000743254221423146,-0.0006551452171658402,-1.5001414953411747e-05,-0.0006551452171658402,-0.0007569229031250409,0.0036570027004927397,0.3287520706653595,-0.0043271493326119915,0.002881243547619431,0.003195563966268315,0.0028167461257596954,6.449742185973568e-05,0.0028167461257596954,0.0032543314047222705,0.0039464994333684444,-0.010318383574485779,-0.0010652558857490134,0.9805345251979632,1.087502928724466,0.9585849926872593,0.021949532510703973,0.9585849926872593,1.1075024537244087,0.7160954475402832,1.5301095247268677,0.26443907765768004,-0.945254953376376,-1.0483746403326069,-0.9240951636934459,-0.021159789682930086,-0.9240951636934459,-1.0676545836548201,-0.6900453567504883,-1.5095291137695312,-0.2552095966258877,0.3481093719329777,0.004513763089688968,0.12301483016462003,-0.049156397581100464,-0.28000012040138245,1.862645149230957e-08,0.038835640996694565,-0.2799999713897705,1.4901161193847656e-08,0.12682759761810303,-0.27999991178512573,-1.4901161193847656e-08,,120.0,325.9166666666989,,
1776999728.781675,325950016999,0.002031916289996044,0.002080045896682241,0.001989889052459949,4.2027237536095e-05,0.001989889052459949,0.002119788161103286,0.001515912008471787,0.2635723650455475,0.0005160042815242571,-0.000699340793706923,-0.0007159059433178845,-0.0006848759450315577,-1.4464848675365283e-05,-0.0006848759450315577,-0.00072958435461896,0.00386744923889637,0.0748068243265152,-0.004566790032603293,0.003006761584525224,0.0030779821624471217,0.0029445710878254327,6.219049669979127e-05,0.0029445710878254327,0.003136791432559062,0.003944430500268936,-0.10054352134466171,-0.0009376689157437122,1.0232503757281581,1.0474879087248365,1.002085927757858,0.02116444797030015,1.002085927757858,1.067501669725406,0.7454584240913391,1.0719873905181885,0.277791951636819,-0.9864338902355342,-1.0097993582878944,-0.9660309377996028,-0.020402952435931376,-0.9660309377996028,-1.0290930254003812,-0.7183667421340942,-1.0172746181488037,-0.26806714810143994,0.34492273618817815,0.004734859391201808,0.11976931484574187,-0.049156397581100464,-0.28000012040138245,1.862645149230957e-08,0.038835640996694565,-0.2799999713897705,1.4901161193847656e-08,0.12682759761810303,-0.27999991178512573,-1.4901161193847656e-08,,120.0,325.93333333336557,,
1776999728.818216,325966683667,0.002031916289996044,0.002080045896682241,0.001989889052459949,4.2027237536095e-05,0.002031916289996044,0.002080045896682241,0.0015410742489621043,0.43004733324050903,0.0004908420410339397,-0.000699340793706923,-0.0007159059433178845,-0.0006848759450315577,-1.4464848675365283e-05,-0.000699340793706923,-0.0007159059433178845,0.0018468505004420877,0.09268343448638916,-0.0025461912941490104,0.003006761584525224,0.0030779821624471217,0.0029445710878254327,6.219049669979127e-05,0.003006761584525224,0.0030779821624471217,0.00348691176623106,0.05549062043428421,-0.0004801501817058361,1.0232503757281581,1.0474879087248365,1.002085927757858,0.02116444797030015,1.0232503757281581,1.0474879087248365,0.7911573052406311,1.4048185348510742,0.23209307048752703,-0.9864338902355342,-1.0097993582878944,-0.9660309377996028,-0.020402952435931376,-0.9864338902355342,-1.0097993582878944,-0.762502133846283,-1.401840329170227,-0.22393175638925122,0.33981760208253997,0.004914931585945007,0.11572198231771358,-0.049156397581100464,-0.28000012040138245,1.862645149230957e-08,0.038835640996694565,-0.2799999713897705,1.4901161193847656e-08,0.12682759761810303,-0.27999991178512573,-1.4901161193847656e-08,,120.0,325.9500000000322,,
1776999728.8544588,325983350334,0.002113503252058919,0.002000642100368837,0.002073093411652433,4.040984040648609e-05,0.002113503252058919,0.002000642100368837,0.001750847091898322,0.5515739917755127,0.00036265616016059685,-0.0007274212274758256,-0.0006885769070723879,-0.0007135130512371789,-1.3908176238646699e-05,-0.0007274212274758256,-0.0006885769070723879,0.002407327527180314,0.25471845269203186,-0.00313474875465614,0.0031274912349230004,0.0029604830875117555,0.0030676941082553202,5.979712666768014e-05,0.0031274912349230004,0.0029604830875117555,0.0038556542713195086,0.0920213907957077,-0.0007281630363965082,1.0643366596446644,1.0075010427244722,1.0439867148252697,0.020349944819394672,1.0643366596446644,1.0075010427244722,0.8394435048103333,1.442586898803711,0.22489315483433114,-1.0260418921873944,-0.9712512172633009,-1.0064241371291665,-0.019617755058227937,-1.0260418921873944,-0.9712512172633009,-0.8090255856513977,-1.4204213619232178,-0.21701630653599668,0.3341778148888412,0.005109770858257402,0.1105446011489443,-0.049156397581100464,-0.28000012040138245,1.862645149230957e-08,0.038835640996694565,-0.2799999713897705,1.4901161193847656e-08,0.12682759761810303,-0.27999991178512573,-1.4901161193847656e-08,,120.0,325.96666666669887,,
1776999728.9069898,326000017002,0.0022299750085029648,0.0018814892900799085,0.0021919384980092515,3.8036510493713246e-05,0.0022299750085029648,0.0018814892900799085,0.0017893853364512324,0.5358108878135681,0.0004405896720517323,-0.0007675082384403254,-0.0006475671364778911,-0.0007544169100379303,-1.3091328402395136e-05,-0.0007675082384403254,-0.0006475671364778911,0.002954197581857443,0.18290263414382935,-0.003721705820297768,0.0032998422341655982,0.002784164754700008,0.0032435570815119376,5.628515265366065e-05,0.0032998422341655982,0.002784164754700008,0.004181775730103254,0.0763077586889267,-0.0008819334959376561,1.1229905368392432,0.9474970167233059,1.1038357744872196,0.019154762352023624,1.1229905368392432,0.9474970167233059,0.886902391910553,1.40940260887146,0.23608814492869024,-1.0825854064932374,-0.9134061324217534,-1.0641198313108209,-0.018465575182416538,-1.0825854064932374,-0.9134061324217534,-0.8547483682632446,-1.3858630657196045,-0.2278370382299928,0.32839761174649607,0.005383612537842328,0.10582518344637543,-0.049156397581100464,-0.28000012040138245,1.862645149230957e-08,0.038835640996694565,-0.2799999713897705,1.4901161193847656e-08,0.12682759761810303,-0.27999991178512573,-1.4901161193847656e-08,,120.0,325.9833333333655,,
1776999728.9376292,326016683669,0.002303646388027273,0.0018020589661761858,0.0022672025873991517,3.6443800628121244e-05,0.0022672025873991517,0.0018417798043858585,0.0019082671497017145,0.4950944185256958,0.00039537923832555846,-0.0007928643031973577,-0.0006202289700204852,-0.0007803211504196352,-1.2543152777722499e-05,-0.0007803211504196352,-0.0006339000068920096,0.0027713587041944265,0.1276809275150299,-0.0035642230073917843,0.0034088586709761356,0.0026666264251259462,0.0033549303569691963,5.3928314006939336e-05,0.0033549303569691963,0.0027254039894489524,0.0042570605874061584,0.05013781040906906,-0.0008482019164300228,1.160090621695004,0.9074967917243782,1.1417379302631356,0.01835269143186835,1.1417379302631356,0.9274997627239621,0.9328906536102295,1.3737518787384033,0.2271999680847745,-1.118350632581033,-0.8748451130545941,-1.1006582698564662,-0.017692362724566868,-1.1006582698564662,-0.8941283783896246,-0.8990927338600159,-1.3578637838363647,-0.2192578987210172,0.3226520350101879,0.005548913068011833,0.10178142124035225,-0.049156397581100464,-0.28000012040138245,1.862645149230957e-08,0.038835640996694565,-0.2799999713897705,1.4901161193847656e-08,0.12682759761810303,-0.27999991178512573,-1.4901161193847656e-08,,120.0,326.0000000000322,,
1776999728.979075,326033350337,0.0023741880322856977,0.0017225738912573908,0.002339289016901095,3.4899015384602574e-05,0.002339289016901095,0.001762345606288873,0.0019958396442234516,0.571227490901947,0.0003783483880622461,-0.0008171431820704532,-0.0005928719594708928,-0.0008051317103189739,-1.2011471751479275e-05,-0.0008051317103189739,-0.0006065605070228409,0.002601235406473279,0.13463830947875977,-0.003418378588543732,0.003513243830497595,0.002549007076836287,0.0034616014378888024,5.1642392608792446e-05,0.0034616014378888024,0.0026078599269739105,0.0043205376714468,0.057250089943408966,-0.0008072938409492054,1.1956146067859743,0.8674689947252207,1.1780398519692263,0.017574754816747973,1.1780398519692263,0.8874975867246341,0.9772833585739136,1.3200373649597168,0.21833124821206074,-1.1525964668764914,-0.8362575137258667,-1.1356540506555506,-0.016942416220940837,-1.1356540506555506,-0.8555654782187981,-0.941899299621582,-1.2950717210769653,-0.2106971672549094,0.3169460042213489,0.005741856238629387,0.09810941479965564,-0.049156397581100464,-0.28000012040138245,1.862645149230957e-08,0.038835640996694565,-0.2799999713897705,1.4901161193847656e-08,0.12682759761810303,-0.27999991178512573,-1.4901161193847656e-08,,120.0,326.0166666666988,,
1776999729.0147934,326050017004,0.0024414077222852473,0.001643258416992971,0.0024081894186828647,3.321830360238261e-05,0.0024081894186828647,0.0016829214223123554,0.002076297765597701,0.5709133148193359,0.0003651099566875462,-0.0008402787175196586,-0.000565573321727663,-0.0008288457097125626,-1.1433007807095936e-05,-0.0008288457097125626,-0.0005792244537931532,0.0025498592294752598,0.11310649663209915,-0.0033901379469949183,0.003612713273510298,0.002431638697907186,0.003563557941833254,4.915533167704428e-05,0.003563557941833254,0.002490330683058429,0.004412822425365448,0.05840303748846054,-0.0008001091518551498,1.2294656927716614,0.8275266067235509,1.2127373256585359,0.01672836711312553,1.2127373256585359,0.8475004537246594,1.0201075077056885,1.2720236778259277,0.20935818506597292,-1.1852295928734349,-0.7977522503842175,-1.169103111378674,-0.016126481494760814,-1.169103111378674,-0.8170074396005373,-0.9831883907318115,-1.248913288116455,-0.20204120214162336,0.311301928425072,0.00590992886331254,0.09476433277703118,-0.049156397581100464,-0.28000012040138245,1.862645149230957e-08,0.038835640996694565,-0.2799999713897705,1.4901161193847656e-08,0.12682759761810303,-0.27999991178512573,-1.4901161193847656e-08,,120.0,326.0333333333655,,
1776999729.0518134,326066683672,0.002473917548150212,0.001603491706044425,0.0024414077222852473,3.250982586496453e-05,0.002473917548150212,0.001603491706044425,0.0021617759484797716,0.5668321847915649,0.0003121415996704402,-0.0008514678829078289,-0.0005518864964708297,-0.0008402787175196586,-1.118916538817038e-05,-0.0008514678829078289,-0.0005518864964708297,0.0024928224738687277,0.09995083510875702,-0.003344290356776557,0.0036608202235906945,0.00237279325264377,0.003612713273510298,4.810695008039632e-05,0.0036608202235906945,0.00237279325264377,0.004498172551393509,0.05217176675796509,-0.0008373523278028144,1.2458372783999518,0.807500534724579,1.2294656927716614,0.01637158562829044,1.2458372783999518,0.807500534724579,1.0613123178482056,1.2241209745407104,0.18452496055174628,-1.2010121298592082,-0.7784467152222128,-1.1852295928734349,-0.015782536985773366,-1.2010121298592082,-0.7784467152222128,-1.0229171514511108,-1.2006474733352661,-0.1780949784080974,0.3057520309924688,0.006060363665094829,0.09177608385168204,-0.049156397581100464,-0.28000012040138245,1.862645149230957e-08,0.038835640996694565,-0.2799999713897705,1.4901161193847656e-08,0.12682759761810303,-0.27999991178512573,-1.4901161193847656e-08,,120.0,326.0500000000321,,
1776999729.0883381,326083350339,0.002536474420938796,0.0015240542691929832,0.0025055876479598725,3.0886772978923425e-05,0.002536474420938796,0.0015240542691929832,0.0022439707536250353,0.24435526132583618,0.0002925036673137606,-0.0008729985794641659,-0.0005245458818935394,-0.0008623680330994001,-1.0630546364765792e-05,-0.0008729985794641659,-0.0005245458818935394,0.0028210491873323917,0.06317552924156189,-0.0036940477667965575,0.0037533897860646983,0.0022552443975682054,0.0037076845752151127,4.570521084958567e-05,0.0037533897860646983,0.0022552443975682054,0.004496903158724308,-0.07075680792331696,-0.0007435133726596097,1.2773402216562464,0.7674967277243755,1.2617859873547068,0.015554234301539571,1.2773402216562464,0.7674967277243755,1.0852197408676147,0.8627529740333557,0.19212048078863164,-1.2313815991575379,-0.7398822427340493,-1.21638700524812,-0.01499459390941782,-1.2313815991575379,-0.7398822427340493,-1.0459909439086914,-0.8289101123809814,-0.18539065524884646,0.3024937485668412,0.0061620099333709166,0.09003062832263123,-0.049156397581100464,-0.28000012040138245,1.862645149230957e-08,0.038835640996694565,-0.2799999713897705,1.4901161193847656e-08,0.12682759761810303,-0.27999991178512573,-1.4901161193847656e-08,,120.0,326.0666666666988,,
1776999729.1252427,326100017007,0.002595844255469628,0.0014446295311920563,0.002566552355736927,2.929189973270097e-05,0.002595844255469628,0.0014446295311920563,0.002188857411965728,0.47324052453041077,0.0004069868435039002,-0.0008934323677099994,-0.000497209637980787,-0.0008833507415578271,-1.0081626152172321e-05,-0.0008934323677099994,-0.000497209637980787,0.0017552817007526755,0.08155011385679245,-0.0026487140684626747,0.0038412432762039398,0.0021377143338260334,0.0037978981052991757,4.3345170904764054e-05,0.0038412432762039398,0.0021377143338260334,0.004364673513919115,0.03851155936717987,-0.0005234302377151753,1.3072382080003153,0.7274993157238293,1.2924871340732804,0.014751073927034897,1.3072382080003153,0.7274993157238293,1.120849609375,1.0791836977005005,0.18638859862531532,-1.2602038577944843,-0.7013239351537027,-1.2459835265987662,-0.014220331195718083,-1.2602038577944843,-0.7013239351537027,-1.080353856086731,-1.0732142925262451,-0.17985000170775334,0.2975912129252839,0.006296606639278648,0.0880896711105744,-0.049156397581100464,-0.28000012040138245,1.862645149230957e-08,0.038835640996694565,-0.2799999713897705,1.4901161193847656e-08,0.12682759761810303,-0.27999991178512573,-1.4901161193847656e-08,,120.0,326.08333333336543,,
1776999729.1775808,326116683674,0.002678980676221499,0.0013254352863124356,0.0026520397702231562,2.694090599834279e-05,0.0026520397702231562,0.0013652012089208556,0.002382609061896801,0.4907956123352051,0.000296371614324698,-0.0009220460910020555,-0.000456185606513694,-0.0009127736250659213,-9.272465936134241e-06,-0.0009127736250659213,-0.0004698721604413237,0.002134131034836173,0.1374993920326233,-0.0030561771258382285,0.003964265763607756,0.0019613346874964893,0.003924399514389252,3.986624921850385e-05,0.003924399514389252,0.0020201789662007254,0.004599129315465689,0.020145799964666367,-0.0006348635518579329,1.3491047820269508,0.6674744237250034,1.3355376423170198,0.013567139709931064,1.3355376423170198,0.6875000987247959,1.1574777364730835,1.1042373180389404,0.19162704555386734,-1.3005640750663703,-0.6434587350717901,-1.287485080207548,-0.013078994858822357,-1.287485080207548,-0.6627638875185505,-1.1156545877456665,-1.0821948051452637,-0.18490948732070378,0.29242395935686,0.0063617081059115475,0.08573478682261315,-0.049156397581100464,-0.28000012040138245,1.862645149230957e-08,0.038835640996694565,-0.2799999713897705,1.4901161193847656e-08,0.12682759761810303,-0.27999991178512573,-1.4901161193847656e-08,,120.0,326.1000000000321,,
1776999729.212836,326133350342,0.0027303740354899133,0.0012460619116398345,0.0027050560464622663,2.5317989027647068e-05,0.0027050560464622663,0.00128577623461633,0.002402757527306676,0.48584774136543274,0.00032761650818323744,-0.0009397345523028451,-0.00042886704072630713,-0.0009310206586110468,-8.713893691798228e-06,-0.0009310206586110468,-0.0004425358351981301,0.0019910382106900215,0.15527015924453735,-0.0029307727629928667,0.004040315933149078,0.0018438806294850123,0.004002851222038411,3.746471111066695e-05,0.004002851222038411,0.0019026485527843273,0.0048299324698746204,0.057414259761571884,-0.0007896165367255424,1.3749859044138575,0.6275028777236067,1.3622360475852224,0.012749856828635053,1.3622360475852224,0.6475025677244056,1.2067512273788452,1.3624753952026367,0.16823467703501227,-1.3255139962639177,-0.6049253628335302,-1.313222878498662,-0.012291117765255821,-1.313222878498662,-0.6242054652199522,-1.1631275415420532,-1.3624690771102905,-0.16238645472186453,0.2853563406732467,0.006527296385378776,0.08312463991021503,-0.049156397581100464,-0.28000012040138245,1.862645149230957e-08,0.038835640996694565,-0.2799999713897705,1.4901161193847656e-08,0.12682759761810303,-0.27999991178512573,-1.4901161193847656e-08,,120.0,326.11666666669873,,
1776999729.252205,326150017010,0.002754903298341056,0.0012063384562164521,0.0027303740354899133,2.4529262851142458e-05,0.002754903298341056,0.0012063384562164521,0.0026033511385321617,0.053415149450302124,0.0001515521598088941,-0.000948176983832048,-0.00041519510306759725,-0.0009397345523028451,-8.442431529202886e-06,-0.000948176983832048,-0.00041519510306759725,0.0029130256734788418,0.09710460901260376,-0.00386120265731089,0.004076613513714113,0.0017850991922970924,0.004040315933149078,3.6297580565034654e-05,0.004076613513714113,0.0017850991922970924,0.00491559412330389,-0.08089853823184967,-0.0008389806095897775,1.3873385675389782,0.6074985887244472,1.3749859044138575,0.012352663125120733,1.3873385675389782,0.6074985887244472,1.22960364818573,0.7888563871383667,0.15773491935324824,-1.3374222113306466,-0.5856408269204281,-1.3255139962639177,-0.0119082150667289,-1.3374222113306466,-0.5856408269204281,-1.18519127368927,-0.7958473563194275,-0.15223093764137663,0.2820485362211605,0.006573742249162684,0.08171070468924159,-0.049156397581100464,-0.28000012040138245,1.862645149230957e-08,0.038835640996694565,-0.2799999713897705,1.4901161193847656e-08,0.12682759761810303,-0.27999991178512573,-1.4901161193847656e-08,,120.0,326.1333333333654,,
1776999729.2899215,326166683677,0.0028015661351056824,0.001126912286491311,0.0027786284662300377,2.293766887564476e-05,0.0028015661351056824,0.001126912286491311,0.002447411185130477,0.3943999409675598,0.00035415494997520546,-0.0009642373035707387,-0.0003878583663869584,-0.000956342663601436,-7.894639969302747e-06,-0.0009642373035707387,-0.0003878583663869584,0.001705627073533833,0.013484179973602295,-0.0026698643771045716,0.004145663614694956,0.0016675670099372448,0.0041117212215199,3.394239317505623e-05,0.004145663614694956,0.0016675670099372448,0.004706691484898329,-0.024877037853002548,-0.0005610278702033724,1.4108374515663509,0.567500455723568,1.3992862974115816,0.011551154154769261,1.4108374515663509,0.567500455723568,1.259865641593933,0.9350775480270386,0.15097180997241777,-1.3600756069581044,-0.5470818242812513,-1.3489400626183417,-0.011135544339762715,-1.3600756069581044,-0.5470818242812513,-1.2143818140029907,-0.92232745885849,-0.14569379295511364,0.2777006863961557,0.006721694326775754,0.08073711981368531,-0.049156397581100464,-0.28000012040138245,1.862645149230957e-08,0.038835640996694565,-0.2799999713897705,1.4901161193847656e-08,0.12682759761810303,-0.27999991178512573,-1.4901161193847656e-08,,120.0,326.15000000003204,,
1776999729.3262875,326183350345,0.0028450566142036488,0.0010474775085580902,0.002823705818091712,2.1350796111936632e-05,0.0028450566142036488,0.0010474775085580902,0.0026466338895261288,0.48823991417884827,0.00019842272467752,-0.0009792057677347442,-0.0003605186669508608,-0.0009718572943883229,-7.3484733464213156e-06,-0.0009792057677347442,-0.0003605186669508608,0.0018531566020101309,0.08783038705587387,-0.002832362369744875,0.0042100193671874,0.0015500220894395951,0.0041784251751114465,3.159419207595347e-05,0.0042100193671874,0.0015500220894395951,0.0048337671905756,-0.024956893175840378,-0.0006237478233881997,1.4327387716633895,0.5274979877251115,1.421986748929384,0.01075202273400544,1.4327387716633895,0.5274979877251115,1.2902805805206299,0.9287292957305908,0.1424581911427596,-1.3811889189070403,-0.508518642617434,-1.3708237532887448,-0.01036516561829548,-1.3811889189070403,-0.508518642617434,-1.243706226348877,-0.9098709225654602,-0.13748269255816337,0.27323558966126715,0.0067069843355596235,0.07940903537529395,-0.049156397581100464,-0.28000012040138245,1.862645149230957e-08,0.038835640996694565,-0.2799999713897705,1.4901161193847656e-08,0.12682759761810303,-0.27999991178512573,-1.4901161193847656e-08,,120.0,326.1666666666987,,
1776999729.365877,326200017012,0.0029043688112765646,0.0009282516386698977,0.002885366183804805,1.9002627471759615e-05,0.002885366183804805,0.0009680495457018194,0.0026512069161981344,0.4763018786907196,0.0002531618950784302,-0.0009996197184381742,-0.0003194837508529554,-0.0009930794329726525,-6.5402854655216384e-06,-0.0009930794329726525,-0.00033318131311406185,0.0020065263379365206,0.05783170461654663,-0.0030061460563746947,0.004297787567349324,0.0013735956454833517,0.004269668116479996,2.8119450869328044e-05,0.004269668116479996,0.0014324872536648585,0.004940688144415617,-0.0014651194214820862,-0.0006429005770662933,1.4626077324266513,0.4674571697247921,1.4530382212238362,0.009569511202815129,1.4530382212238362,0.4874989517234415,1.3194224834442139,0.8744138479232788,0.14318524898243745,-1.4099831963017893,-0.45063808955064316,-1.400757995522627,-0.009225200779162224,-1.400757995522627,-0.46995876946743737,-1.2717974185943604,-0.8559930920600891,-0.1381857777074289,0.2689073814948107,0.006823187325372415,0.07829991691862112,-0.049156397581100464,-0.28000012040138245,1.862645149230957e-08,0.038835640996694565,-0.2799999713897705,1.4901161193847656e-08,0.12682759761810303,-0.27999991178512573,-1.4901161193847656e-08,,120.0,326.18333333336534,,
1776999729.4022372,326216683680,0.0029398752789742883,0.0008489036378736876,0.002922498213832033,1.737706514225515e-05,0.002922498213832033,0.0008886226948708925,0.0027268696576356888,0.42771071195602417,0.00021300562133859955,-0.0010118402618846287,-0.00029217391819445527,-0.0010058594591376292,-5.980802746999563e-06,-0.0010058594591376292,-0.00030584434201184945,0.0018925308249890804,0.04361802339553833,-0.002904371086873709,0.004350328847519834,0.001256179134883268,0.004324614849271594,2.571399824824027e-05,0.004324614849271594,0.001314954063427656,0.0049766479060053825,0.004471499472856522,-0.0006263190584855482,1.4804883934515929,0.42749840172450354,1.4717374973032575,0.008750896148335352,1.4717374973032575,0.44750047572530316,1.3470346927642822,0.8221114277839661,0.13345370068731066,-1.4272205122443946,-0.4121170355617683,-1.418784472800474,-0.008436039443920684,-1.418784472800474,-0.43139943617203746,-1.2984241247177124,-0.8133260011672974,-0.1287963875266822,0.26481278321864277,0.006847064551408832,0.07742362744831727,-0.049156397581100464,-0.28000012040138245,1.862645149230957e-08,0.038835640996694565,-0.2799999713897705,1.4901161193847656e-08,0.12682759761810303,-0.27999991178512573,-1.4901161193847656e-08,,120.0,326.200000000032,,
1776999729.4573226,326233350347,0.0029722425476278735,0.0007694744815873118,0.002956457212212138,1.5785335415735482e-05,0.002956457212212138,0.0008091862211050036,0.0027718432247638702,0.4612499177455902,0.0002003993228640033,-0.0010229803622232932,-0.000264836153605295,-0.0010175473977587037,-5.432964464589449e-06,-0.0010175473977587037,-0.000278504058907555,0.0018269185675308108,0.05297356843948364,-0.002849898929754104,0.00439822484621956,0.0011386425331103088,0.004374866236241113,2.3358609978446458e-05,0.004374866236241113,0.0011974066334940337,0.005011373199522495,0.0036600157618522644,-0.0006131483533029355,1.4967881888585872,0.3874987647246945,1.4888388700433053,0.007949318815281936,1.4888388700433053,0.4074971537244954,1.3730313777923584,0.771586537361145,0.12375681106622882,-1.4429338420166153,-0.3735565830374965,-1.4352705392026754,-0.007663302813939898,-1.4352705392026754,-0.3928354312328257,-1.3234935998916626,-0.7635179758071899,-0.11944024212495274,0.26093185937713687,0.00690018711116515,0.07668487713594475,-0.049156397581100464,-0.28000012040138245,1.862645149230957e-08,0.038835640996694565,-0.2799999713897705,1.4901161193847656e-08,0.12682759761810303,-0.27999991178512573,-1.4901161193847656e-08,,120.0,326.21666666669864,,
1776999729.4941008,326250017015,0.0030015007787336273,0.0006898493261200743,0.0029872344237465687,1.4266354987058603e-05,0.0029872344237465687,0.000729760805964445,0.0028138412162661552,0.560094952583313,0.00018765956246747208,-0.0010330504003762916,-0.00023743093041887187,-0.0010281402354895411,-4.910164886750418e-06,-0.0010281402354895411,-0.00025116758193831823,0.0016120687359943986,0.0793236717581749,-0.0026451191363706904,0.0044415201954192615,0.0010208158983225223,0.0044204093217393384,2.111087367992308e-05,0.0044204093217393384,0.0010798755677431696,0.005126321688294411,0.042264312505722046,-0.0006848014928751492,1.5115223076406967,0.3474004247239745,1.504337930423657,0.007184377217039684,1.504337930423657,0.3674994007239681,1.406686782836914,0.9158514738082886,0.10483552480378266,-1.4571378281124774,-0.3349009788402122,-1.4502119443451924,-0.006925883767284979,-1.4502119443451924,-0.35427679492168196,-1.3559236526489258,-0.9201173782348633,-0.1012141754635516,0.25587593699454536,0.006941899028500433,0.07590762125870841,-0.049156397581100464,-0.28000012040138245,1.862645149230957e-08,0.038835640996694565,-0.2799999713897705,1.4901161193847656e-08,0.12682759761810303,-0.27999991178512573,-1.4901161193847656e-08,,120.0,326.2333333333653,,
1776999729.530823,326266683682,0.00302744331080075,0.0006106238498820113,0.003014835736876855,1.2607573923894937e-05,0.003014835736876855,0.0006503325214219621,0.0029376554302871227,0.262576162815094,8.978788051362731e-05,-0.0010419792480143143,-0.00021016326801229853,-0.0010376399990019085,-4.33924901240587e-06,-0.0010376399990019085,-0.00022383011738421913,0.0019821960013359785,0.04414309561252594,-0.0030241752493502926,0.004479909084375357,0.0009035806954546975,0.004461252819284583,1.865626509077456e-05,0.004461252819284583,0.0009623402559476817,0.005202862899750471,-0.05301329120993614,-0.0007229538153751139,1.524586677376653,0.3075033587242226,1.5182376437977796,0.006349033578873398,1.5182376437977796,0.32750020272465535,1.4306223392486572,0.7205582857131958,0.09396433812799576,-1.4697321426300238,-0.29643940681782904,-1.4636115468882542,-0.006120595741769597,-1.4636115468882542,-0.3157167656027369,-1.3790150880813599,-0.7052175998687744,-0.09071705454866397,0.2522633762237653,0.006985691903926355,0.07530351344741568,-0.049156397581100464,-0.28000012040138245,1.862645149230957e-08,0.038835640996694565,-0.2799999713897705,1.4901161193847656e-08,0.12682759761810303,-0.27999991178512573,-1.4901161193847656e-08,,120.0,326.25000000003195,,
1776999729.585098,326283350350,0.003060506745781722,0.0004914776263193156,0.003050279898854135,1.0226846927586988e-05,0.003050279898854135,0.0005311931069836847,0.0029053299222141504,0.2530936002731323,0.0001551768235675717,-0.0010533589534559753,-0.00016915576442376793,-0.0010498390981929062,-3.519855263069138e-06,-0.0010498390981929062,-0.00018282495734622754,0.0018185569206252694,-0.011287525296211243,-0.002871915874081245,0.004528835246660038,0.0007272721094595612,0.004513701901539433,1.5133345120605345e-05,0.004513701901539433,0.0007860417458665469,0.005070962943136692,-0.03883899003267288,-0.000542127696476654,1.5412370543797382,0.24750264972491762,1.5360869283569836,0.005150126022754664,1.5360869283569836,0.26750292272439763,1.4434406757354736,0.44421815872192383,0.0977963786442646,-1.4857834400940975,-0.23859751963246772,-1.4808186152884253,-0.0049648248056721744,-1.4808186152884253,-0.25787818404134066,-1.3914074897766113,-0.44176173210144043,-0.09437595031748613,0.2503577477421037,0.007025926592405145,0.07512286060284436,-0.049156397581100464,-0.28000012040138245,1.862645149230957e-08,0.038835640996694565,-0.2799999713897705,1.4901161193847656e-08,0.12682759761810303,-0.27999991178512573,-1.4901161193847656e-08,,120.0,326.2666666666986,,
1776999729.6058047,326300017017,0.0030699476195756065,0.0004517254530219529,0.003060506745781722,9.440873793884353e-06,0.003060506745781722,0.0004914776263193156,0.00291001726873219,0.33845075964927673,0.00015993035084341635,-0.0010566082940930922,-0.00015547394270593024,-0.0010533589534559753,-3.249340637116911e-06,-0.0010533589534559753,-0.00016915576442376793,0.0012401890708133578,0.031014882028102875,-0.0022967973649064503,0.004542805535095426,0.0006684481765248212,0.004528835246660038,1.3970288435387855e-05,0.004528835246660038,0.0007272721094595612,0.00510210869833827,0.010539650917053223,-0.0005593031632428443,1.5459913731006216,0.22748389872483105,1.5412370543797382,0.004754318720883388,1.5412370543797382,0.24750264972491762,1.4687494039535522,0.7019620537757874,0.07724196914706938,-1.4903666987202402,-0.2192990420602903,-1.4857834400940975,-0.004583258626142728,-1.4857834400940975,-0.23859751963246772,-1.415790319442749,-0.7058507800102234,-0.07457637927749117,0.2465504322070027,0.0070408076463885,0.07488426430403995,-0.049156397581100464,-0.28000012040138245,1.862645149230957e-08,0.038835640996694565,-0.2799999713897705,1.4901161193847656e-08,0.12682759761810303,-0.27999991178512573,-1.4901161193847656e-08,,120.0,326.28333333336525,,
1776999729.6524675,326316683685,0.003078578784447948,0.0004120403701698269,0.0030699476195756065,8.631164872341304e-06,0.003078578784447948,0.0004120403701698269,0.003039530711248517,-0.08090268075466156,3.904807319943075e-05,-0.0010595789507693342,-0.0001418152120403678,-0.0010566082940930922,-2.970656676241955e-06,-0.0010595789507693342,-0.0001418152120403678,0.0018417179817333817,0.056244537234306335,-0.002901296932502716,0.004555577643422741,0.0006097235217810822,0.004542805535095426,1.2772108327315304e-05,0.004555577643422741,0.0006097235217810822,0.005157924257218838,-0.032577525824308395,-0.0006023466137960965,1.5503379314416719,0.2074989337245529,1.5459913731006216,0.004346558341050244,1.5503379314416719,0.2074989337245529,1.4805573225021362,0.39166906476020813,0.06978060893953564,-1.4945568681599,-0.20003313486969468,-1.4903666987202402,-0.004190169439659774,-1.4945568681599,-0.20003313486969468,-1.4271987676620483,-0.41399016976356506,-0.06735810049785163,0.2447456647823191,0.007054099874245432,0.07456494067026664,-0.049156397581100464,-0.28000012040138245,1.862645149230957e-08,0.038835640996694565,-0.2799999713897705,1.4901161193847656e-08,0.12682759761810303,-0.27999991178512573,-1.4901161193847656e-08,,120.0,326.3000000000319,,
1776999729.6938121,326333350352,0.0030997333294235456,0.00029285170523683514,0.003093471431183157,6.26189824038878e-06,0.003093471431183157,0.0003326127051788826,0.002939485479146242,0.4652455151081085,0.0001602478502773035,-0.0010668598788009542,-0.00010079310106771176,-0.001064704671469281,-2.1552073316730928e-06,-0.001064704671469281,-0.00011447796072211197,0.0013994495384395123,-0.011097431182861328,-0.0024663094172404664,0.004586881429648527,0.0004333521324692954,0.00457761528262854,9.266147019987292e-06,0.00457761528262854,0.0004921891267768896,0.005110493861138821,0.026430435478687286,-0.0005236124314902937,1.560991124292779,0.1474768517244292,1.5578377021962109,0.0031534220965681037,1.5578377021962109,0.16750004772436503,1.4957787990570068,0.4371686279773712,0.06521232523577214,-1.5048267597883995,-0.14217064368308197,-1.501786797624634,-0.003039962163765564,-1.501786797624634,-0.16147340632424184,-1.4418727159500122,-0.4498556852340698,-0.06295404383838732,0.24245432964080063,0.0070943280313053095,0.07453232079551565,-0.049156397581100464,-0.28000012040138245,1.862645149230957e-08,0.038835640996694565,-0.2799999713897705,1.4901161193847656e-08,0.12682759761810303,-0.27999991178512573,-1.4901161193847656e-08,,120.0,326.31666666669855,,
1776999729.7677689,326350017020,0.003116804380023631,0.0001340318943103907,0.0031137250324252356,3.0793475983953954e-06,0.0031137250324252356,0.00017376466487411448,0.0030615266878157854,0.28169021010398865,5.5277692207845574e-05,-0.0010727353580885872,-4.613082330732247e-05,-0.0010716755145290051,-1.0598435595820816e-06,-0.0010716755145290051,-5.980596703199787e-05,0.0013773307437077165,0.0180269256234169,-0.002450066101796304,0.004612142597839624,0.0001983359023685129,0.004607585882531103,4.556715308520927e-06,0.004607585882531103,0.00025713112378877514,0.00521527323871851,0.0022215060889720917,-0.0006031306408788859,1.5695879149315535,0.06749696672441324,1.5680371898339849,0.0015507250975685949,1.5680371898339849,0.08750594672434117,1.5157301425933838,0.5441082715988159,0.053857772338169685,-1.5131142384295013,-0.06506843001908222,-1.511619308325428,-0.001494930104073422,-1.511619308325428,-0.0843574881510419,-1.4610964059829712,-0.5502821207046509,-0.05201783244653013,0.23942431958120022,0.007071491503113135,0.07436238455387158,-0.049156397581100464,-0.28000012040138245,1.862645149230957e-08,0.038835640996694565,-0.2799999713897705,1.4901161193847656e-08,0.12682759761810303,-0.27999991178512573,-1.4901161193847656e-08,,120.0,326.3333333333652,,
1776999729.8216124,326366683688,0.003121271986379026,1.4882120231136576e-05,0.003120577069228758,6.949171502679263e-07,0.003120577069228758,5.4601618062513036e-05,0.0030799666419625282,0.5331117510795593,4.130534441649765e-05,-0.0010742730097083582,-5.122097709277641e-06,-0.0010740338345445876,-2.391751637706094e-07,-0.0010740338345445876,-1.8792673252097764e-05,0.00144197850022465,0.04907757043838501,-0.002516251509933008,0.004618753611900738,2.202206243771809e-05,0.004617725296806199,1.0283150945391423e-06,0.004617725296806199,8.079764331399485e-05,0.005375627428293228,0.02965708076953888,-0.00075687381639249,1.5718377516518287,0.0074944697243852325,1.5714877991274019,0.000349952524426822,1.5714877991274019,0.027496765724447852,1.5414766073226929,0.6327894330024719,0.030361144329135836,-1.515283126163159,-0.007224819165387162,-1.5149457649090057,-0.00033736125415329,-1.5149457649090057,-0.02650743378734857,-1.485895037651062,-0.6410021781921387,-0.029388088512096955,0.23548565585993728,0.007092080099146237,0.07422592529136203,-0.049156397581100464,-0.28000012040138245,1.862645149230957e-08,0.038835640996694565,-0.2799999713897705,1.4901161193847656e-08,0.12682759761810303,-0.27999991178512573,-1.4901161193847656e-08,,120.0,326.35000000003186,,
1776999729.8613029,326383350355,0.0031213277531787747,-3.5742771268726957e-19,0.003121271986379026,5.5766799748804136e-08,0.0031213277531787747,-3.5742771268726957e-19,0.0031833890825510025,-0.16637511551380157,-6.206132937222782e-05,-0.0010742922034114605,1.230187392631471e-19,-0.0010742730097083582,-1.9193703102360002e-08,-0.0010742922034114605,1.230187392631471e-19,0.0017695286078378558,0.021754786372184753,-0.0028438208112493164,0.004618836133740842,-5.289095427031059e-19,0.004618753611900738,8.252184010345415e-08,0.004618836133740842,-5.289095427031059e-19,0.005317546892911196,-0.024315347895026207,-0.0006987107591703541,1.5718658351900543,-1.7999660867112602e-16,1.5718377516518287,2.808353822558729e-05,1.5718658351900543,-1.7999660867112602e-16,1.5497896671295166,0.23821355402469635,0.022076168060537693,-1.5153101992574074,1.7352034177784857e-16,-1.515283126163159,-2.7073094248430962e-05,-1.5153101992574074,1.7352034177784857e-16,-1.4939515590667725,-0.2664937973022461,-0.021358640190634937,0.2342387061614417,0.00711163975659344,0.07411232538134047,-0.049156397581100464,-0.28000012040138245,1.862645149230957e-08,0.038835640996694565,-0.2799999713897705,1.4901161193847656e-08,0.12682759761810303,-0.27999991178512573,-1.4901161193847656e-08,,120.0,326.3666666666985,,
1776999729.8836865,326400017023,0.0031213277531787747,-3.5742771268726957e-19,0.0031213277531787747,0.0,0.0031213277531787747,-3.5742771268726957e-19,0.0030711274594068527,0.41141173243522644,5.0200293771921964e-05,-0.0010742922034114605,1.230187392631471e-19,-0.0010742922034114605,0.0,-0.0010742922034114605,1.230187392631471e-19,0.0013099664356559515,-0.03387255221605301,-0.002384258639067412,0.004618836133740842,-5.289095427031059e-19,0.004618836133740842,0.0,0.004618836133740842,-5.289095427031059e-19,0.005196187645196915,0.0032124221324920654,-0.0005773515114560731,1.5718658351900543,-1.7999660867112602e-16,1.5718658351900543,0.0,1.5718658351900543,-1.7999660867112602e-16,1.557220697402954,0.19782058894634247,0.014645137787100193,-1.5153101992574074,1.7352034177784857e-16,-1.5153101992574074,0.0,-1.5153101992574074,1.7352034177784857e-16,-1.5011290311813354,-0.20876020193099976,-0.014181168076071948,0.23313760495771194,0.007143113027620003,0.07422665444708396,-0.049156397581100464,-0.28000012040138245,1.862645149230957e-08,0.038835640996694565,-0.2799999713897705,1.4901161193847656e-08,0.12682759761810303,-0.27999991178512573,-1.4901161193847656e-08,,120.0,326.38333333336516,,
1776999729.9044588,326416683690,0.0031213277531787747,-3.5742771268726957e-19,0.0031213277531787747,0.0,0.0031213277531787747,-3.5742771268726957e-19,0.003151285694912076,0.0733657032251358,-2.995794173330131e-05,-0.0010742922034114605,1.230187392631471e-19,-0.0010742922034114605,0.0,-0.0010742922034114605,1.230187392631471e-19,0.0013393054250627756,0.03593003749847412,-0.002413597628474236,0.004618836133740842,-5.289095427031059e-19,0.004618836133740842,0.0,0.004618836133740842,-5.289095427031059e-19,0.00516503257676959,-0.019303947687149048,-0.0005461964430287488,1.5718658351900543,-1.7999660867112602e-16,1.5718658351900543,0.0,1.5718658351900543,-1.7999660867112602e-16,1.5610798597335815,0.11497411131858826,0.010785975456472752,-1.5153101992574074,1.7352034177784857e-16,-1.5153101992574074,0.0,-1.5153101992574074,1.7352034177784857e-16,-1.504866600036621,-0.13585226237773895,-0.010443599220786304,0.23256869211108452,0.007119861568541615,0.07420337202230783,-0.049156397581100464,-0.28000012040138245,1.862645149230957e-08,0.038835640996694565,-0.2799999713897705,1.4901161193847656e-08,0.12682759761810303,-0.27999991178512573,-1.4901161193847656e-08,,120.0,326.4000000000318,,
1776999729.935822,326433350358,0.0031213277531787747,-3.5742771268726957e-19,0.0031213277531787747,0.0,0.0031213277531787747,-3.5742771268726957e-19,0.0030977327842265368,0.14505864679813385,2.3594968952237935e-05,-0.0010742922034114605,1.230187392631471e-19,-0.0010742922034114605,0.0,-0.0010742922034114605,1.230187392631471e-19,0.0013132186140865088,0.018635012209415436,-0.0023875108174979693,0.004618836133740842,-5.289095427031059e-19,0.004618836133740842,0.0,0.004618836133740842,-5.289095427031059e-19,0.005146860145032406,-0.02089371345937252,-0.0005280240112915642,1.5718658351900543,-1.7999660867112602e-16,1.5718658351900543,0.0,1.5718658351900543,-1.7999660867112602e-16,1.5639311075210571,0.08678819984197617,0.007934727668997166,-1.5153101992574074,1.7352034177784857e-16,-1.5153101992574074,0.0,-1.5153101992574074,1.7352034177784857e-16,-1.5076186656951904,-0.10247709602117538,-0.007691533562216968,0.23213255695775636,0.00715135232458584,0.07421796775920007,-0.049156397581100464,-0.28000012040138245,1.862645149230957e-08,0.038835640996694565,-0.2799999713897705,1.4901161193847656e-08,0.12682759761810303,-0.27999991178512573,-1.4901161193847656e-08,,120.0,326.41666666669846,,
1776999729.973453,326450017025,0.0031213277531787747,-3.5742771268726957e-19,0.0031213277531787747,0.0,0.0031213277531787747,-3.5742771268726957e-19,0.0031317644752562046,0.18975499272346497,-1.0436722077429919e-05,-0.0010742922034114605,1.230187392631471e-19,-0.0010742922034114605,0.0,-0.0010742922034114605,1.230187392631471e-19,0.0012552764965221286,0.023559942841529846,-0.002329568699933589,0.004618836133740842,-5.289095427031059e-19,0.004618836133740842,0.0,0.004618836133740842,-5.289095427031059e-19,0.005151586607098579,-0.004323987290263176,-0.0005327504733577378,1.5718658351900543,-1.7999660867112602e-16,1.5718658351900543,0.0,1.5718658351900543,-1.7999660867112602e-16,1.567742943763733,0.08998420834541321,0.0041228914263213845,-1.5153101992574074,1.7352034177784857e-16,-1.5153101992574074,0.0,-1.5153101992574074,1.7352034177784857e-16,-1.5112943649291992,-0.10988733917474747,-0.004015834328208179,0.23156102671804973,0.007131811360014855,0.07422890771579123,-0.049156397581100464,-0.28000012040138245,1.862645149230957e-08,0.038835640996694565,-0.2799999713897705,1.4901161193847656e-08,0.12682759761810303,-0.27999991178512573,-1.4901161193847656e-08,,120.0,326.4333333333651,,
1776999730.0102894,326466683693,0.0031213277531787747,-3.5742771268726957e-19,0.0031213277531787747,0.0,0.0031213277531787747,-3.5742771268726957e-19,0.0031313220970332623,0.09913577139377594,-9.994343854487567e-06,-0.0010742922034114605,1.230187392631471e-19,-0.0010742922034114605,0.0,-0.0010742922034114605,1.230187392631471e-19,0.0013175008352845907,0.0026681944727897644,-0.0023917930386960513,0.004618836133740842,-5.289095427031059e-19,0.004618836133740842,0.0,0.004618836133740842,-5.289095427031059e-19,0.00516925984993577,-0.01177711971104145,-0.0005504237161949284,1.5718658351900543,-1.7999660867112602e-16,1.5718658351900543,0.0,1.5718658351900543,-1.7999660867112602e-16,1.5704466104507446,0.05632742494344711,0.0014192247393096658,-1.5153101992574074,1.7352034177784857e-16,-1.5153101992574074,0.0,-1.5153101992574074,1.7352034177784857e-16,-1.5139005184173584,-0.0748765766620636,-0.001409680840048999,0.23114247640970872,0.007143158194895677,0.07421993459116916,-0.049156397581100464,-0.28000012040138245,1.862645149230957e-08,0.038835640996694565,-0.2799999713897705,1.4901161193847656e-08,0.12682759761810303,-0.27999991178512573,-1.4901161193847656e-08,,120.0,326.45000000003176,,
1776999730.0483825,326483350360,0.0031213277531787747,-3.5742771268726957e-19,0.0031213277531787747,0.0,0.0031213277531787747,-3.5742771268726957e-19,0.0031370846554636955,0.13427232205867767,-1.575690228492084e-05,-0.0010742922034114605,1.230187392631471e-19,-0.0010742922034114605,0.0,-0.0010742922034114605,1.230187392631471e-19,0.0012987545924261212,0.023578524589538574,-0.0023730467958375818,0.004618836133740842,-5.289095427031059e-19,0.004618836133740842,0.0,0.004618836133740842,-5.289095427031059e-19,0.005151607561856508,-0.012200864031910896,-0.0005327714281156666,1.5718658351900543,-1.7999660867112602e-16,1.5718658351900543,0.0,1.5718658351900543,-1.7999660867112602e-16,1.57146155834198,0.007629808038473129,0.0004042768480743142,-1.5153101992574074,1.7352034177784857e-16,-1.5153101992574074,0.0,-1.5153101992574074,1.7352034177784857e-16,-1.5148845911026,-0.02844604104757309,-0.00042560815480729985,0.23099523998980037,0.007141782132719576,0.07422360642225634,-0.049156397581100464,-0.28000012040138245,1.862645149230957e-08,0.038835640996694565,-0.2799999713897705,1.4901161193847656e-08,0.12682759761810303,-0.27999991178512573,-1.4901161193847656e-08,,120.0,326.4666666666984,,
1776999730.0867026,326500017028,0.0031213277531787747,-3.5742771268726957e-19,0.0031213277531787747,0.0,0.0031213277531787747,-3.5742771268726957e-19,0.003127734875306487,0.10871432721614838,-6.407122127712397e-06,-0.0010742922034114605,1.230187392631471e-19,-0.0010742922034114605,0.0,-0.0010742922034114605,1.230187392631471e-19,0.0012820897391065955,-0.00872369110584259,-0.002356381942518056,0.004618836133740842,-5.289095427031059e-19,0.004618836133740842,0.0,0.004618836133740842,-5.289095427031059e-19,0.005141088739037514,-0.010523922741413116,-0.0005222526052966721,1.5718658351900543,-1.7999660867112602e-16,1.5718658351900543,0.0,1.5718658351900543,-1.7999660867112602e-16,1.5718156099319458,-0.013448374345898628,5.0225258108493875e-05,-1.5153101992574074,1.7352034177784857e-16,-1.5153101992574074,0.0,-1.5153101992574074,1.7352034177784857e-16,-1.5152279138565063,-0.005072867963463068,-8.228540090104985e-05,0.23094216732011597,0.0071477528218694165,0.07423059672888792,-0.049156397581100464,-0.28000012040138245,1.862645149230957e-08,0.038835640996694565,-0.2799999713897705,1.4901161193847656e-08,0.12682759761810303,-0.27999991178512573,-1.4901161193847656e-08,,120.0,326.48333333336507,,
1776999730.1252823,326516683695,0.0031213277531787747,-3.5742771268726957e-19,0.0031213277531787747,0.0,0.0031213277531787747,-3.5742771268726957e-19,0.00313257216475904,0.1434026062488556,-1.1244411580265193e-05,-0.0010742922034114605,1.230187392631471e-19,-0.0010742922034114605,0.0,-0.0010742922034114605,1.230187392631471e-19,0.0012641872745007277,0.016395054757595062,-0.002338479477912188,0.004618836133740842,-5.289095427031059e-19,0.004618836133740842,0.0,0.004618836133740842,-5.289095427031059e-19,0.005131605546921492,-0.008372414857149124,-0.00051276941318065,1.5718658351900543,-1.7999660867112602e-16,1.5718658351900543,0.0,1.5718658351900543,-1.7999660867112602e-16,1.5718821287155151,-0.023894406855106354,-1.6293525460842062e-05,-1.5153101992574074,1.7352034177784857e-16,-1.5153101992574074,0.0,-1.5153101992574074,1.7352034177784857e-16,-1.515293836593628,0.0028301093261688948,-1.6362663779467823e-05,0.2309354421122515,0.0071432150542427835,0.07423331286026665,-0.049156397581100464,-0.28000012040138245,1.862645149230957e-08,0.038835640996694565,-0.2799999713897705,1.4901161193847656e-08,0.12682759761810303,-0.27999991178512573,-1.4901161193847656e-08,,120.0,326.5000000000317,,
1776999730.1806169,326533350363,0.0031213277531787747,-3.5742771268726957e-19,0.0031213277531787747,0.0,0.0031213277531787747,-3.5742771268726957e-19,0.00312622869387269,0.1189497858285904,-4.900940693915515e-06,-0.0010742922034114605,1.230187392631471e-19,-0.0010742922034114605,0.0,-0.0010742922034114605,1.230187392631471e-19,0.0012714271433651447,-0.005371980369091034,-0.0023457193467766053,0.004618836133740842,-5.289095427031059e-19,0.004618836133740842,0.0,0.004618836133740842,-5.289095427031059e-19,0.005131196696311235,-0.008178720250725746,-0.0005123605625703938,1.5718658351900543,-1.7999660867112602e-16,1.5718658351900543,0.0,1.5718658351900543,-1.7999660867112602e-16,1.571894645690918,-0.02265535295009613,-2.8810500863674093e-05,-1.5153101992574074,1.7352034177784857e-16,-1.5153101992574074,0.0,-1.5153101992574074,1.7352034177784857e-16,-1.5153063535690308,0.003149372758343816,-3.845688376635792e-06,0.23093219362778297,0.007147608104777574,0.07423332662897719,-0.049156397581100464,-0.28000012040138245,1.862645149230957e-08,0.038835640996694565,-0.2799999713897705,1.4901161193847656e-08,0.12682759761810303,-0.27999991178512573,-1.4901161193847656e-08,,120.0,326.51666666669837,,
1776999730.2165134,326550017030,0.0031213277531787747,-3.5742771268726957e-19,0.0031213277531787747,0.0,0.0031213277531787747,-3.5742771268726957e-19,0.003130739787593484,0.14704358577728271,-9.412034414709239e-06,-0.0010742922034114605,1.230187392631471e-19,-0.0010742922034114605,0.0,-0.0010742922034114605,1.230187392631471e-19,0.0012624309165403247,0.014642558991909027,-0.0023367231199517852,0.004618836133740842,-5.289095427031059e-19,0.004618836133740842,0.0,0.004618836133740842,-5.289095427031059e-19,0.005128792487084866,-0.008023448288440704,-0.000509956353344024,1.5718658351900543,-1.7999660867112602e-16,1.5718658351900543,0.0,1.5718658351900543,-1.7999660867112602e-16,1.5718966722488403,-0.02527672052383423,-3.0837058786037375e-05,-1.5153101992574074,1.7352034177784857e-16,-1.5153101992574074,0.0,-1.5153101992574074,1.7352034177784857e-16,-1.5153083801269531,0.004434842616319656,-1.8191304542725106e-06,0.23093360125934886,0.007143893254556682,0.07423417171671975,-0.049156397581100464,-0.28000012040138245,1.862645149230957e-08,0.038835640996694565,-0.2799999713897705,1.4901161193847656e-08,0.12682759761810303,-0.27999991178512573,-1.4901161193847656e-08,,120.0,326.533333333365,,
1776999730.2535732,326566683698,0.0031213277531787747,-3.5742771268726957e-19,0.0031213277531787747,0.0,0.0031213277531787747,-3.5742771268726957e-19,0.003126699011772871,0.12520161271095276,-5.3712585940963314e-06,-0.0010742922034114605,1.230187392631471e-19,-0.0010742922034114605,0.0,-0.0010742922034114605,1.230187392631471e-19,0.0012706875568255782,-0.004306599497795105,-0.0023449797602370388,0.004618836133740842,-5.289095427031059e-19,0.004618836133740842,0.0,0.004618836133740842,-5.289095427031059e-19,0.005130396224558353,-0.007525477558374405,-0.0005115600908175118,1.5718658351900543,-1.7999660867112602e-16,1.5718658351900543,0.0,1.5718658351900543,-1.7999660867112602e-16,1.5718971490859985,-0.02336774207651615,-3.13138959442405e-05,-1.5153101992574074,1.7352034177784857e-16,-1.5153101992574074,0.0,-1.5153101992574074,1.7352034177784857e-16,-1.51530921459198,0.003693533595651388,-9.846654274170419e-07,0.2309319642444302,0.007147016133113502,0.07423343232162134,-0.049156397581100464,-0.28000012040138245,1.862645149230957e-08,0.038835640996694565,-0.2799999713897705,1.4901161193847656e-08,0.12682759761810303,-0.27999991178512573,-1.4901161193847656e-08,,120.0,326.5500000000317,,
1776999730.2897747,326583350365,0.0031213277531787747,-3.5742771268726957e-19,0.0031213277531787747,0.0,0.0031213277531787747,-3.5742771268726957e-19,0.0031303451396524906,0.14797735214233398,-9.01738647371593e-06,-0.0010742922034114605,1.230187392631471e-19,-0.0010742922034114605,0.0,-0.0010742922034114605,1.230187392631471e-19,0.0012634837767109275,0.012667857110500336,-0.002337775980122388,0.004618836133740842,-5.289095427031059e-19,0.004618836133740842,0.0,0.004618836133740842,-5.289095427031059e-19,0.005128916818648577,-0.007911141961812973,-0.0005100806849077351,1.5718658351900543,-1.7999660867112602e-16,1.5718658351900543,0.0,1.5718658351900543,-1.7999660867112602e-16,1.571897268295288,-0.025173839181661606,-3.143310523379128e-05,-1.5153101992574074,1.7352034177784857e-16,-1.5153101992574074,0.0,-1.5153101992574074,1.7352034177784857e-16,-1.51530921459198,0.004547730088233948,-9.846654274170419e-07,0.23093333861251636,0.0071441576549323964,0.07423409888463077,-0.049156397581100464,-0.28000012040138245,1.862645149230957e-08,0.038835640996694565,-0.2799999713897705,1.4901161193847656e-08,0.12682759761810303,-0.27999991178512573,-1.4901161193847656e-08,,120.0,326.5666666666983,,
1776999730.3272278,326600017033,0.0031213277531787747,-3.5742771268726957e-19,0.0031213277531787747,0.0,0.0031213277531787747,-3.5742771268726957e-19,0.0031270449981093407,0.1299324333667755,-5.717244930565982e-06,-0.0010742922034114605,1.230187392631471e-19,-0.0010742922034114605,0.0,-0.0010742922034114605,1.230187392631471e-19,0.0012701074592769146,-0.003293931484222412,-0.002344399662688375,0.004618836133740842,-5.289095427031059e-19,0.004618836133740842,0.0,0.004618836133740842,-5.289095427031059e-19,0.00513027748093009,-0.007353834807872772,-0.0005114413471892483,1.5718658351900543,-1.7999660867112602e-16,1.5718658351900543,0.0,1.5718658351900543,-1.7999660867112602e-16,1.5718973875045776,-0.023588554933667183,-3.155231452334206e-05,-1.5153101992574074,1.7352034177784857e-16,-1.5153101992574074,0.0,-1.5153101992574074,1.7352034177784857e-16,-1.515309453010559,0.0038743994664400816,-7.462468483154794e-07,0.23093202268555202,0.007146738434743615,0.0742334910467771,-0.049156397581100464,-0.28000012040138245,1.862645149230957e-08,0.038835640996694565,-0.2799999713897705,1.4901161193847656e-08,0.12682759761810303,-0.27999991178512573,-1.4901161193847656e-08,,120.0,326.583333333365,,
