inbarajaldrin/isaac-sim-mcp/.planning/saved_runs/2026-04-23-green2x2-postfix/20260423T200358_grasp_home.csv
t_wall,t_sim_ns,ref_pos_shoulder_pan,ref_vel_shoulder_pan,fb_pos_shoulder_pan,err_pos_shoulder_pan,js_pos_shoulder_pan,js_vel_shoulder_pan,isaac_pos_shoulder_pan,isaac_vel_shoulder_pan,isaac_lag_shoulder_pan,ref_pos_shoulder_lift,ref_vel_shoulder_lift,fb_pos_shoulder_lift,err_pos_shoulder_lift,js_pos_shoulder_lift,js_vel_shoulder_lift,isaac_pos_shoulder_lift,isaac_vel_shoulder_lift,isaac_lag_shoulder_lift,ref_pos_elbow_flex,ref_vel_elbow_flex,fb_pos_elbow_flex,err_pos_elbow_flex,js_pos_elbow_flex,js_vel_elbow_flex,isaac_pos_elbow_flex,isaac_vel_elbow_flex,isaac_lag_elbow_flex,ref_pos_wrist_flex,ref_vel_wrist_flex,fb_pos_wrist_flex,err_pos_wrist_flex,js_pos_wrist_flex,js_vel_wrist_flex,isaac_pos_wrist_flex,isaac_vel_wrist_flex,isaac_lag_wrist_flex,ref_pos_wrist_roll,ref_vel_wrist_roll,fb_pos_wrist_roll,err_pos_wrist_roll,js_pos_wrist_roll,js_vel_wrist_roll,isaac_pos_wrist_roll,isaac_vel_wrist_roll,isaac_lag_wrist_roll,tcp_x,tcp_y,tcp_z,cup_red_x,cup_red_y,cup_red_z,cup_green_x,cup_green_y,cup_green_z,cup_blue_x,cup_blue_y,cup_blue_z,attached_lego_xyz,physics_rate_hz,sim_time_s,render_fps,app_dt_ms
1776999838.9584801,363516685625,1.5534923753358363,-0.040007244634845236,1.5540221698292471,-0.0005297944934108401,1.5540221698292471,-0.013601586908071216,1.5557892322540283,-2.278386354446411,-0.002296856918192036,-0.21969335926556005,0.005506308629073525,-0.2197662763588848,7.29170933247425e-05,-0.2197662763588848,0.001872024330707909,-0.2175697237253189,1.993537187576294,-0.002123635540241142,0.20831667446077115,-0.005564774914097329,0.2083903657917655,-7.369133099435765e-05,0.2083903657917655,-0.001891901587044724,0.2088569849729538,-0.7326974868774414,-0.0005403105121826457,0.791442503399558,0.01981462992237562,0.7911801088778243,0.0002623945217337109,0.7911801088778243,0.006736540179168039,0.7911618947982788,0.5016089677810669,0.0002806086012792086,-1.5700510384981283,0.0013596456780802595,-1.5700690435569573,1.8005058828984843e-05,-1.5700690435569573,0.00046224975059822135,-1.570075511932373,0.022691302001476288,2.4473434244720593e-05,0.051594137192749565,-0.28116351936171136,0.12656923463999958,-0.0494409017264843,-0.2798220217227936,0.0019577108323574066,0.02789241261780262,-0.25937625765800476,2.4959444999694824e-06,0.12685425579547882,-0.27995505928993225,1.6242265701293945e-06,,120.0,363.4833333333314,,
1776999839.0277126,363516685625,1.5469104488083234,-0.12007780499999277,1.5491120139153218,-0.0022015651069984266,1.5491120139153218,-0.10007771499999975,1.5568552017211914,-1.6055725812911987,-0.009944752912868005,-0.21878747036555782,0.01652664310843262,-0.21909047790973588,0.00030300754417805775,-0.21909047790973588,0.013773974956591875,-0.2163933515548706,2.403398036956787,-0.0023941188106872124,0.20740116678307344,-0.016702123905372644,0.20770739167786423,-0.00030622489479079085,0.20770739167786423,-0.013920227773123376,0.20909513533115387,-0.7025805711746216,-0.0016939685480804323,0.7947023739432382,0.05947166043756813,0.7936119914826776,0.0010903824605605905,0.7936119914826776,0.04956609494858764,0.7911827564239502,0.35836106538772583,0.0035196175192879764,-1.5698273518124233,0.004080842609664244,-1.5699021719733732,7.482016094995103e-05,-1.5699021719733732,0.003401139816388499,-1.5700794458389282,0.06973227858543396,0.0002520940265049454,0.051249006133204926,-0.28106484952249555,0.12644558193058147,-0.0494409017264843,-0.2798220217227936,0.0019577108323574066,0.02789241261780262,-0.25937625765800476,2.4959444999694824e-06,0.12685425579547882,-0.27995505928993225,1.6242265701293945e-06,,120.0,363.49999999999807,,
1776999839.0974307,363533352293,1.5413051421678183,-0.16009151300000285,1.5443193891510656,-0.0030142469832472596,1.5413051421678183,-0.16009151300000285,1.555809497833252,-2.4666647911071777,-0.014504355665433621,-0.21801599638365945,0.022033841308475393,-0.2184308556004215,0.0004148592167620424,-0.21801599638365945,0.022033841308475393,-0.21760182082653046,2.152768611907959,-0.00041417555712899845,0.20662150124840342,-0.022267797835950235,0.20704076546293157,-0.00041926421452814777,0.20662150124840342,-0.022267797835950235,0.20884102582931519,-0.7685505151748657,-0.0022195245809117636,0.7974785480511227,0.07928949150988164,0.7959856637244758,0.0014928843266469594,0.7974785480511227,0.07928949150988164,0.7911587357521057,0.5056000351905823,0.006319812299017014,-1.5696368555406206,0.005440707945110663,-1.5697392946843511,0.0001024391437305372,-1.5696368555406206,0.005440707945110663,-1.5700773000717163,0.0211335401982069,0.00044044453109570725,0.051603873276281624,-0.2811717679526381,0.12656428958904156,-0.0494409017264843,-0.2798220217227936,0.0019577108323574066,0.02789241261780262,-0.25937625765800476,2.4959444999694824e-06,0.12685425579547882,-0.27995505928993225,1.6242265701293945e-06,,120.0,363.5166666666647,,
1776999839.169212,363550018960,1.525319241472536,-0.24000227899999776,1.5299194936342346,-0.00460025216169857,1.525319241472536,-0.24000227899999776,1.5568851232528687,-1.5787016153335571,-0.031565881780332594,-0.2158158122983675,0.03303218284381408,-0.21644895783001009,0.0006331455316425927,-0.2158158122983675,0.03303218284381408,-0.21638990938663483,2.3511641025543213,0.0005740970882673335,0.20439795548862197,-0.03338292036092877,0.205037823794015,-0.0006398683053930321,0.20439795548862197,-0.03338292036092877,0.2090936303138733,-0.7525120377540588,-0.0046956748252513225,0.8053959817345462,0.11886737970377495,0.8031175870346451,0.0022783946999010984,0.8053959817345462,0.11886737970377495,0.7911823987960815,0.3992351293563843,0.014213582938464642,-1.569093574917601,0.008156474267337096,-1.5692499144262775,0.00015633950867655066,-1.569093574917601,0.008156474267337096,-1.5700805187225342,0.05474686995148659,0.000986943804933249,0.051228725638257644,-0.2810633388256624,0.12645017690581595,-0.0494409017264843,-0.2798220217227936,0.0019577108323574066,0.02789241261780262,-0.25937625765800476,2.4959444999694824e-06,0.12685425579547882,-0.27995505928993225,1.6242265701293945e-06,,120.0,363.53333333333137,,
1776999839.2411888,363566685628,1.4963180071614095,-0.3400052389999583,1.502918805390414,-0.00660079822900439,1.502918805390414,-0.32000307199997285,1.5539251565933228,-2.861438512802124,-0.05760714943191325,-0.2118242915575941,0.04679586906131316,-0.21273277782249156,0.0009084862648974512,-0.21273277782249156,0.044042915046172824,-0.2174157202243805,2.0454487800598145,0.0055914286667863855,0.2003640525631545,-0.04729275014856831,0.20128218518470933,-0.0009181326215548236,0.20128218518470933,-0.044510565117706874,0.2086120843887329,-0.7226566076278687,-0.0082480318255784,0.8197595983847816,0.16839645029154734,0.816490381139411,0.003269217245370659,0.816490381139411,0.1584898561142247,0.7920046448707581,0.527244508266449,0.027754953514023573,-1.5681079683543415,0.011555073536038959,-1.5683322963945714,0.00022432804022987085,-1.5683322963945714,0.010875300155942577,-1.5700147151947021,0.015891045331954956,0.0019067468403606291,0.05217027499045344,-0.2810617507191194,0.12650165730433782,-0.0494409017264843,-0.2798220217227936,0.0019577108323574066,0.02789241261780262,-0.25937625765800476,2.4959444999694824e-06,0.12685425579547882,-0.27995505928993225,1.6242265701293945e-06,,120.0,363.549999999998,,
1776999839.3298771,363583352295,1.4659188086704564,-0.4200023176638327,1.4740899868602308,-0.00817117818977442,1.4740899868602308,-0.40007449699982106,1.5470954179763794,-3.5997681617736816,-0.08117660930592296,-0.20764036510888514,0.0578060900492398,-0.2087649871463867,0.0011246220375015492,-0.2087649871463867,0.05506336852761517,-0.2156679630279541,2.283931255340576,0.008027597919068957,0.19613570095546187,-0.05841987826281116,0.19727226429102998,-0.0011365633355681082,0.19727226429102998,-0.05564803437463863,0.20779575407505035,-0.5432248711585999,-0.011660053119588482,0.8348155932060419,0.20801708708030023,0.8307686043834435,0.004046988822598463,0.8307686043834435,0.19814731486227097,0.7956327199935913,0.35852763056755066,0.03918287321245062,-1.56707485199698,0.014273773192979069,-1.5673525493793397,0.00027769738235972063,-1.5673525493793397,0.013596526472129144,-1.5697636604309082,0.0027028294280171394,0.002688808433928269,0.054164080632294005,-0.28056297115638396,0.12604067634265895,-0.0494409017264843,-0.2798220217227936,0.0019577108323574066,0.02789241261780262,-0.25937625765800476,2.4959444999694824e-06,0.12685425579547882,-0.27995505928993225,1.6242265701293945e-06,,120.0,363.5666666666647,,
1776999839.4011195,363600018963,1.438918674914034,-0.48000210171492624,1.4483196018875888,-0.00940092697355488,1.438918674914034,-0.48000210171492624,1.5330755710601807,-5.967901706695557,-0.09415689614614675,-0.20392426141701328,0.06606402762226528,-0.20521813720846696,0.0012938757914536803,-0.20392426141701328,0.06606402762226528,-0.21443556249141693,3.6459338665008545,0.01051130107440365,0.19238013947212654,-0.06676549906689971,0.19368775370722763,-0.00130761423510109,0.19238013947212654,-0.06676549906689971,0.20568381249904633,-0.7698528170585632,-0.013303673026919788,0.8481881126864819,0.23773354286839365,0.8435320587490396,0.004656053937442284,0.8481881126864819,0.23773354286839365,0.8022468686103821,0.4831846356391907,0.045941244076099785,-1.566157252809522,0.016312865057803348,-1.5664767431879807,0.00031949037845868666,-1.566157252809522,0.016312865057803348,-1.5692944526672363,-0.033680565655231476,0.0031371998577143234,0.05841572468702284,-0.2797930031898336,0.12540059842927162,-0.0494409017264843,-0.2798220217227936,0.0019577108323574066,0.02789241261780262,-0.25937625765800476,2.4959444999694824e-06,0.12685425579547882,-0.27995505928993225,1.6242265701293945e-06,,120.0,363.5833333333313,,
1776999839.4738765,363616685630,1.3972731082782974,-0.5600831280799754,1.4083169077820135,-0.011043799503716034,1.4083169077820135,-0.5400051030797708,1.5125393867492676,-6.563994407653809,-0.11526627847097015,-0.19819246596291343,0.07708580256636634,-0.19971245488142345,0.001519988918510018,-0.19971245488142345,0.07432240800314618,-0.21202296018600464,2.7637901306152344,0.013830494223091211,0.18658748350161164,-0.07790430381785711,0.18812361174527148,-0.00153612824365984,0.18812361174527148,-0.07511156738060505,0.20300742983818054,-0.6363614201545715,-0.016419946336568902,0.8688141642510552,0.27739575694264135,0.8633444349032742,0.005469729347781005,0.8633444349032742,0.2674515921149306,0.8120871782302856,0.660475492477417,0.05672698602076953,-1.5647419287799813,0.01903441767633526,-1.5651172521595802,0.00037532337959889084,-1.5651172521595802,0.01835206626308949,-1.5686136484146118,0.01147211529314518,0.0038717196346305105,0.0641768120543934,-0.27856924847990355,0.1242459703308754,-0.0494409017264843,-0.2798220217227936,0.0019577108323574066,0.02789241261780262,-0.25937625765800476,2.4959444999694824e-06,0.12685425579547882,-0.27995505928993225,1.6242265701293945e-06,,120.0,363.599999999998,,
1776999839.544899,363633352298,1.3493167914973518,-0.640004460483506,1.361918975270939,-0.012602183773587239,1.361918975270939,-0.6200011011900671,1.486859917640686,-7.9753618240356445,-0.1375431261433342,-0.19159210437041374,0.08808559838528392,-0.19332657806114248,0.0017344736907287384,-0.19332657806114248,0.08533248027147046,-0.2073366492986679,2.370950698852539,0.015744544928254167,0.17991703891011773,-0.08902089606807434,0.18166992933699336,-0.0017528904268756251,0.18166992933699336,-0.08623854519613143,0.19961480796337128,-0.4306892454624176,-0.019697769053253544,0.892565779192992,0.3169788784230797,0.8863242194463373,0.006241559746654635,0.8863242194463373,0.30707169373137305,0.8251007199287415,0.7545967698097229,0.0674650592642505,-1.5631121339904919,0.02175054309759593,-1.5635404190388247,0.00042828504833281045,-1.5635404190388247,0.021070729197427356,-1.567710280418396,-0.030542001128196716,0.004598146427904126,0.07125469798782663,-0.2765959581764287,0.12270304502066558,-0.0494409017264843,-0.2798220217227936,0.0019577108323574066,0.02789241261780262,-0.25937625765800476,2.4959444999694824e-06,0.12685425579547882,-0.27995505928993225,1.6242265701293945e-06,,120.0,363.6166666666646,,
1776999839.6142583,363650018965,1.3229201899295748,-0.679999169234881,1.3363196388335685,-0.013399448903993694,1.3229201899295748,-0.679999169234881,1.4612705707550049,-7.116872310638428,-0.13835038082543005,-0.18795906649646035,0.09359018166576955,-0.1898032700100573,0.0018442035135969592,-0.18795906649646035,0.09359018166576955,-0.2041049599647522,2.7770326137542725,0.016145893468291844,0.1762454252420813,-0.0945839273137331,0.17810921060906265,-0.001863785366981341,0.1762454252420813,-0.0945839273137331,0.19605059921741486,-0.44428664445877075,-0.019805173975333545,0.9056393836375823,0.33678729962266385,0.8990029575697599,0.006636426067822443,0.9056393836375823,0.33678729962266385,0.8375744819641113,0.5712113380432129,0.06806490167347101,-1.5622150458364563,0.023109762743810484,-1.5626704259296669,0.0004553800932105556,-1.5622150458364563,0.023109762743810484,-1.5668461322784424,-0.016017962247133255,0.004631086441986065,0.07823674125620264,-0.27464590593341887,0.12137541509510398,-0.0494409017264843,-0.2798220217227936,0.0019577108323574066,0.02789241261780262,-0.25937625765800476,2.4959444999694824e-06,0.12685425579547882,-0.27995505928993225,1.6242265701293945e-06,,120.0,363.6333333333313,,
1776999839.682739,363666685633,1.2499215600114721,-0.7799974830204484,1.2653231713840611,-0.015401611372588997,1.2653231713840611,-0.7599953317010887,1.4266226291656494,-6.259895324707031,-0.17670106915417727,-0.17791206152280115,0.10735322841181688,-0.18003182823946923,0.002119766716668081,-0.18003182823946923,0.10460027655484964,-0.19923953711986542,1.416372537612915,0.02132747559706427,0.16609174062222468,-0.10849311083997605,0.16823401513738073,-0.0021422745151560563,0.16823401513738073,-0.1057109279902044,0.19117982685565948,-0.3089211583137512,-0.02508808623343481,0.9417938564054451,0.38631406905170523,0.9341658072273146,0.007628049178130536,0.9341658072273146,0.3764074826406479,0.8555928468704224,0.8194169998168945,0.08620100953502274,-1.5597341883672753,0.026508204111011506,-1.5602576119254157,0.0005234235581403901,-1.5602576119254157,0.025828431263824215,-1.5656168460845947,0.07030089944601059,0.005882657717319439,0.08698125880618562,-0.27167347391009217,0.11959143696089511,-0.0494409017264843,-0.2798220217227936,0.0019577108323574066,0.02789241261780262,-0.25937625765800476,2.4959444999694824e-06,0.12685425579547882,-0.27995505928993225,1.6242265701293945e-06,,120.0,363.64999999999793,,
1776999839.7514482,363683352300,1.2179176852487859,-0.8200023094042115,1.2341184914386103,-0.016200806189824446,1.2179176852487859,-0.8200023094042115,1.3882708549499512,-3.1594338417053223,-0.17035316970116532,-0.17350727900458363,0.11285920421025959,-0.1757370411322985,0.0022297621277148627,-0.17350727900458363,0.11285920421025959,-0.19376598298549652,-0.05077719688415527,0.020258703980912895,0.1616401878832444,-0.11405754938943129,0.16389362574671465,-0.0022534378634702368,0.1616401878832444,-0.11405754938943129,0.18665370345115662,0.11185672879219055,-0.025013515567912203,0.95764460894521,0.4061275012722929,0.949620737718249,0.008023871226961021,0.95764460894521,0.4061275012722929,0.8724244236946106,0.8810957670211792,0.08522018525059938,-1.5586465371081104,0.027867767604859466,-1.5591971212915103,0.000550584183399927,-1.5586465371081104,0.027867767604859466,-1.5644479990005493,0.07537509500980377,0.005801461892438908,0.0965838717218499,-0.2682551951785074,0.1176637819215613,-0.0494409017264843,-0.2798220217227936,0.0019577108323574066,0.02789241261780262,-0.25937625765800476,2.4959444999694824e-06,0.12685425579547882,-0.27995505928993225,1.6242265701293945e-06,,120.0,363.6666666666646,,
1776999839.8242738,363700018968,1.149117797497197,-0.9000019794037938,1.1669157417977205,-0.017797944300523616,1.149117797497197,-0.9000019794037938,1.3511935472488403,-1.6613246202468872,-0.20207574975164344,-0.16403815862242144,0.12386978185094463,-0.16648773932152325,0.002449580699101811,-0.16403815862242144,0.12386978185094463,-0.1884635090827942,-1.5049629211425781,0.024425350460372752,0.15207052386496178,-0.12518503794338995,0.15454611434538618,-0.0024755904804243944,0.15207052386496178,-0.12518503794338995,0.18212345242500305,-0.4010401666164398,-0.03005292856004127,0.9917195452958996,0.4457494214875466,0.982904649821024,0.008814895474875573,0.9917195452958996,0.4457494214875466,0.8905916810035706,1.227997064590454,0.101127864292329,-1.5563083738357475,0.030586555328315716,-1.5569132367366474,0.000604862900899894,-1.5563083738357475,0.030586555328315716,-1.5632115602493286,0.06722153723239899,0.006903186413581119,0.10624491435789117,-0.2640616160650021,0.11599122779720755,-0.0494409017264843,-0.2798220217227936,0.0019577108323574066,0.02789241261780262,-0.25937625765800476,2.4959444999694824e-06,0.12685425579547882,-0.27995505928993225,1.6242265701293945e-06,,120.0,363.68333333333123,,
1776999839.8942244,363716685635,1.0739196138471159,-0.97999983146874,1.093318609963508,-0.019398996116392064,1.093318609963508,-0.9600008605106095,1.3074843883514404,-6.255415916442871,-0.23356477450432456,-0.1536884229357363,0.13488010928420888,-0.1563583608603802,0.0026699379246439003,-0.1563583608603802,0.13212759514922556,-0.18125587701797485,-0.40080738067626953,0.02756745408223854,0.14161089412087452,-0.13631227363321483,0.14430918159186756,-0.0026982874709930438,0.14430918159186756,-0.1335305331531794,0.17490386962890625,0.004354819655418396,-0.03329297550803173,1.0289634043384577,0.4853704413233388,1.0193555462512458,0.009607858087211874,1.0193555462512458,0.4754654300689782,0.9160054326057434,1.0038515329360962,0.11295797173271427,-1.553752764562171,0.03330528126927786,-1.5544120391877896,0.0006592746256186555,-1.5544120391877896,0.032625616506626674,-1.5615005493164062,-0.04971672222018242,0.007747784754235321,0.11737492766261198,-0.25855445924372367,0.11327140584080948,-0.0494409017264843,-0.2798220217227936,0.0019577108323574066,0.02789241261780262,-0.25937625765800476,2.4959444999694824e-06,0.12685425579547882,-0.27995505928993225,1.6242265701293945e-06,,120.0,363.6999999999979,,
1776999839.9640577,363733352303,1.013315159376423,-1.040004070389634,1.0339164468831603,-0.020601287506737398,1.013315159376423,-1.040004070389634,1.2488805055618286,-7.537572860717773,-0.2355653461854057,-0.14534726288689573,0.14313865999339054,-0.14818267552787528,0.0028354126409795566,-0.14534726288689573,0.14313865999339054,-0.17381009459495544,0.03585202991962433,0.028462831708059716,0.13318116718018708,-0.14465851408377078,0.1360466863870693,-0.0028655192068822166,0.13318116718018708,-0.14465851408377078,0.16641420125961304,-0.1070818156003952,-0.03323303407942596,1.0589793389009297,0.5150891035017218,1.0487760146881204,0.010203324212809228,1.0589793389009297,0.5150891035017218,0.945390522480011,1.0374419689178467,0.11358881642091867,-1.5516931229811173,0.03534452453283988,-1.5523932574636843,0.0007001344825670053,-1.5516931229811173,0.03534452453283988,-1.5594631433486938,-0.03587173670530319,0.007770020367576569,0.1315618387723297,-0.25083354389284895,0.11062710208162174,-0.0494409017264843,-0.2798220217227936,0.0019577108323574066,0.02789241261780262,-0.25937625765800476,2.4959444999694824e-06,0.12685425579547882,-0.27995505928993225,1.6242265701293945e-06,,120.0,363.71666666666454,,
1776999840.0339618,363750018971,0.9268225414632718,-1.1200864218587676,0.9491167269215599,-0.022294185458288096,0.9491167269215599,-1.100002412434594,1.1858694553375244,0.6831831932067871,-0.2590469138742526,-0.13344304272093963,0.1541606173152663,-0.13651145362720454,0.003068410906264918,-0.13651145362720454,0.1513963990990878,-0.16544218361377716,-0.488345205783844,0.031999140892837535,0.12115054735593553,-0.15579750314899576,0.1242515388163783,-0.0031009914604427785,0.1242515388163783,-0.15300393431319623,0.15975511074066162,-0.836599588394165,-0.03860456338472609,1.1018170606837974,0.5547519738682632,1.090775284667759,0.011041776016038396,1.090775284667759,0.5448048450987176,0.9712352752685547,1.2489598989486694,0.13058178541524268,-1.5487536725089708,0.038066122184943006,-1.5495113401059593,0.0007576675969884761,-1.5495113401059593,0.03738356739114903,-1.5576980113983154,0.593879222869873,0.00894433888934465,0.1455913030202568,-0.24232904719482945,0.10800644195474067,-0.0494409017264843,-0.2798220217227936,0.0019577108323574066,0.02789241261780262,-0.25937625765800476,2.4959444999694824e-06,0.12685425579547882,-0.27995505928993225,1.6242265701293945e-06,,120.0,363.7333333333312,,
1776999840.1054306,363766685638,0.8339666257633804,-1.2001274331373137,0.8578270675857766,-0.023860441822396217,0.8578270675857766,-1.1800781094631834,1.125054121017456,-5.729706764221191,-0.2910874952540756,-0.12066302413816404,0.1651768848714451,-0.12394700327492703,0.0032839791367629823,-0.12394700327492703,0.162417440551754,-0.1557513326406479,0.3134194016456604,0.035088308502483845,0.108234829839559,-0.16693074203428182,0.11155367844571591,-0.0033188486061569156,0.11155367844571591,-0.16414199778446467,0.1502799242734909,-0.06574970483779907,-0.04204509443393191,1.147806371432138,0.5943943694286891,1.1359888661575206,0.011817505274617446,1.1359888661575206,0.5844644196802287,1.0052016973495483,1.0175740718841553,0.1426046740825897,-1.5455979654459737,0.040786314891219436,-1.5464088622447139,0.000810896798740135,-1.5464088622447139,0.04010493889218092,-1.5553439855575562,0.2014031559228897,0.009746020111582432,0.15962521642034505,-0.2317886073521973,0.10480065300639617,-0.0494409017264843,-0.2798220217227936,0.0019577108323574066,0.02789241261780262,-0.25937625765800476,2.4959444999694824e-06,0.12685425579547882,-0.27995505928993225,1.6242265701293945e-06,,120.0,363.74999999999784,,
1776999840.1746118,363783352306,0.7603616027352994,-1.2386167087366837,0.7852611644074396,-0.024899561672140247,0.7852611644074396,-1.2385389911523716,1.0671876668930054,-4.598204612731934,-0.30682606415770597,-0.11053255959000606,0.17047427118969977,-0.11395955568900949,0.003426996099003432,-0.11395955568900949,0.17046357470187415,-0.16127337515354156,-0.6244790554046631,0.050740815563535505,0.09799679946689423,-0.1722843762890802,0.10146018359718868,-0.0034633841302944557,0.10146018359718868,-0.17227356622536388,0.13574722409248352,-0.23756226897239685,-0.03775042462558929,1.1842611761816557,0.6134571856496746,1.1719290197368417,0.012332156444814002,1.1719290197368417,0.6134186939918291,1.034407138824463,1.0529816150665283,0.14985403735719283,-1.5430964997149965,0.04209437241177087,-1.5439427109880428,0.0008462112730462934,-1.5439427109880428,0.04209173118069327,-1.5526399612426758,-0.0990225076675415,0.009543461527679264,0.17104186969722587,-0.22321030128768482,0.10688482066218195,-0.0494409017264843,-0.2798220217227936,0.0019577108323574066,0.02789241261780262,-0.25937625765800476,2.4959444999694824e-06,0.12629970908164978,-0.2791319191455841,0.003885548561811447,,120.0,363.7666666666645,,
1776999840.248097,363800018973,0.6643831101321912,-1.1603908522473323,0.6877905234835386,-0.02340741335134744,0.6877905234835386,-1.1803905102487162,0.987107515335083,-8.291472434997559,-0.3227244052028918,-0.09732277204153283,0.15970782844825235,-0.10054439960667111,0.003221627565138274,-0.10054439960667111,0.16246043714291986,-0.14787065982818604,2.2360305786132812,0.0505478877866532,0.08464674967452734,-0.16140361487201918,0.08790258465667503,-0.0032558349821476817,0.08790258465667503,-0.16418545091577608,0.12635613977909088,0.04653911292552948,-0.04170939010456354,1.2317970244710374,0.5747137927755828,1.2202038933461539,0.011593131124883582,1.2202038933461539,0.5846191443060008,1.0737031698226929,0.8564592003822327,0.15809385464834458,-1.5398346719173754,0.03943586771692329,-1.5406301725495384,0.0007955006321629376,-1.5406301725495384,0.04011555582873082,-1.5503261089324951,-0.14755499362945557,0.010491437015119676,0.18677538335948646,-0.20764722902605948,0.10251420038318793,-0.0494409017264843,-0.2798220217227936,0.0019577108323574066,0.02789241261780262,-0.25937625765800476,2.4959444999694824e-06,0.12581990659236908,-0.27710139751434326,0.009837660938501358,,120.0,363.78333333333114,,
1776999840.3213532,363816685641,0.5747538223104927,-1.0803926852474226,0.5965608859337496,-0.021807063623256906,0.6187659030145254,-1.1203894482482804,0.9020175933837891,-4.1235833168029785,-0.3272637710732964,-0.08498684325026055,0.14869745766960332,-0.08798821022015535,0.003001366969894795,-0.09104434863400003,0.15420232368216677,-0.1287294328212738,1.094494342803955,0.04374258957101325,0.07217983731925545,-0.1502763353765675,0.07521307296715896,-0.003033235647903504,0.07830166162518828,-0.15583965235637448,0.12028084695339203,-0.6589354276657104,-0.04810100963413658,1.2761882637228992,0.5350926169600683,1.2653877474830926,0.010800516239806601,1.2543901344284698,0.5549020555801931,1.1085951328277588,1.170609474182129,0.16759313089514039,-1.5367886217600062,0.036717131072886405,-1.5375297345278942,0.0007411127678880192,-1.538284371738755,0.038076420532796196,-1.5481975078582764,0.2465566098690033,0.011408886098270177,0.20044402911087872,-0.19165008365106295,0.0965577360870681,-0.0494409017264843,-0.2798220217227936,0.0019577108323574066,0.02789241261780262,-0.25937625765800476,2.4959444999694824e-06,0.12598232924938202,-0.2744421064853668,0.016212977468967438,,120.0,363.7999999999978,,
1776999840.392142,363833352308,0.5117266306447473,-1.020389127247726,0.532339974083882,-0.02061334343913468,0.532339974083882,-1.0403944722487202,0.8207476139068604,-2.554263114929199,-0.309020983262113,-0.07631223512608136,0.14043900067750797,-0.0791493070586516,0.00283707193257024,-0.0791493070586516,0.14319239208979104,-0.11387314647436142,1.599198341369629,0.03756091134828006,0.06341312173339828,-0.14193018963818602,0.06628031785031968,-0.0028671961169214055,0.06628031785031968,-0.1447128167104979,0.10847063362598419,-0.8127065300941467,-0.045057511892585916,1.3074041219831238,0.5053742920256034,1.29719482675579,0.010209295227333826,1.29719482675579,0.515282460190717,1.153262734413147,1.3529021739959717,0.15414138756997686,-1.5346466434875254,0.034677910950411873,-1.535347187690795,0.000700544203269482,-1.535347187690795,0.035357792334839974,-1.5451792478561401,0.330203115940094,0.010532604368614695,0.2121866512105191,-0.1739521601299103,0.09268639110523838,-0.0494409017264843,-0.2798220217227936,0.0019577108323574066,0.02789241261780262,-0.25937625765800476,2.4959444999694824e-06,0.12676012516021729,-0.27079716324806213,0.02170250192284584,,120.0,363.81666666666445,,
1776999840.4773629,363850018976,0.4332978354542014,-0.9403916102473634,0.452304533437354,-0.019006697983152576,0.452304533437354,-0.9603904292475447,0.7429004907608032,-2.989083766937256,-0.3096026553066018,-0.06551786136534689,0.12942871936011233,-0.06813380620408994,0.002615944838743056,-0.06813380620408994,0.13218121258070537,-0.10428552329540253,1.732248067855835,0.03876766193005564,0.052504132723966354,-0.13080300055389707,0.05514785380753077,-0.002643721083564414,0.05514785380753077,-0.1335847198974683,0.09740238636732101,-0.8317233324050903,-0.04489825364335466,1.3462480255346585,0.46575343813930864,1.3368344633156164,0.009413562219042104,1.3368344633156164,0.4756583741325286,1.1914186477661133,1.1117554903030396,0.15482937776854522,-1.531981241923611,0.03195919639662969,-1.532627184302377,0.00064594237876614,-1.532627184302377,0.032638855994991146,-1.54257071018219,0.26426365971565247,0.010589468258578982,0.22235731959957683,-0.15659163450255206,0.09040613468715233,-0.0494409017264843,-0.2798220217227936,0.0019577108323574066,0.02789241261780262,-0.25937625765800476,2.4959444999694824e-06,0.12905703485012054,-0.2660883069038391,0.026447763666510582,,120.0,363.8333333333311,,
1776999840.5485263,363866685643,0.37867048009250726,-0.8803872272476011,0.39652424023256777,-0.017853760140060515,0.37867048009250726,-0.8803872272476011,0.6511667370796204,-7.668427467346191,-0.2724962569871131,-0.0579993461324919,0.12117014882096225,-0.06045660892121759,0.0024572627887256906,-0.0579993461324919,0.12117014882096225,-0.0908069759607315,2.2068326473236084,0.03280762982823961,0.04490578548674043,-0.1224567400628119,0.04738913962563475,-0.0024833541388943198,0.04490578548674043,-0.1224567400628119,0.0816526710987091,-1.0518132448196411,-0.03674688561196868,1.3733036460856272,0.43603470460210264,1.3644611063624574,0.008842539723169729,1.3733036460856272,0.43603470460210264,1.2452263832092285,1.6114999055862427,0.12807726287639865,-1.5301247319764697,0.02991994823654467,-1.5307314917779353,0.0006067598014656284,-1.5301247319764697,0.02991994823654467,-1.538938045501709,-0.22931170463562012,0.008813313525239286,0.23093194786798812,-0.13555827614316868,0.08728183199891743,-0.0494409017264843,-0.2798220217227936,0.0019577108323574066,0.02789241261780262,-0.25937625765800476,2.4959444999694824e-06,0.13254064321517944,-0.2600856125354767,0.029711436480283737,,120.0,363.84999999999775,,
1776999840.6200516,363883352311,0.3114446340161155,-0.8003936392480587,0.3276490168555775,-0.016204382839462017,0.3276490168555775,-0.8203893852478302,0.5468767881393433,-6.02100944519043,-0.23543215412322777,-0.04874686549490018,0.11016040826290144,-0.05097711988687723,0.002230254391977056,-0.05097711988687723,0.11291247853787902,-0.07931723445653915,-0.3636152148246765,0.030570368961638977,0.03555506150563927,-0.11133009747966448,0.03780899686026045,-0.0022539353546211782,0.03780899686026045,-0.11411138938676278,0.07164043188095093,-0.5203548073768616,-0.036085370375311655,1.4065989972996467,0.39641579665577426,1.3985733546437964,0.008025642655850262,1.3985733546437964,0.4063192106655029,1.281592607498169,1.3574411869049072,0.1250063898014777,-1.5278400624895543,0.027201367209745933,-1.528390768225344,0.0005507057357896361,-1.528390768225344,0.027880922372249074,-1.536364197731018,0.2711554169654846,0.008524135241463782,0.2401052843610757,-0.11257735215507816,0.08562818642261323,-0.0494409017264843,-0.2798220217227936,0.0019577108323574066,0.02789241261780262,-0.25937625765800476,2.4959444999694824e-06,0.1371508538722992,-0.2528388500213623,0.0316191092133522,,120.0,363.8666666666644,,
1776999840.701431,363900018978,0.23635092045484096,-0.7003160362479749,0.2506106755339286,-0.01425975507908761,0.2506106755339286,-0.7203902142480464,0.46123746037483215,-3.695852756500244,-0.2248865399199912,-0.03841150831782552,0.09638644872116957,-0.04037411816904452,0.001962609851219002,-0.04037411816904452,0.09914931381103706,-0.0713869109749794,1.112729787826538,0.03297540265715388,0.025109962942960924,-0.09740988528507874,0.027093411892508287,-0.001983448949547363,0.027093411892508287,-0.10020208662700061,0.0599687397480011,0.06838729977607727,-0.034858776805040174,1.4437911148097258,0.3468497571780689,1.4367285997014057,0.007062515108320122,1.4367285997014057,0.35679201667876764,1.3209917545318604,0.7966381311416626,0.12279936027786542,-1.5252880036305583,0.023800231199706846,-1.5257726212177147,0.0004846175871564551,-1.5257726212177147,0.02448245187269801,-1.5336222648620605,0.3361797332763672,0.008334261231502271,0.2448272325556505,-0.09277462495364276,0.0840132285964517,-0.0494409017264843,-0.2798220217227936,0.0019577108323574066,0.02789241261780262,-0.25937625765800476,2.4959444999694824e-06,0.14136643707752228,-0.24593663215637207,0.03214602172374725,,120.0,363.88333333333105,,
1776999840.776551,363916685646,0.19617917470131818,-0.6403897712482807,0.2092040791796739,-0.01302490447835572,0.2092040791796739,-0.6604156782481969,0.40070444345474243,-1.6739225387573242,-0.20452526875342425,-0.032882558941117614,0.08813862978018148,-0.03467521286109246,0.0017926539199748445,-0.03467521286109246,0.09089485119770527,-0.05769403651356697,1.4256823062896729,0.024811477572449357,0.019522306880539412,-0.08907449055321141,0.021333995297505043,-0.001811688416965631,0.021333995297505043,-0.09185997767991325,0.050218287855386734,-0.5103852152824402,-0.030695980974847322,1.4636872181956762,0.31716971361503665,1.4572362950099251,0.006450923185751023,1.4572362950099251,0.3270880656456492,1.3585174083709717,1.096542477607727,0.10516980982470447,-1.5239227673841458,0.021763637878812764,-1.524365418590021,0.0004426512058752774,-1.524365418590021,0.022444218062498553,-1.531052827835083,0.1026451364159584,0.007130060450937226,0.24599515151253457,-0.07789461075263984,0.08142884136111117,-0.0494409017264843,-0.2798220217227936,0.0019577108323574066,0.02789241261780262,-0.25937625765800476,2.4959444999694824e-06,0.14376139640808105,-0.24057306349277496,0.031705569475889206,,120.0,363.8999999999977,,
1776999840.8508348,363933352313,0.15955730905106572,-0.5803923912482545,0.17136326804651605,-0.011805958995450339,0.15955730905106572,-0.5803923912482545,0.34017297625541687,-8.0514554977417,-0.18061566720435115,-0.027842189460956627,0.07988102308341025,-0.029467076515401102,0.0016248870544444752,-0.027842189460956627,0.07988102308341025,-0.04921708256006241,-0.1139766275882721,0.02137489309910578,0.01442841848262546,-0.08072920413863824,0.01607055867634215,-0.0016421401937166905,0.01442841848262546,-0.08072920413863824,0.0401492603123188,-0.1542108952999115,-0.025720841829693343,1.4818251510013443,0.28745444849583984,1.4759779423142994,0.005847208687044914,1.4818251510013443,0.28745444849583984,1.3930293321609497,1.034334659576416,0.08879581884039456,-1.522678173765941,0.019724627715607762,-1.5230793991257534,0.00040122535981246266,-1.522678173765941,0.019724627715607762,-1.5287425518035889,-0.13983435928821564,0.006064378037647922,0.24647672150779967,-0.06373327543766677,0.0802876974222448,-0.0494409017264843,-0.2798220217227936,0.0019577108323574066,0.02789241261780262,-0.25937625765800476,2.4959444999694824e-06,0.14505527913570404,-0.23615601658821106,0.031688809394836426,,120.0,363.91666666666436,,
1776999840.9229472,363950018981,0.10651217222424415,-0.48038011424796134,0.11632923337316482,-0.00981706114892067,0.11632923337316482,-0.5003990172480212,0.28634658455848694,-3.5987024307250977,-0.1798344123342428,-0.020541439376668316,0.06611605454117522,-0.021892588874961382,0.001351149498293066,-0.021892588874961382,0.06887131197866934,-0.0424429289996624,0.6345310807228088,0.021901489622994083,0.007050148636178097,-0.06681807841047009,0.00841564471345821,-0.0013654960772801136,0.00841564471345821,-0.0696025913215495,0.03303275257349014,-0.4206390976905823,-0.025982603937312047,1.508097136612917,0.2379207634209892,1.503234981386617,0.004862155226299958,1.503234981386617,0.2478356465382806,1.4185081720352173,0.8239017724990845,0.08958896457769971,-1.5208754354947132,0.01632571180876825,-1.5212090681876012,0.00033363269288799735,-1.5212090681876012,0.017006053961603748,-1.5269452333450317,-0.015908759087324142,0.006069797850318581,0.24646554868460455,-0.05139260715945414,0.0795858455803452,-0.0494409017264843,-0.2798220217227936,0.0019577108323574066,0.02789241261780262,-0.25937625765800476,2.4959444999694824e-06,0.14533895254135132,-0.23240205645561218,0.03143144026398659,,120.0,363.933333333331,,
1776999840.9963372,363966685649,0.08806876291889107,-0.4403160632480646,0.09710841783120736,-0.009039654912316286,0.08806876291889107,-0.4403160632480646,0.23186995089054108,-3.388123035430908,-0.14380118797165,-0.018003021529237367,0.06060192749368806,-0.01924717443958787,0.0012441529103505017,-0.018003021529237367,0.06060192749368806,-0.03473423048853874,-0.40238675475120544,0.016731208959301375,0.004484777729743442,-0.0612454020615687,0.005742141123480767,-0.0012573633937373258,0.004484777729743442,-0.0612454020615687,0.02525746263563633,0.07748699188232422,-0.020772684905892888,1.5172317154430275,0.21807799866677088,1.5127545909034998,0.004477124539527644,1.5172317154430275,0.21807799866677088,1.4462705850601196,0.8451245427131653,0.07096113038290786,-1.520248636474188,0.014964135567146868,-1.5205558490264401,0.00030721255225207855,-1.520248636474188,0.014964135567146868,-1.5251187086105347,0.035867612808942795,0.004870072136346604,0.24553622749258897,-0.039865167143041405,0.07873823413969373,-0.0494409017264843,-0.2798220217227936,0.0019577108323574066,0.02789241261780262,-0.25937625765800476,2.4959444999694824e-06,0.14462292194366455,-0.22914159297943115,0.030714798718690872,,120.0,363.94999999999766,,
1776999841.0690856,363983352316,0.04906195127287073,-0.34038891324802,0.056072806214419076,-0.007010854941548343,0.056072806214419076,-0.36039745024763137,0.17892715334892273,-1.9898390769958496,-0.129865202076052,-0.012634405281866202,0.04684867521785188,-0.013599328795449474,0.0009649235135832726,-0.013599328795449474,0.04960250595380247,-0.027957258746027946,0.10882537066936493,0.015322853464161745,-0.0009408427774386562,-0.04734611700375418,3.4326346583413224e-05,-0.0009751691240220694,3.4326346583413224e-05,-0.05012918806449505,0.017910106107592583,-0.2388296127319336,-0.01885094888503124,1.5365508548707039,0.16858647495595014,1.5330785463582293,0.003472308512474598,1.5330785463582293,0.17849622404151003,1.4718555212020874,0.7261139154434204,0.06469533366861646,-1.5189229904979629,0.011568112700236407,-1.5191612543101272,0.0002382638121642966,-1.5191612543101272,0.0122481025647055,-1.5233137607574463,0.08710552006959915,0.004390770259483423,0.24425638640295486,-0.027699495863081954,0.07808883707984342,-0.0494409017264843,-0.2798220217227936,0.0019577108323574066,0.02789241261780262,-0.25937625765800476,2.4959444999694824e-06,0.14305318892002106,-0.22637617588043213,0.030212223529815674,,120.0,363.9666666666643,,
1776999841.146674,364000018984,0.02503042263360195,-0.2603873172479176,0.03043943577865972,-0.005409013145057772,0.03043943577865972,-0.28039183524738626,0.1414492428302765,-1.7136378288269043,-0.11641882019667454,-0.009326878989465243,0.03583783249634513,-0.010071336550270885,0.000744457560805642,-0.010071336550270885,0.03859111008609999,-0.02286500297486782,0.3715524673461914,0.013538123985402578,-0.004283488564215065,-0.036218360554330725,-0.003531126312468782,-0.0007523622517462826,-0.003531126312468782,-0.03900087259553942,0.01272105798125267,-0.18292249739170074,-0.017004546545467736,1.548453095347455,0.1289636008387959,1.5457741407057937,0.0026789546416612353,1.5457741407057937,0.13887135940984288,1.490321159362793,0.4900304079055786,0.05813193598466193,-1.5181062793160207,0.008849259521710697,-1.5182901045559856,0.00018382523996485212,-1.5182901045559856,0.009529112800488397,-1.5220425128936768,0.02225467376410961,0.003936233577656045,0.24280262982294604,-0.020451625120863872,0.07767963775040873,-0.0494409017264843,-0.2798220217227936,0.0019577108323574066,0.02789241261780262,-0.25937625765800476,2.4959444999694824e-06,0.141496479511261,-0.22391560673713684,0.03042668104171753,,120.0,363.98333333333096,,
1776999841.2193089,364016685651,0.011192736469497193,-0.2003152082480062,0.015415033966592778,-0.004222297497095585,0.015415033966592778,-0.2203877892484549,0.1036548838019371,-1.868330955505371,-0.0924621473324399,-0.007422359659846681,0.027569940638957742,-0.008003486237169873,0.0005811265773231922,-0.008003486237169873,0.03033258592931378,-0.01762744039297104,-0.8514847755432129,0.010205080733124358,-0.006208230183838743,-0.02786267977074513,-0.0056209331728562266,-0.0005872970109825166,-0.0056209331728562266,-0.030654658979310256,0.007271855138242245,0.027760833501815796,-0.013480085322080988,1.5553065698325468,0.09921132423603811,1.5532153670243873,0.0020912028081594425,1.5532153670243873,0.10915279278110597,1.5096923112869263,0.5872767567634583,0.04561425854562051,-1.5176360057353395,0.006807709694415486,-1.5177795004597536,0.00014349472441410605,-1.5177795004597536,0.007489876093417382,-1.5207716226577759,0.04932233691215515,0.0031356169224363573,0.2409807601593494,-0.012612620249220996,0.07734750073615443,-0.0494409017264843,-0.2798220217227936,0.0019577108323574066,0.02789241261780262,-0.25937625765800476,2.4959444999694824e-06,0.14003713428974152,-0.2220785766839981,0.030814021825790405,,120.0,363.9999999999976,,
1776999841.2921755,364033352319,-0.0016236289039182183,-0.12038875324822362,0.0009849618365803678,-0.002608590740498586,0.0009849618365803678,-0.140394563248155,0.06818566471338272,-0.4487296938896179,-0.06980929361730094,-0.005658407558342808,0.01656943978283647,-0.006017435175346505,0.00035902761700369774,-0.006017435175346505,0.019322895194217333,-0.012902019545435905,-0.3709268867969513,0.007243611987093098,-0.00799091202486114,-0.016745374997197252,-0.007628072233059326,-0.00036283979180181444,-0.007628072233059326,-0.01952806674815173,0.002466282807290554,-0.13009478151798248,-0.010457194832151694,1.5616542085950265,0.0596256656563377,1.5603622360882052,0.0012919725068212262,1.5603622360882052,0.06953406412428831,1.5266371965408325,0.5134952068328857,0.03501701205419394,-1.5172004417281788,0.0040914101817522185,-1.5172890946498823,8.865292170345818e-05,-1.5172890946498823,0.004771307369151741,-1.5195584297180176,0.07972058653831482,0.0023579879898387723,0.2391536909151161,-0.004882470596159264,0.07707524499868451,-0.0494409017264843,-0.2798220217227936,0.0019577108323574066,0.02789241261780262,-0.25937625765800476,2.4959444999694824e-06,0.13878391683101654,-0.22053313255310059,0.031185844913125038,,120.0,364.01666666666426,,
1776999841.3672645,364050018986,-0.008054591472681819,-0.040392162248131816,-0.007046992807778525,-0.001007598664903294,-0.007046992807778525,-0.06038811224780705,0.040518857538700104,0.15296679735183716,-0.04857344901138192,-0.004773296248907638,0.005559285913436041,-0.00491197486258975,0.0001386786136821118,-0.00491197486258975,0.008311384265489634,-0.009053727611899376,-0.29720544815063477,0.004280431362991738,-0.008885421494403084,-0.005618314714149447,-0.008745270383645318,-0.00014015111075776562,-0.008745270383645318,-0.008399634996446708,-0.0014478552620857954,-0.15192008018493652,-0.007437566232317288,1.564839310306174,0.020005270395821062,1.5643402708237613,0.0004990394824126998,1.5643402708237613,0.029908785441799434,1.5405936241149902,0.3969794511795044,0.024245686191183724,-1.5169818855506083,0.0013727270980738839,-1.5170161287778658,3.424322725753548e-05,-1.5170161287778658,0.002052289193486711,-1.5186231136322021,0.13454315066337585,0.0016412280815938374,0.2374529246767835,8.38995477230232e-05,0.07687236183296192,-0.0494409017264843,-0.2798220217227936,0.0019577108323574066,0.02789241261780262,-0.25937625765800476,2.4959444999694824e-06,0.1377384066581726,-0.21934521198272705,0.031433239579200745,,120.0,364.0333333333309,,
1776999841.44015,364066685654,-0.008870354858227063,-1.1669759889766317e-16,-0.008870277424411934,-7.743381512902159e-08,-0.008870277424411934,-0.00039353224795378574,0.022139327600598335,0.20227068662643433,-0.031009682458825398,-0.004661020459607245,1.606141591772774e-17,-0.004661031117039123,1.0657431877975077e-08,-0.004661031117039123,5.4162940550176114e-05,-0.006575676612555981,-0.3765324652194977,0.001914656152948736,-0.00899888943415135,-1.623195690701039e-17,-0.008998878663558283,-1.0770593066727896e-08,-0.008998878663558283,-5.4738045604046686e-05,-0.004026711452752352,-0.03683187812566757,-0.004972177981398998,1.5652433383699993,5.779752532553116e-17,1.565243300018888,3.835111139771641e-08,1.565243300018888,0.00019490709576697093,1.5495970249176025,0.25891396403312683,0.015646313452396754,-1.5169541618427749,3.96596635012878e-18,-1.516954164474361,2.6315860601755503e-09,-1.516954164474361,1.3374188260652165e-05,-1.5179985761642456,0.06404461711645126,0.0010444143214707324,0.23626577988771238,0.003834036241917458,0.07677228632773214,-0.0494409017264843,-0.2798220217227936,0.0019577108323574066,0.02789241261780262,-0.25937625765800476,2.4959444999694824e-06,0.136940136551857,-0.21841570734977722,0.03165512531995773,,120.0,364.04999999999757,,
1776999841.5099132,364083352321,1.3979012654050746,0.04001212990124948,1.3973705755575738,0.0005306898475008204,1.3979012654050746,0.04001212990124948,0.006588668562471867,-0.7438704967498779,1.3913125968426028,-0.19882130894849054,-0.04005581749185523,-0.19829003966268283,-0.0005312692858077117,-0.19882130894849054,-0.04005581749185523,-0.00445457873865962,-0.7608850598335266,-0.19436673020983092,0.18717883951445263,0.037667985596326614,0.18667924057830193,0.0004995989361507025,0.18717883951445263,0.037667985596326614,-0.006278092507272959,0.0786852091550827,0.1934569320217256,0.8686199875962579,-0.012368595697380814,0.8687840350533826,-0.00016404745712472746,0.8686199875962579,-0.012368595697380814,1.5575376749038696,0.22350144386291504,-0.6889176873076117,-1.5647571302356806,-0.0009682969343232179,-1.5647442874963993,-1.2842739281371252e-05,-1.5647571302356806,-0.0009682969343232179,-1.5174760818481445,0.043106935918331146,-0.047281048387536107,0.2351879504247592,0.00664352138326812,0.07670044052921586,-0.0494409017264843,-0.2798220217227936,0.0019577108323574066,0.02789241261780262,-0.25937625765800476,2.4959444999694824e-06,0.1363421231508255,-0.21769773960113525,0.03176937252283096,,120.0,364.0666666666642,,
1776999841.5838985,364100018989,1.404464927032452,0.11986638285165373,1.4022677622227036,0.0021971648097485197,1.404464927032452,0.11986638285165373,-0.002877577906474471,-0.7908469438552856,1.4073425049389265,-0.20539213716666724,-0.11999726000000065,-0.20319257336349014,-0.002199563803177096,-0.20539213716666724,-0.11999726000000065,-0.0031869588419795036,-0.14478260278701782,-0.20220517832468773,0.19335796350133763,0.11284390993137715,0.191289521441127,0.0020684420602106457,0.19335796350133763,0.11284390993137715,-0.007568706758320332,0.08718804270029068,0.20092667025965796,0.8665910209512986,-0.03705323437812869,0.8672702110688794,-0.0006791901175807746,0.8665910209512986,-0.03705323437812869,1.5620265007019043,0.07465051859617233,-0.6954354797506057,-1.5649159714032808,-0.0029007766227208357,-1.5648627998286928,-5.31715745879513e-05,-1.5649159714032808,-0.0029007766227208357,-1.5171512365341187,0.025868874043226242,-0.04776473486916211,0.23453249520581235,0.008611392610335965,0.07664271392900097,-0.0494409017264843,-0.2798220217227936,0.0019577108323574066,0.02789241261780262,-0.25937625765800476,2.4959444999694824e-06,0.13590958714485168,-0.2171962559223175,0.03182429075241089,,120.0,364.08333333333087,,
1776999841.655437,364116685656,1.4172510284140452,0.19978053389358263,1.4134551596865153,0.0037958687275299052,1.4134551596865153,0.1798021254918814,-0.007733748760074377,-0.5245342254638672,1.4249847771741195,-0.21819219916380334,-0.19999866600000926,-0.21439218588412398,-0.003800013279679354,-0.21439218588412398,-0.17999844400000503,-0.002545940224081278,-0.12195707857608795,-0.21564625893972206,0.20539498037256299,0.1880762231779138,0.20182149580908093,0.0035734845634820545,0.20182149580908093,0.16926826664645098,-0.008328363299369812,0.028428692370653152,0.2137233436719328,0.8626385665599707,-0.06175638882592669,0.8638119498746553,-0.0011733833146845285,0.8638119498746553,-0.05558064020151376,1.564614176750183,0.04212380573153496,-0.7019756101902124,-1.5652253961402334,-0.004834705849983933,-1.5651335357953582,-9.186034487518313e-05,-1.5651335357953582,-0.004351226673659021,-1.5169914960861206,-0.016655219718813896,-0.048233900054112766,0.23417513868857606,0.009311749125266585,0.07662790180874493,-0.0494409017264843,-0.2798220217227936,0.0019577108323574066,0.02789241261780262,-0.25937625765800476,2.4959444999694824e-06,0.13563601672649384,-0.21688924729824066,0.03192450851202011,,120.0,364.0999999999975,,
1776999841.7257876,364133352324,1.4310364182361024,0.259717097637398,1.4260423424244315,0.004994075811670884,1.4310364182361024,0.259717097637398,-0.00488590681925416,0.6469085216522217,1.4359223250553566,-0.23199264068313905,-0.26000067200000226,-0.22699311204653666,-0.004999528636602385,-0.23199264068313905,-0.26000067200000226,-0.10376180708408356,-5.75380277633667,-0.1282308335990555,0.2183727415299526,0.24450135289143424,0.21367124785277952,0.004701493677173069,0.2183727415299526,0.24450135289143424,0.12934310734272003,5.779125213623047,0.08902963418723256,0.8583772109745366,-0.08028404846983796,0.8599209854436554,-0.0015437744691187971,0.8583772109745366,-0.08028404846983796,1.4093883037567139,-5.411457538604736,-0.5510110927821773,-1.5655590037421292,-0.006285175771754919,-1.565438146684279,-0.00012085705785014333,-1.5655590037421292,-0.006285175771754919,-1.5555499792099,-0.8476681709289551,-0.010009024532229294,0.24190939913423437,0.008725351483718025,0.07538113295205892,-0.0494409017264843,-0.2798220217227936,0.0019577108323574066,0.02789241261780262,-0.25937625765800476,2.4959444999694824e-06,0.1355326771736145,-0.2167443335056305,0.0318920873105526,,120.0,364.1166666666642,,
1776999841.796529,364150018991,1.4484377491264901,0.3197148616671809,1.442227972007548,0.006209777118942217,1.4484377491264901,0.3197148616671809,0.010884150862693787,0.9634903073310852,1.4375535982637964,-0.249412971367382,-0.320063945108122,-0.24319641404950618,-0.0062165573178758204,-0.249412971367382,-0.320063945108122,-0.181108757853508,-3.229198455810547,-0.068304213513874,0.23475460080496857,0.30098409742074117,0.22890862870475884,0.005845972100209734,0.23475460080496857,0.30098409742074117,0.17963552474975586,0.9441752433776855,0.05511907605521271,0.8529980915197444,-0.09883062641663769,0.8549176649777076,-0.0019195734579632306,0.8529980915197444,-0.09883062641663769,1.3111209869384766,-5.151611804962158,-0.4581228954187322,-1.565980117424299,-0.007737126745606874,-1.565829840291792,-0.00015027713250703734,-1.565980117424299,-0.007737126745606874,-1.5630474090576172,-0.1991860270500183,-0.002932708366681913,0.2525517133842821,0.005242342835335354,0.08428172669456326,-0.0494409017264843,-0.2798220217227936,0.0019577108323574066,0.02789241261780262,-0.25937625765800476,2.4959444999694824e-06,0.1356116086244583,-0.21684354543685913,0.031869083642959595,,120.0,364.1333333333308,,
1776999841.8671052,364166685659,1.4771857866534004,0.399563292997254,1.4693765457113017,0.007809240942098672,1.4771857866534004,0.399563292997254,0.03731035441160202,1.6385385990142822,1.4398754322417984,-0.27819239768806764,-0.3999995596394842,-0.27037463015860697,-0.007817767529460673,-0.27819239768806764,-0.3999995596394842,-0.20581533014774323,-0.4160255193710327,-0.07237706754032441,0.2618184103586886,0.3761545411999466,0.25446668036952913,0.00735172998915945,0.2618184103586886,0.3761545411999466,0.1962873488664627,0.3520429730415344,0.06553106149222587,0.8441114650357011,-0.12351346551141022,0.8465254665935944,-0.002414001557893286,0.8441114650357011,-0.12351346551141022,1.1779104471206665,-7.955509185791016,-0.3337989820849654,-1.566675822368617,-0.009669465550375622,-1.5664868380760464,-0.00018898429257063754,-1.566675822368617,-0.009669465550375622,-1.564680814743042,-0.046640004962682724,-0.0019950076255750293,0.27106361868889395,-0.0010384488380882297,0.09253731646114435,-0.0494409017264843,-0.2798220217227936,0.0019577108323574066,0.02789241261780262,-0.25937625765800476,2.4959444999694824e-06,0.13583248853683472,-0.21710504591464996,0.031836025416851044,,120.0,364.1499999999975,,
1776999841.938604,364183352326,1.5110604967790486,0.4118813948244129,1.5026206821881811,0.008439814590867512,1.5026206821881811,0.4302919982149593,0.07090075314044952,2.2689602375030518,1.440159743638599,-0.3121040942093753,-0.4123311110928799,-0.3036550645338449,-0.008449029675530406,-0.3036550645338449,-0.4307618162602049,-0.21774061024188995,-0.00576096773147583,-0.09436348396748534,0.2937085420822841,0.3877509766645511,0.2857631811322667,0.00794536095001741,0.2857631811322667,0.40508297936088744,0.2087925672531128,0.03893308341503143,0.08491597482917129,0.8336400756109442,-0.12732125134121244,0.8362490008216962,-0.0026089252107519556,0.8362490008216962,-0.13301235827415414,1.0273749828338623,-8.587509155273438,-0.19373490722291808,-1.5674955932242645,-0.009967564658372145,-1.5672913489959592,-0.00020424422830522815,-1.5672913489959592,-0.010413102820575174,-1.565226435661316,-0.04311716556549072,-0.0022691575629485428,0.290666837067423,-0.010151686316533383,0.10361401146997853,-0.0494409017264843,-0.2798220217227936,0.0019577108323574066,0.02789241261780262,-0.25937625765800476,2.4959444999694824e-06,0.1362161487340927,-0.21754251420497894,0.0318073108792305,,120.0,364.1666666666641,,
1776999842.0122664,364200018994,1.533806482248988,0.3486342312899241,1.5266321535140672,0.007174328734920854,1.533806482248988,0.3486342312899241,0.10992276668548584,2.659562349319458,1.4238837155635022,-0.33487491508056605,-0.34901489059507196,-0.3276927529926752,-0.007182162087890853,-0.33487491508056605,-0.34901489059507196,-0.24086996912956238,-0.8671241998672485,-0.09400494595100367,0.31512193485018686,0.32820920143526006,0.3083679202021982,0.006754014647988638,0.31512193485018686,0.32820920143526006,0.22510381042957306,0.14229977130889893,0.0900181244206138,0.8266088103743655,-0.10777021527555526,0.8288265471392243,-0.002217736764858813,0.8266088103743655,-0.10777021527555526,0.896260142326355,-4.231413841247559,-0.06965133195198947,-1.5680460480001768,-0.008436977941161874,-1.567872428636825,-0.0001736193633516958,-1.5680460480001768,-0.008436977941161874,-1.5657387971878052,-0.035199809819459915,-0.0023072508123715973,0.3051084209576848,-0.021757005135669166,0.11727332105612762,-0.0494409017264843,-0.2798220217227936,0.0019577108323574066,0.02789241261780262,-0.25937625765800476,2.4959444999694824e-06,0.13674795627593994,-0.21818917989730835,0.03165963292121887,,120.0,364.1833333333308,,
1776999842.0830507,364216685662,1.5585000447255388,0.2687239610106662,1.552925652568009,0.005574392157529751,1.5585000447255388,0.2687239610106662,0.15679259598255157,3.1590652465820312,1.4017074487429872,-0.35959543943719163,-0.2690173695950671,-0.35401496083130174,-0.005580478605889894,-0.35959543943719163,-0.2690173695950671,-0.2684321403503418,-1.0365674495697021,-0.09116329908684984,0.33836880418666554,0.252980541593713,0.33312099248515653,0.005247811701509009,0.33836880418666554,0.252980541593713,0.2497931867837906,0.6096512079238892,0.08857561740287495,0.8189755078894896,-0.08306826045356148,0.8206986704160854,-0.0017231625265957673,0.8189755078894896,-0.08306826045356148,0.8553054928779602,-0.9767454862594604,-0.03632998498847062,-1.56864363430469,-0.0065031426286527964,-1.5685087335420929,-0.00013490076259703443,-1.56864363430469,-0.0065031426286527964,-1.5663803815841675,-0.050373971462249756,-0.002263252720522413,0.30575527612336867,-0.03453456059655237,0.12249656255513547,-0.0494409017264843,-0.2798220217227936,0.0019577108323574066,0.02789241261780262,-0.25937625765800476,2.4959444999694824e-06,0.1374739110469818,-0.21904902160167694,0.03147426247596741,,120.0,364.19999999999743,,
1776999842.1579883,364233352329,1.5768009744254392,0.1888137396780281,1.5728258017815038,0.003975172643935432,1.5728258017815038,0.20878769693976593,0.21158339083194733,3.616178274154663,1.3652175835934919,-0.3779163511657022,-0.18901989759520635,-0.3739368381950826,-0.003979512970619603,-0.3739368381950826,-0.20901566359514628,-0.29073449969291687,-0.6929728388786316,-0.08718185147278534,0.35559755851782854,0.1777519278312638,0.35185527470878736,0.0037422838090411803,0.35185527470878736,0.19655569399648412,0.27504608035087585,0.5360274910926819,0.08055147816695268,0.8133183034141753,-0.05836632076202938,0.8145471133620954,-0.0012288099479200731,0.8145471133620954,-0.06454069344491677,0.8414788246154785,-0.33918431401252747,-0.02816052120130319,-1.5690865183542837,-0.004569308500619939,-1.5689903188394372,-9.619951484651779e-05,-1.5689903188394372,-0.0050526799590141095,-1.566996693611145,-0.03794768080115318,-0.0020898247431386796,0.3022832285688223,-0.04877223327434367,0.12298708257084015,-0.0494409017264843,-0.2798220217227936,0.0019577108323574066,0.02789241261780262,-0.25937625765800476,2.4959444999694824e-06,0.1384201943874359,-0.22012533247470856,0.03127044066786766,,120.0,364.2166666666641,,
1776999842.2301238,364250018997,1.5887097114054969,0.10889963858148258,1.5863315996196203,0.0023781117858765466,1.5863315996196203,0.12888043837212618,0.27394968271255493,4.161435127258301,1.314760028692942,-0.38983809080337734,-0.1090185415951263,-0.38745738245554906,-0.0023807083478282753,-0.38745738245554906,-0.12902115759506952,-0.32086288928985596,-1.1650424003601074,-0.06897520151352138,0.3668086121193791,0.10251966160403622,0.3645698240139238,0.0022387881054553027,0.3645698240139238,0.12132986942285282,0.304630309343338,0.5955406427383423,0.06217830277604108,0.809637060917556,-0.03366318175335867,0.8103721855728862,-0.0007351246553300994,0.8103721855728862,-0.03983966960668442,0.8308129906654358,-0.26193374395370483,-0.02117592974787974,-1.5693747107983707,-0.0026353804820319626,-1.569317160291627,-5.7550506743719865e-05,-1.569317160291627,-0.003118917530176318,-1.5677460432052612,-0.05572747066617012,-0.001628667593109423,0.29657875733516603,-0.06451049948782017,0.12419891517523159,-0.0494409017264843,-0.2798220217227936,0.0019577108323574066,0.02789241261780262,-0.25937625765800476,2.4959444999694824e-06,0.13954372704029083,-0.22147125005722046,0.0309456754475832,,120.0,364.23333333333073,,
1776999842.3025818,364266685664,1.5942252950421907,0.02898267359620206,1.593445887069041,0.0007794079731497927,1.593445887069041,0.04896030215931125,0.34411942958831787,4.6001057624816895,1.2501058654538728,-0.39535969667783777,-0.029014318579372665,-0.39457943770134196,-0.0007802589764958068,-0.39457943770134196,-0.04901375988929227,-0.34333088994026184,-0.6898505091667175,-0.05202880673757593,0.3720010606467384,0.027284699271389316,0.37126731494565457,0.00073374570108381,0.37126731494565457,0.046091921651757406,0.32520705461502075,0.3779681622982025,0.04679400603171763,0.8079320773486807,-0.008959157456135377,0.8081730088393808,-0.00024093149070014697,0.8081730088393808,-0.015134665015949447,0.8237325549125671,-0.16186204552650452,-0.015800477563886473,-1.5695081883897806,-0.0007013831570772156,-1.5694893266507814,-1.8861738999120803e-05,-1.5694893266507814,-0.0011848434612488704,-1.5682793855667114,-0.04956141859292984,-0.0012288028230691417,0.28994698581834805,-0.08187561888936673,0.12519607906817865,-0.0494409017264843,-0.2798220217227936,0.0019577108323574066,0.02789241261780262,-0.25937625765800476,2.4959444999694824e-06,0.1408463567495346,-0.22304396331310272,0.030641470104455948,,120.0,364.2499999999974,,
1776999842.3747327,364283352332,1.5946457512946977,-2.158870490548856e-17,1.5946051500366427,4.060125805493975e-05,1.5946457512946977,-2.158870490548856e-17,0.42175617814064026,4.971398830413818,1.1728895731540574,-0.3957806120091464,2.161227671993156e-17,-0.3957399664202546,-4.06455888917745e-05,-0.3957806120091464,2.161227671993156e-17,-0.3643089532852173,-0.6703002452850342,-0.0314716587239291,0.372396884115832,-2.0323912459300655e-17,0.37235866151664904,3.822259918295767e-05,0.372396884115832,-2.0323912459300655e-17,0.34521061182022095,0.3362470865249634,0.027186272295611047,0.8078021054274526,6.673525335066949e-18,0.8078146561351233,-1.2550707670699879e-05,0.8078021054274526,6.673525335066949e-18,0.817144513130188,-0.13647344708442688,-0.009342407702735422,-1.5695183634667214,5.224484881818813e-19,-1.5695173809128358,-9.825538855867677e-07,-1.5695183634667214,5.224484881818813e-19,-1.5687925815582275,-0.04988667368888855,-0.0007257819084938166,0.28142024749320355,-0.10041206337583115,0.12594872325991313,-0.0494409017264843,-0.2798220217227936,0.0019577108323574066,0.02789241261780262,-0.25937625765800476,2.4959444999694824e-06,0.1422017514705658,-0.2248944640159607,0.030141111463308334,,120.0,364.26666666666404,,
1776999842.4479623,364300018999,1.5946457512946977,-2.158870490548856e-17,1.5946457512946977,0.0,1.5946457512946977,-2.158870490548856e-17,0.506230354309082,5.36301851272583,1.0884153969856156,-0.3957806120091464,2.161227671993156e-17,-0.3957806120091464,0.0,-0.3957806120091464,2.161227671993156e-17,-0.38017213344573975,-0.4144509434700012,-0.015608478563406636,0.372396884115832,-2.0323912459300655e-17,0.372396884115832,0.0,0.372396884115832,-2.0323912459300655e-17,0.3600868880748749,0.18947824835777283,0.012309996040957116,0.8078021054274526,6.673525335066949e-18,0.8078021054274526,0.0,0.8078021054274526,6.673525335066949e-18,0.8122184872627258,-0.07939139753580093,-0.004416381835273264,-1.5695183634667214,5.224484881818813e-19,-1.5695183634667214,0.0,-1.5695183634667214,5.224484881818813e-19,-1.5691763162612915,-0.04724399372935295,-0.0003420472054298518,0.27105418485694405,-0.11994931155795417,0.12654018586857735,-0.0494409017264843,-0.2798220217227936,0.0019577108323574066,0.02789241261780262,-0.25937625765800476,2.4959444999694824e-06,0.14325450360774994,-0.22666719555854797,0.03026425652205944,,120.0,364.2833333333307,,
1776999842.5188994,364316685667,1.5946457512946977,-2.158870490548856e-17,1.5946457512946977,0.0,1.5946457512946977,-2.158870490548856e-17,0.5968608260154724,5.699110507965088,0.9977849252792252,-0.3957806120091464,2.161227671993156e-17,-0.3957806120091464,0.0,-0.3957806120091464,2.161227671993156e-17,-0.3885522186756134,-0.11315633356571198,-0.007228393333532979,0.372396884115832,-2.0323912459300655e-17,0.372396884115832,0.0,0.372396884115832,-2.0323912459300655e-17,0.3680551052093506,0.0038485974073410034,0.004341778906481408,0.8078021054274526,6.673525335066949e-18,0.8078021054274526,0.0,0.8078021054274526,6.673525335066949e-18,0.8095725178718567,-0.006435990333557129,-0.0017704124444041236,-1.5695183634667214,5.224484881818813e-19,-1.5695183634667214,0.0,-1.5695183634667214,5.224484881818813e-19,-1.5693821907043457,-0.04335290566086769,-0.00013617276237565257,0.2587179456002733,-0.14012125305882106,0.12683097114709196,-0.0494409017264843,-0.2798220217227936,0.0019577108323574066,0.02789241261780262,-0.25937625765800476,2.4959444999694824e-06,0.14415374398231506,-0.22817307710647583,0.030603952705860138,,120.0,364.29999999999734,,
1776999842.5915143,364333352334,1.5946457512946977,-2.158870490548856e-17,1.5946457512946977,0.0,1.5946457512946977,-2.158870490548856e-17,0.6934158802032471,6.089965343475342,0.9012298710914506,-0.3957806120091464,2.161227671993156e-17,-0.3957806120091464,0.0,-0.3957806120091464,2.161227671993156e-17,-0.3928122818470001,0.0488644540309906,-0.00296833016214626,0.372396884115832,-2.0323912459300655e-17,0.372396884115832,0.0,0.372396884115832,-2.0323912459300655e-17,0.3721688985824585,-0.13377338647842407,0.00022798553337349814,0.8078021054274526,6.673525335066949e-18,0.8078021054274526,0.0,0.8078021054274526,6.673525335066949e-18,0.8082087635993958,0.0363142155110836,-0.0004066581719431861,-1.5695183634667214,5.224484881818813e-19,-1.5695183634667214,0.0,-1.5695183634667214,5.224484881818813e-19,-1.5694867372512817,-0.046030815690755844,-3.162621543961741e-05,0.24389873578485222,-0.160474824270499,0.12702191201872587,-0.0494409017264843,-0.2798220217227936,0.0019577108323574066,0.02789241261780262,-0.25937625765800476,2.4959444999694824e-06,0.14478634297847748,-0.22943218052387238,0.030770326033234596,,120.0,364.316666666664,,
1776999842.6614003,364350019002,1.5946457512946977,-2.158870490548856e-17,1.5946457512946977,0.0,1.5946457512946977,-2.158870490548856e-17,0.7971447110176086,6.613609790802002,0.797501040277089,-0.3957806120091464,2.161227671993156e-17,-0.3957806120091464,0.0,-0.3957806120091464,2.161227671993156e-17,-0.3935392498970032,0.2525588870048523,-0.002241362112143208,0.372396884115832,-2.0323912459300655e-17,0.372396884115832,0.0,0.372396884115832,-2.0323912459300655e-17,0.37291309237480164,-0.23601560294628143,-0.0005162082589696415,0.8078021054274526,6.673525335066949e-18,0.8078021054274526,0.0,0.8078021054274526,6.673525335066949e-18,0.807936429977417,0.07185636460781097,-0.00013432454996442633,-1.5695183634667214,5.224484881818813e-19,-1.5695183634667214,0.0,-1.5695183634667214,5.224484881818813e-19,-1.569504976272583,-0.05159386992454529,-1.338719413834788e-05,0.2260529061946836,-0.1808482381301706,0.1271117726950799,-0.0494409017264843,-0.2798220217227936,0.0019577108323574066,0.02789241261780262,-0.25937625765800476,2.4959444999694824e-06,0.1453171670436859,-0.23035727441310883,0.031049655750393867,,120.0,364.33333333333064,,
1776999842.72989,364366685669,1.5946457512946977,-2.158870490548856e-17,1.5946457512946977,0.0,1.5946457512946977,-2.158870490548856e-17,0.9079381823539734,6.861249923706055,0.6867075689407243,-0.3957806120091464,2.161227671993156e-17,-0.3957806120091464,0.0,-0.3957806120091464,2.161227671993156e-17,-0.39359596371650696,0.2282639890909195,-0.002184648292639424,0.372396884115832,-2.0323912459300655e-17,0.372396884115832,0.0,0.372396884115832,-2.0323912459300655e-17,0.3730340003967285,-0.23702092468738556,-0.0006371162808965214,0.8078021054274526,6.673525335066949e-18,0.8078021054274526,0.0,0.8078021054274526,6.673525335066949e-18,0.8078742027282715,0.09090335667133331,-7.209730081891852e-05,-1.5695183634667214,5.224484881818813e-19,-1.5695183634667214,0.0,-1.5695183634667214,5.224484881818813e-19,-1.5695101022720337,-0.052912794053554535,-8.261194687664286e-06,0.20488904006687542,-0.20040077804960332,0.127203970266064,-0.0494409017264843,-0.2798220217227936,0.0019577108323574066,0.02789241261780262,-0.25937625765800476,2.4959444999694824e-06,0.1457148790359497,-0.23102296888828278,0.031274277716875076,,120.0,364.3499999999973,,
1776999842.799775,364383352337,1.5946457512946977,-2.158870490548856e-17,1.5946457512946977,0.0,1.5946457512946977,-2.158870490548856e-17,1.0248432159423828,7.232365608215332,0.5698025353523148,-0.3957806120091464,2.161227671993156e-17,-0.3957806120091464,0.0,-0.3957806120091464,2.161227671993156e-17,-0.39356568455696106,0.25728264451026917,-0.0022149274521853224,0.372396884115832,-2.0323912459300655e-17,0.372396884115832,0.0,0.372396884115832,-2.0323912459300655e-17,0.373037189245224,-0.24850352108478546,-0.0006403051293920048,0.8078021054274526,6.673525335066949e-18,0.8078021054274526,0.0,0.8078021054274526,6.673525335066949e-18,0.8078554272651672,0.09615859389305115,-5.332183771467047e-05,-1.5695183634667214,5.224484881818813e-19,-1.5695183634667214,0.0,-1.5695183634667214,5.224484881818813e-19,-1.5695099830627441,-0.05899021774530411,-8.380403977215067e-06,0.1802932928072003,-0.2184200543670375,0.12731039824044582,-0.0494409017264843,-0.2798220217227936,0.0019577108323574066,0.02789241261780262,-0.25937625765800476,2.4959444999694824e-06,0.14595021307468414,-0.23148301243782043,0.031302355229854584,,120.0,364.36666666666395,,
1776999842.8696132,364400019004,1.5946457512946977,-2.158870490548856e-17,1.5946457512946977,0.0,1.5946457512946977,-2.158870490548856e-17,1.1487573385238647,7.625043869018555,0.4458884127708329,-0.3957806120091464,2.161227671993156e-17,-0.3957806120091464,0.0,-0.3957806120091464,2.161227671993156e-17,-0.3934840261936188,0.2591501474380493,-0.0022965858155276075,0.372396884115832,-2.0323912459300655e-17,0.372396884115832,0.0,0.372396884115832,-2.0323912459300655e-17,0.37301239371299744,-0.23496858775615692,-0.0006155095971654423,0.8078021054274526,6.673525335066949e-18,0.8078021054274526,0.0,0.8078021054274526,6.673525335066949e-18,0.8078417778015137,0.10396737605333328,-3.967237406110602e-05,-1.5695183634667214,5.224484881818813e-19,-1.5695183634667214,0.0,-1.5695183634667214,5.224484881818813e-19,-1.5695092678070068,-0.06407489627599716,-9.095659714519755e-06,0.15211230447928514,-0.2342452335699337,0.1274128644512011,-0.0494409017264843,-0.2798220217227936,0.0019577108323574066,0.02789241261780262,-0.25937625765800476,2.4959444999694824e-06,0.14610306918621063,-0.23169352114200592,0.03150448203086853,,120.0,364.3833333333306,,
