inbarajaldrin/isaac-sim-mcp/.planning/saved_runs/2026-04-23-green2x2-postfix/20260423T200446_grasp_home.csv
t_wall,t_sim_ns,ref_pos_shoulder_pan,ref_vel_shoulder_pan,fb_pos_shoulder_pan,err_pos_shoulder_pan,js_pos_shoulder_pan,js_vel_shoulder_pan,isaac_pos_shoulder_pan,isaac_vel_shoulder_pan,isaac_lag_shoulder_pan,ref_pos_shoulder_lift,ref_vel_shoulder_lift,fb_pos_shoulder_lift,err_pos_shoulder_lift,js_pos_shoulder_lift,js_vel_shoulder_lift,isaac_pos_shoulder_lift,isaac_vel_shoulder_lift,isaac_lag_shoulder_lift,ref_pos_elbow_flex,ref_vel_elbow_flex,fb_pos_elbow_flex,err_pos_elbow_flex,js_pos_elbow_flex,js_vel_elbow_flex,isaac_pos_elbow_flex,isaac_vel_elbow_flex,isaac_lag_elbow_flex,ref_pos_wrist_flex,ref_vel_wrist_flex,fb_pos_wrist_flex,err_pos_wrist_flex,js_pos_wrist_flex,js_vel_wrist_flex,isaac_pos_wrist_flex,isaac_vel_wrist_flex,isaac_lag_wrist_flex,ref_pos_wrist_roll,ref_vel_wrist_roll,fb_pos_wrist_roll,err_pos_wrist_roll,js_pos_wrist_roll,js_vel_wrist_roll,isaac_pos_wrist_roll,isaac_vel_wrist_roll,isaac_lag_wrist_roll,tcp_x,tcp_y,tcp_z,cup_red_x,cup_red_y,cup_red_z,cup_green_x,cup_green_y,cup_green_z,cup_blue_x,cup_blue_y,cup_blue_z,attached_lego_xyz,physics_rate_hz,sim_time_s,render_fps,app_dt_ms
1776999886.8430493,379050019768,1.594547572410481,-0.01364931312777924,1.5946457512946977,-9.817888421670418e-05,1.5946457512946977,0.0,1.5961898565292358,-0.15570637583732605,-0.0016422841187548887,-0.3957568066766243,0.0033095348383496313,-0.3957806120091464,2.3805332522108813e-05,-0.3957806120091464,0.0,-0.39322277903556824,0.06897895038127899,-0.002534027641056036,0.37237355446729226,-0.0032434029029837995,0.372396884115832,-2.332964853973829e-05,0.372396884115832,0.0,0.3732741177082062,-0.06281578540802002,-0.0009005632409139208,0.8078496155797509,0.006605095898591968,0.8078021054274526,4.751015229831346e-05,0.8078021054274526,0.0,0.807929277420044,0.024209972470998764,-7.9661840293066e-05,-1.5695149041146497,0.0004809362015571027,-1.5695183634667214,3.4593520716885706e-06,-1.5695183634667214,0.0,-1.5695183277130127,-0.02132991887629032,3.4235983630281908e-06,0.039375994187385556,-0.260203814587835,0.12772631218473296,-0.0492180772125721,-0.2799921929836273,7.450580596923828e-09,0.03877135366201401,-0.27999165654182434,1.1175870895385742e-08,0.1267659068107605,-0.2799922525882721,0.0,,120.0,379.0166666666506,,
1776999886.9163902,379050019768,1.5914677286743648,-0.08323481993145829,1.592958086533925,-0.0014903578595601985,1.592958086533925,-0.0648477108628395,1.5961902141571045,-0.15592339634895325,-0.00472248548273968,-0.39501004015101776,0.020181860709621326,-0.3953714056799382,0.00036136552892046536,-0.3953714056799382,0.015723557389196622,-0.39322271943092346,0.06972714513540268,-0.0017873207200942987,0.37164171001322044,-0.019778581828090613,0.3719958546476741,-0.00035414463445365696,0.3719958546476741,-0.015409365416074832,0.3732740581035614,-0.06281593441963196,-0.0016323480903409626,0.8093399955746472,0.0402785079807529,0.8086187903027441,0.0007212052719031137,0.8086187903027441,0.03138072553858856,0.807929277420044,0.024143371731042862,0.0014107181546032521,-1.5694063852218698,0.0029327950615609458,-1.5694588982707847,5.2513048914848426e-05,-1.5694588982707847,0.0022849216989858064,-1.5695183277130127,-0.021308274939656258,0.00011194249114288013,0.039375940307064955,-0.2602037822276117,0.12772630690557943,-0.0492180772125721,-0.2799921929836273,7.450580596923828e-09,0.03877135366201401,-0.27999165654182434,1.1175870895385742e-08,0.1267659068107605,-0.2799922525882721,0.0,,120.0,379.0333333333173,,
1776999886.989468,379066686436,1.584839408128608,-0.1400453009999859,1.5874397367191415,-0.002600328590533607,1.584839408128608,-0.1400453009999859,1.596190094947815,-0.1574174165725708,-0.011350686819207034,-0.39340287812311386,0.033956639302482876,-0.3940333771072726,0.0006304989841587338,-0.39340287812311386,0.033956639302482876,-0.39322277903556824,0.06890927255153656,-0.00018009908754562653,0.37006666269041705,-0.033278109422818926,0.3706845628895181,-0.0006179001991010735,0.37006666269041705,-0.033278109422818926,0.373274028301239,-0.06262518465518951,-0.003207365610821966,0.8125475337446262,0.067769904213687,0.8112891979186736,0.0012583358259525834,0.8125475337446262,0.067769904213687,0.807929277420044,0.024162456393241882,0.004618256324582237,-1.5691728350588576,0.004934523406301575,-1.569264458142263,9.162308340537884e-05,-1.5691728350588576,0.004934523406301575,-1.5695183277130127,-0.021126989275217056,0.00034549265415506625,0.03937593652238299,-0.260203807433934,0.12772630354813158,-0.0492180772125721,-0.2799921929836273,7.450580596923828e-09,0.03877135366201401,-0.27999165654182434,1.1175870895385742e-08,0.1267659068107605,-0.2799922525882721,0.0,,120.0,379.0499999999839,,
1776999887.0609803,379083353104,1.5704357752467948,-0.22004534099998113,1.5746367522826479,-0.004200977035853093,1.5704357752467948,-0.22004534099998113,1.5961898565292358,-0.15692149102687836,-0.025754081282441055,-0.38991044415410014,0.05335416626744973,-0.39092905071144896,0.0010186065573488112,-0.38991044415410014,0.05335416626744973,-0.39322277903556824,0.0697035863995552,0.003312334881468093,0.36664401539197494,-0.052288030255152045,0.3676422679037238,-0.0009982525117488428,0.36664401539197494,-0.052288030255152045,0.37327414751052856,-0.06271996349096298,-0.006630132118553622,0.8195176556534619,0.10648305638071309,0.8174847433794281,0.0020329122740337935,0.8195176556534619,0.10648305638071309,0.8079293370246887,0.024101311340928078,0.011588318628773187,-1.5686653202541219,0.0077533403681531825,-1.5688133424966733,0.0001480222425513933,-1.5686653202541219,0.0077533403681531825,-1.5695182085037231,-0.021144205704331398,0.0008528882496012802,0.039375990296377714,-0.26020377115705395,0.1277262838604884,-0.0492180772125721,-0.2799921929836273,7.450580596923828e-09,0.03877135366201401,-0.27999165654182434,1.1175870895385742e-08,0.1267659068107605,-0.2799922525882721,0.0,,120.0,379.0666666666506,,
1776999887.163055,379100019771,1.5368280991871652,-0.3400519140000362,1.5434304823164802,-0.006602383129314937,1.5434304823164802,-0.32004771200002763,1.5954663753509521,-0.5011489987373352,-0.05863827616378692,-0.38176162569605226,0.08245203591529092,-0.38336249870541494,0.00160087300936268,-0.38336249870541494,0.07760163774414106,-0.3930671215057373,0.2903513014316559,0.01130549580968504,0.3586580286193151,-0.08080445914807098,0.36022691259228573,-0.0015688839729706139,0.36022691259228573,-0.07605098282063208,0.3730933368206024,-0.053205475211143494,-0.0144353082012873,0.8357808859878078,0.16455593636422755,0.8325858993009231,0.003194986686884671,0.8325858993009231,0.15487561975430003,0.8082749843597412,0.008782971650362015,0.027505901628066542,-1.5674811472546448,0.011981795297743228,-1.5677137835077455,0.00023263625310065983,-1.5677137835077455,0.011276943351344921,-1.5694938898086548,-0.014766323380172253,0.002012742554009961,0.03958288324942703,-0.26018042593394747,0.127693951316124,-0.0492180772125721,-0.2799921929836273,7.450580596923828e-09,0.03877135366201401,-0.27999165654182434,1.1175870895385742e-08,0.1267659068107605,-0.2799922525882721,0.0,,120.0,379.0833333333172,,
1776999887.2330995,379116686439,1.5146292068394147,-0.4000413589998208,1.5224287840579753,-0.007799577218560616,1.5224287840579753,-0.38004464799994814,1.5873360633850098,-1.5062990188598633,-0.07270685654559506,-0.3763790832259747,0.0969976146049594,-0.3782702386480515,0.0018911554220767957,-0.3782702386480515,0.09214903276886904,-0.39111268520355225,-0.047790348529815674,0.01473360197757756,0.35338304143060595,-0.095059384523377,0.35523640732205436,-0.0018533658914484108,0.35523640732205436,-0.09030768823653997,0.3711492717266083,-0.03092993050813675,-0.017766230296002328,0.846523244334105,0.1935856782580086,0.8427489184750101,0.0037743258590948736,0.8427489184750101,0.18390898664916003,0.8121728897094727,0.19628162682056427,0.03435035462463232,-1.5666989649671859,0.014095535054585337,-1.566973784586762,0.00027481961957609435,-1.566973784586762,0.013390947055066483,-1.5692039728164673,-0.05946994572877884,0.0025050078492814265,0.04209866711391293,-0.2598932200820782,0.12725041422276212,-0.0492180772125721,-0.2799921929836273,7.450580596923828e-09,0.03877135366201401,-0.27999165654182434,1.1175870895385742e-08,0.1267659068107605,-0.2799922525882721,0.0,,120.0,379.0999999999839,,
1776999887.3023474,379133353106,1.479420354611115,-0.48005278129522383,1.4888288786728316,-0.00940852406171655,1.4888288786728316,-0.4600365587983175,1.573751449584961,-1.8512327671051025,-0.09433109497384584,-0.36784202923820164,0.11639790142332386,-0.3701233043374103,0.0022812750992086683,-0.3701233043374103,0.11154458865472137,-0.3877287209033966,0.010679230093955994,0.019886691665194967,0.34501657694562204,-0.1140720100610477,0.3472522670473063,-0.002235690101684229,0.3472522670473063,-0.1093156773763495,0.3679195046424866,-0.04744841158390045,-0.022902927696864528,0.8635613064893347,0.23230433847898738,0.8590083884699377,0.004552918019397056,0.8590083884699377,0.22261820498039173,0.8187522888183594,0.2862390875816345,0.04480901767097534,-1.5654583742141295,0.01691475307375721,-1.5657898853885117,0.00033151117438223743,-1.5657898853885117,0.016209477582858876,-1.568719744682312,-0.0610165074467659,0.003261370468182534,0.0457122282991857,-0.2594496486254044,0.12649520165667538,-0.0492180772125721,-0.2799921929836273,7.450580596923828e-09,0.03877135366201401,-0.27999165654182434,1.1175870895385742e-08,0.1267659068107605,-0.2799922525882721,0.0,,120.0,379.11666666665053,,
1776999887.3757527,379150019774,1.459420941794055,-0.5200475958136084,1.4696211651399194,-0.010200223345864456,1.459420941794055,-0.5200475958136084,1.5586341619491577,-1.7868359088897705,-0.09921322015510281,-0.3629927922952896,0.12609540273806158,-0.36546602990117194,0.0024732376058823613,-0.3629927922952896,0.12609540273806158,-0.38399025797843933,0.02971699833869934,0.020997465683149752,0.3402642386424729,-0.12357573353040649,0.3426880554090271,-0.0024238167665541765,0.3402642386424729,-0.12357573353040649,0.364380806684494,-0.08211443573236465,-0.024116568042021114,0.8732393055458123,0.2516583955562163,0.8683032730322511,0.004936032513561228,0.8732393055458123,0.2516583955562163,0.8260398507118225,0.31735026836395264,0.047199454833989796,-1.5647536910155242,0.018323978138584246,-1.565113097868095,0.0003594068525707428,-1.5647536910155242,0.018323978138584246,-1.5681837797164917,-0.060641467571258545,0.003430088700967504,0.049619529241941636,-0.2588935361767971,0.12568098170879535,-0.0492180772125721,-0.2799921929836273,7.450580596923828e-09,0.03877135366201401,-0.27999165654182434,1.1175870895385742e-08,0.1267659068107605,-0.2799922525882721,0.0,,120.0,379.1333333333172,,
1776999887.4510403,379166686441,1.4024126999669349,-0.6200531347874083,1.4146182700172385,-0.012205570050303649,1.4146182700172385,-0.6000457028133754,1.534706950187683,-3.5482399463653564,-0.13229425022074826,-0.3491700628558174,0.15034364235007305,-0.352129534803251,0.0029594719474335673,-0.352129534803251,0.14549246101046234,-0.3781249225139618,0.01953822374343872,0.028954859658144372,0.32671771836668245,-0.14733943888213846,0.329618053421137,-0.002900335054454528,0.329618053421137,-0.14258519503570183,0.35863184928894043,-0.015434503555297852,-0.03191413092225798,0.9008264010101207,0.3000524919571593,0.8949199528303095,0.00590644817981123,0.8949199528303095,0.2903706123170692,0.8376317024230957,0.4926440715789795,0.06319469858702498,-1.5627449945320322,0.021847692745953676,-1.563175060165584,0.0004300656335518571,-1.563175060165584,0.0211427269907921,-1.5673340559005737,-0.0801541805267334,0.004589061368541536,0.05631445953300829,-0.257759226640994,0.12442586906622195,-0.0492180772125721,-0.2799921929836273,7.450580596923828e-09,0.03877135366201401,-0.27999165654182434,1.1175870895385742e-08,0.1267659068107605,-0.2799922525882721,0.0,,120.0,379.14999999998383,,
1776999887.5222666,379183353109,1.3496184486501326,-0.7000387462245163,1.3634111633983146,-0.013792714748182,1.3634111633983146,-0.6800505617487425,1.5107901096343994,-2.491159439086914,-0.16117166098426683,-0.3363690953373891,0.16973767083631688,-0.33971340061833605,0.0033443052809469243,-0.33971340061833605,0.16489115641770477,-0.3722894489765167,0.1279992312192917,0.0359203536391276,0.3141725429150863,-0.16634593114320714,0.31745002146917045,-0.0032774785540841678,0.31745002146917045,-0.16159626096221621,0.3529951870441437,-0.08992431312799454,-0.03882264412905739,0.9263742867958288,0.3387586619383014,0.9196997968225382,0.006674489973290565,0.9196997968225382,0.32908609643518233,0.8491690158843994,0.46287256479263306,0.07720527091142937,-1.5608847788233933,0.024666001314579227,-1.5613707678089246,0.000485988985531316,-1.5613707678089246,0.023961713748768716,-1.5664891004562378,-0.05487900227308273,0.005604321632844522,0.06218290634871779,-0.25665502055072814,0.12317610889823732,-0.0492180772125721,-0.2799921929836273,7.450580596923828e-09,0.03877135366201401,-0.27999165654182434,1.1175870895385742e-08,0.1267659068107605,-0.2799922525882721,0.0,,120.0,379.1666666666505,,
1776999887.592805,379200019776,1.3058163959471216,-0.7600382947975183,1.320816769320857,-0.015000373373735387,1.320816769320857,-0.7400388696641796,1.476237177848816,-4.834765434265137,-0.1704207819016943,-0.3257484569173636,0.18428569932892996,-0.3293855819363212,0.003637125018957632,-0.3293855819363212,0.17943645939970607,-0.36374226212501526,0.07405471801757812,0.037993805207651665,0.30376412869206937,-0.1806032573688966,0.30732857578847267,-0.0035644470964033004,0.30732857578847267,-0.17585091613910867,0.344698041677475,0.045132748782634735,-0.04093391298540561,0.9475707203416139,0.36779329309423026,0.9403118272588135,0.007258893082800477,0.9403118272588135,0.3581152880777332,0.8659512996673584,0.6470144987106323,0.08161942067425554,-1.5593414049810443,0.026780097072802145,-1.5598699460530228,0.0005285410719784167,-1.5598699460530228,0.026075413440220623,-1.5652623176574707,-0.11011679470539093,0.00592091267642636,0.07162302724436656,-0.2544669703123676,0.12138239427745497,-0.0492180772125721,-0.2799921929836273,7.450580596923828e-09,0.03877135366201401,-0.27999165654182434,1.1175870895385742e-08,0.1267659068107605,-0.2799922525882721,0.0,,120.0,379.18333333331714,,
1776999887.667603,379216686444,1.2417446836490846,-0.8401199617207237,1.2584056164385558,-0.016660932789471117,1.2584056164385558,-0.8200485896774304,1.4341261386871338,-5.121088981628418,-0.19238145503804915,-0.31021305509765423,0.20370301828955806,-0.3142528142408407,0.004039759143186494,-0.3142528142408407,0.1988363334674792,-0.35352733731269836,0.33562275767326355,0.04331428221504413,0.28853915907483285,-0.19963257470838427,0.29249819476182337,-0.00395903568699052,0.29249819476182337,-0.1948631371738604,0.3346805274486542,-0.09412510693073273,-0.04614136837382132,0.9785759291864651,0.40654594568526387,0.9705134678886512,0.00806246129781385,0.9705134678886512,0.3968331245402553,0.8862547874450684,0.8213667869567871,0.09232114174139672,-1.557083825742332,0.02960179017513926,-1.5576708769481453,0.0005870512058132604,-1.5576708769481453,0.028894571479211578,-1.5637723207473755,-0.10817521810531616,0.006688495005043427,0.08221012578287132,-0.25158109398374906,0.11925497895629704,-0.0492180772125721,-0.2799921929836273,7.450580596923828e-09,0.03877135366201401,-0.27999165654182434,1.1175870895385742e-08,0.1267659068107605,-0.2799922525882721,0.0,,120.0,379.1999999999838,,
1776999887.75001,379233353111,1.1714027483589942,-0.9200463989160631,1.1896105157224024,-0.018207767363408234,1.1896105157224024,-0.9000387963078424,1.396055817604065,-4.0077362060546875,-0.22465306924507078,-0.2931573187935531,0.22308269885859777,-0.2975721373161885,0.0044148185226353664,-0.2975721373161885,0.21823147614549213,-0.3441610038280487,0.29304131865501404,0.051003685034495594,0.27182423466907357,-0.21862500575584107,0.27615083520717243,-0.004326600538098857,0.27615083520717243,-0.21387072136264518,0.3257623016834259,-0.17527064681053162,-0.05393806701435233,1.012615387724349,0.44522348041289456,1.003804391272827,0.008810996451521946,1.003804391272827,0.4355415182005053,0.9046446681022644,0.7568089365959167,0.10797071962208449,-1.554605313977529,0.03241801372785873,-1.5552468682002683,0.0006415542227391491,-1.5552468682002683,0.031713041960368074,-1.5624303817749023,-0.08472992479801178,0.007825067797373242,0.0912499866434457,-0.24863880761234633,0.11741263608246255,-0.0492180772125721,-0.2799921929836273,7.450580596923828e-09,0.03877135366201401,-0.27999165654182434,1.1175870895385742e-08,0.1267659068107605,-0.2799922525882721,0.0,,120.0,379.21666666665044,,
1776999887.8221738,379250019779,1.0946094372542885,-1.0000359016587084,1.1144066900458642,-0.019797252791575737,1.1144066900458642,-0.9800394612857597,1.3462167978286743,-5.9709696769714355,-0.2516073605743858,-0.274537324067517,0.2424776708656709,-0.27933754347811807,0.004800219410601048,-0.27933754347811807,0.23762915464821474,-0.33146265149116516,0.3405640721321106,0.05692532742364814,0.2535763092361215,-0.23763242268407497,0.2582806094872911,-0.00470430025116958,0.2582806094872911,-0.2328807907046416,0.3134291470050812,-0.12233368307352066,-0.059852837768959666,1.0497767583712507,0.48393153345188616,1.0401965874137165,0.009580170957534273,1.0401965874137165,0.4742549728031705,0.9296133518218994,0.9829996228218079,0.12016340654935131,-1.5518994867317153,0.03523645940738729,-1.5525970467825203,0.0006975600508050128,-1.5525970467825203,0.03453188094343785,-1.5606210231781006,-0.0804133489727974,0.008721536446385292,0.10388623239303255,-0.24378344778534639,0.11486532641223768,-0.0492180772125721,-0.2799921929836273,7.450580596923828e-09,0.03877135366201401,-0.27999165654182434,1.1175870895385742e-08,0.1267659068107605,-0.2799922525882721,0.0,,120.0,379.2333333333171,,
1776999887.8918858,379266686446,1.0327989977307186,-1.0600436648503155,1.053802760633786,-0.02100376290306749,1.053802760633786,-1.0400409212746218,1.2854814529418945,-6.955348014831543,-0.25268245521117594,-0.2595502107188865,0.25702769114836854,-0.2646429713884818,0.005092760669595298,-0.2646429713884818,0.2521776465998627,-0.3168955445289612,0.5277725458145142,0.05734533381007467,0.2388886720555055,-0.2518917008994078,0.24387966793461266,-0.004990995879107146,0.24387966793461266,-0.24713857112842844,0.2992401719093323,-0.19228176772594452,-0.06035149985382676,1.079687705300619,0.5129701397780854,1.0695236870157936,0.010164018284825493,1.0695236870157936,0.5032905289203504,0.9583476781845093,1.175110101699829,0.1213400271161098,-1.5497215838788154,0.03735084460926756,-1.5504616555479511,0.0007400716691357001,-1.5504616555479511,0.03664604405074172,-1.558505654335022,-0.1421729028224945,0.00878407045620655,0.11826634536874948,-0.2372906121439415,0.11209322042754954,-0.0492180772125721,-0.2799921929836273,7.450580596923828e-09,0.03877135366201401,-0.27999165654182434,1.1175870895385742e-08,0.1267659068107605,-0.2799922525882721,0.0,,120.0,379.24999999998374,,
1776999887.9717884,379283353114,0.9447042950367873,-1.1401236070387006,0.9673911981442536,-0.02268690310746624,0.9673911981442536,-1.1200482290249105,1.2328041791915894,-5.122939586639404,-0.28809988415480203,-0.23818997926179786,0.27644459191432774,-0.24369084919609665,0.0055008699342987966,-0.24369084919609665,0.2715769357687335,-0.3044048845767975,0.5956089496612549,0.06621490531499963,0.217955265972714,-0.2709206084006971,0.22334621617728573,-0.005390950204571726,0.22334621617728573,-0.2661502189518696,0.2869507968425751,-0.3111662268638611,-0.06899553086986107,1.1223179793667315,0.5517219577455187,1.1113394657035114,0.010978513663220113,1.1113394657035114,0.5420071980546753,0.9835333228111267,1.0266830921173096,0.1387846565556048,-1.546617549903303,0.04017247694026868,-1.5474169273447527,0.0007993774414496446,-1.5474169273447527,0.03946511709319121,-1.556666612625122,-0.10882198810577393,0.010049062721819046,0.1294945047820219,-0.2313596476577106,0.10982025693461982,-0.0492180772125721,-0.2799921929836273,7.450580596923828e-09,0.03877135366201401,-0.27999165654182434,1.1175870895385742e-08,0.1267659068107605,-0.2799922525882721,0.0,,120.0,379.2666666666504,,
1776999888.0506904,379300019782,0.8503619738772795,-1.2238572374318593,0.8746012100573147,-0.024239236180035206,0.8746012100573147,-1.200036692888675,1.1690216064453125,-6.285783767700195,-0.318659632568033,-0.21531489421647576,0.29674739868075173,-0.22119215674550033,0.005877262529024568,-0.22119215674550033,0.2909716558799055,-0.28753432631492615,0.7974540591239929,0.07221943209845039,0.19553727647694882,-0.29081771951186486,0.20129709810727173,-0.005759821630322903,0.20129709810727173,-0.28515738901766247,0.2707202434539795,-0.4002422094345093,-0.07518296697703067,1.1679715644754307,0.5922418471719396,1.1562418548571551,0.011729709618275574,1.1562418548571551,0.5807147483654462,1.0167244672775269,1.1978380680084229,0.15124709719790386,-1.5432933798765847,0.04312284768544553,-1.5441474540756284,0.0008540741990437084,-1.5441474540756284,0.04228352616762444,-1.5542868375778198,-0.06659045070409775,0.010993457701235165,0.14326069286040544,-0.22267607678753737,0.10674234404209498,-0.0492180772125721,-0.2799921929836273,7.450580596923828e-09,0.03877135366201401,-0.27999165654182434,1.1175870895385742e-08,0.1267659068107605,-0.2799922525882721,0.0,,120.0,379.28333333331705,,
1776999888.12064,379316686449,0.7756737585021114,-1.2440365999496976,0.8006636466653622,-0.024989888163250762,0.7756737585021114,-1.2440365999496976,1.0906060934066772,-8.518259048461914,-0.31493233490456585,-0.1972053198749489,0.301640267841495,-0.2032645922140399,0.006059272339090982,-0.1972053198749489,0.301640267841495,-0.2683584690093994,0.8010475039482117,0.0711531491344505,0.1777895720834237,-0.29561281816319657,0.1837277665592296,-0.005938194475805902,0.1777895720834237,-0.29561281816319657,0.25245457887649536,-0.40582752227783203,-0.07466500679307167,1.204114249490378,0.6020069264366933,1.1920212887480948,0.012092960742283276,1.204114249490378,0.6020069264366933,1.053917646408081,1.4549498558044434,0.150196603082297,-1.5406617260880435,0.043833871446764046,-1.5415422496556463,0.00088052356760282,-1.5406617260880435,0.043833871446764046,-1.5515369176864624,-0.16403961181640625,0.010875191598418876,0.15970933998940146,-0.2105795964117731,0.1034288407269119,-0.0492180772125721,-0.2799921929836273,7.450580596923828e-09,0.03877135366201401,-0.27999165654182434,1.1175870895385742e-08,0.1267659068107605,-0.2799922525882721,0.0,,120.0,379.2999999999837,,
1776999888.1999805,379333353117,0.679236142215291,-1.1655427485909866,0.7027503499060062,-0.023514207690715105,0.7027503499060062,-1.1855455765916076,1.0046803951263428,-9.06119155883789,-0.3254442529110517,-0.1738221907870034,0.2826079448787291,-0.17952365640802684,0.005701465621023444,-0.17952365640802684,0.2874580098976681,-0.24807657301425934,0.994172990322113,0.07425438222725594,0.15487369040547236,-0.27696080373728044,0.16046122794464782,-0.005587537539175458,0.16046122794464782,-0.281713953569638,0.23234565556049347,-0.4208245873451233,-0.07747196515502111,1.2507817775808376,0.5640226402810212,1.2394029195150422,0.011378858065795416,1.2394029195150422,0.5737022919931892,1.094335675239563,1.5728673934936523,0.15644610234127465,-1.537263727930178,0.04106812533448891,-1.5380922556094507,0.0008285276792727725,-1.5380922556094507,0.041772928867750955,-1.548590064048767,-0.17713597416877747,0.011326336118589131,0.17578659350543163,-0.19648464525641807,0.100144419284062,-0.0492180772125721,-0.2799921929836273,7.450580596923828e-09,0.03877135366201401,-0.27999165654182434,1.1175870895385742e-08,0.1267659068107605,-0.2799922525882721,0.0,,120.0,379.31666666665035,,
1776999888.2625954,379350019784,0.589112060578255,-1.0854684405912123,0.6111056922049058,-0.0219936316266508,0.6111056922049058,-1.1055446615910096,0.9316712617874146,-6.469841957092285,-0.3425592012091595,-0.1519698979163079,0.2631924102286625,-0.15730267103161547,0.005332773115307554,-0.15730267103161547,0.26806027077220973,-0.23134493827819824,0.9577343463897705,0.07937504036189033,0.13345805540070507,-0.2579332350538223,0.1386842677380756,-0.005226212337370528,0.1386842677380756,-0.262703824816258,0.21550652384757996,-0.5570645332336426,-0.08204846844687488,1.2943940968537893,0.5252735487772604,1.283751067076951,0.010643029776838286,1.283751067076951,0.5349887164009776,1.1288461685180664,1.3370511531829834,0.16554792833572285,-1.534088188393083,0.03824669152522257,-1.5348631382791302,0.0007749498860472048,-1.5348631382791302,0.03895408107508188,-1.5460559129714966,-0.1338992714881897,0.011967724578413552,0.18743857937031105,-0.18426669593614353,0.09764988580165222,-0.0492180772125721,-0.2799921929836273,7.450580596923828e-09,0.03877135366201401,-0.27999165654182434,1.1175870895385742e-08,0.1267659068107605,-0.2799922525882721,0.0,,120.0,379.333333333317,,
1776999888.3349314,379366686452,0.5465591528572231,-1.0455314055931013,0.5676819472718528,-0.02112279441462972,0.5465591528572231,-1.0455314055931013,0.8485122919082642,-6.926267147064209,-0.30195313905104104,-0.14165213838823143,0.2535089186544538,-0.14677376050533605,0.005121622117104624,-0.14165213838823143,0.2535089186544538,-0.20903638005256653,1.4105626344680786,0.0673842416643351,0.12334646786946872,-0.24844324137892657,0.12836574847957558,-0.005019280610106855,0.12334646786946872,-0.24844324137892657,0.1938008815050125,-0.7130353450775146,-0.07045441363554379,1.3149860514547396,0.505947452028067,1.3047644321359666,0.010221619318772968,1.3149860514547396,0.505947452028067,1.1733038425445557,1.4130558967590332,0.1416822089101839,-1.5325888284170148,0.03683950233307131,-1.5333330941846008,0.0007442657675860165,-1.5325888284170148,0.03683950233307131,-1.5428987741470337,-0.060433417558670044,0.010309945730018866,0.19934101210820815,-0.1688408210061433,0.09429455406636031,-0.0492180772125721,-0.2799921929836273,7.450580596923828e-09,0.03877135366201401,-0.27999165654182434,1.1175870895385742e-08,0.1267659068107605,-0.2799922525882721,0.0,,120.0,379.34999999998365,,
1776999888.4052305,379383353119,0.4470009924858614,-0.9455260965914815,0.46605249753771744,-0.019051505051856044,0.46605249753771744,-0.9654649705927169,0.7499764561653137,-9.50269889831543,-0.30297546367945233,-0.11751237420328797,0.2292607348035477,-0.12213177293067094,0.00461939872738297,-0.12213177293067094,0.23409529296239862,-0.18497850000858307,1.1460062265396118,0.0674661258052951,0.0996890703622641,-0.22467959067405557,0.10421616313337478,-0.004527092771110686,0.10421616313337478,-0.2294175435082019,0.17068897187709808,-0.7288644313812256,-0.07099990151483399,1.3631636550150195,0.4575534669138523,1.353944361948622,0.00921929306639746,1.353944361948622,0.46720217038012885,1.220410704612732,1.5887004137039185,0.14275295040228753,-1.5290808772816789,0.03331579582887073,-1.5297521607658977,0.0006712834842188542,-1.5297521607658977,0.03401834593051124,-1.5394154787063599,-0.11647682636976242,0.010334601424681011,0.21263417636319795,-0.14823641775298627,0.09110399132192626,-0.0492180772125721,-0.2799921929836273,7.450580596923828e-09,0.03877135366201401,-0.27999165654182434,1.1175870895385742e-08,0.1267659068107605,-0.2799922525882721,0.0,,120.0,379.3666666666503,,
1776999888.4761786,379400019787,0.3920876758244679,-0.885546704592056,0.40999477131282447,-0.01790709548835656,0.40999477131282447,-0.9055424655930968,0.6674515008926392,-7.570196628570557,-0.27536382506817125,-0.10419759910223551,0.21471759365448792,-0.10853951402627367,0.004341914924038154,-0.10853951402627367,0.2195659451453451,-0.16705267131328583,0.9521990418434143,0.06285507221105031,0.08664035435694775,-0.21042705413182947,0.09089550807400451,-0.004255153717056759,0.09089550807400451,-0.21517852467624343,0.15262408554553986,-0.6833617091178894,-0.0659837311885921,1.3897369865272189,0.4285285898093286,1.3810714894535874,0.008665497073631512,1.3810714894535874,0.4382048217003176,1.256870985031128,1.3648525476455688,0.13286600149609096,-1.527145995893666,0.03120241029142531,-1.5277769558844354,0.000630959990769453,-1.5277769558844354,0.03190696481757862,-1.536715030670166,-0.15062923729419708,0.009569034776500063,0.2215297618889583,-0.1314977608728373,0.08899219243487634,-0.0492180772125721,-0.2799921929836273,7.450580596923828e-09,0.03877135366201401,-0.27999165654182434,1.1175870895385742e-08,0.1267659068107605,-0.2799922525882721,0.0,,120.0,379.38333333331695,,
1776999888.5506523,379416686454,0.3406846809277432,-0.8254616745919562,0.357400522578569,-0.016715841650825847,0.3406846809277432,-0.8254616745919562,0.5833868980407715,-8.52199649810791,-0.2427022171130283,-0.0917339680891846,0.20014883856864066,-0.09578704092719824,0.0040530728380136355,-0.0917339680891846,0.20014883856864066,-0.14641118049621582,1.186368703842163,0.05467721240703122,0.07442577467009312,-0.19614941547676978,0.07839785801440151,-0.003972083344308389,0.07442577467009312,-0.19614941547676978,0.1321941763162613,-0.6177231073379517,-0.05776840164616817,1.4146116236308783,0.3994525929803838,1.4065225911575394,0.00808903247333892,1.4146116236308783,0.3994525929803838,1.2982251644134521,1.3872734308242798,0.11638645921742619,-1.5253348013754569,0.02908530257850875,-1.5259237873056744,0.0005889859302175005,-1.5253348013754569,0.02908530257850875,-1.5337692499160767,-0.1558527648448944,0.00843444854061981,0.2286913136672967,-0.11363656455300344,0.08659528292538758,-0.0492180772125721,-0.2799921929836273,7.450580596923828e-09,0.03877135366201401,-0.27999165654182434,1.1175870895385742e-08,0.1267659068107605,-0.2799922525882721,0.0,,120.0,379.3999999999836,,
1776999888.6216114,379433353122,0.2779109157543038,-0.7455464075919995,0.2930190213433337,-0.015108105589029863,0.2779109157543038,-0.7455464075919995,0.5138920545578003,-6.178106307983398,-0.23598113880349647,-0.07651327816647546,0.1807718664253196,-0.08017652490426184,0.0036632467377863825,-0.07651327816647546,0.1807718664253196,-0.13073775172233582,0.8213030695915222,0.05422447355586035,0.05950922829968438,-0.17715963873461069,0.06309927514433582,-0.0035900468446514386,0.05950922829968438,-0.17715963873461069,0.1165379136800766,-0.6869543194770813,-0.05702868538039222,1.4449887374830346,0.36078046366840977,1.4376777112557515,0.0073110262272830795,1.4449887374830346,0.36078046366840977,1.3303667306900024,1.1526542901992798,0.11462200679303214,-1.5231229555560082,0.02626947260979232,-1.5236552925935358,0.0005323370375276415,-1.5231229555560082,0.02626947260979232,-1.5313669443130493,-0.11994131654500961,0.008243988757041132,0.2332094270067479,-0.09903436435410232,0.08508651316758596,-0.0492180772125721,-0.2799921929836273,7.450580596923828e-09,0.03877135366201401,-0.27999165654182434,1.1175870895385742e-08,0.1267659068107605,-0.2799922525882721,0.0,,120.0,379.41666666665026,,
1776999888.6974967,379450019789,0.22146803441520982,-0.6655476565920824,0.2349779674532389,-0.013509933038029082,0.2349779674532389,-0.6855461685914874,0.443158358335495,-7.39195442199707,-0.22169032392028518,-0.06282763109985458,0.16137465200287437,-0.0661033705919858,0.0032757394921312244,-0.0661033705919858,0.1662236705254605,-0.11253416538238525,1.0019464492797852,0.049706534282530676,0.04609705118321109,-0.15815002419949192,0.049307334046857845,-0.003210282863646753,0.049307334046857845,-0.16290214844684395,0.09873746335506439,-0.6266031861305237,-0.0526404121718533,1.4723022470016094,0.32206793526682753,1.4657645991020871,0.00653764789952227,1.4657645991020871,0.331745498404881,1.3665192127227783,1.1777499914169312,0.10578303427883107,-1.5211341796592197,0.023450701066146096,-1.5216102047762199,0.00047602511700017835,-1.5216102047762199,0.024155352524252577,-1.5288158655166626,-0.15453843772411346,0.007681685857442888,0.23651323724195453,-0.08372848324141266,0.08326704872947734,-0.0492180772125721,-0.2799921929836273,7.450580596923828e-09,0.03877135366201401,-0.27999165654182434,1.1175870895385742e-08,0.1267659068107605,-0.2799922525882721,0.0,,120.0,379.4333333333169,,
1776999888.768695,379466686457,0.18333362784868504,-0.6055451015914597,0.19564532807687796,-0.012311700228192918,0.18333362784868504,-0.6055451015914597,0.3685765266418457,-7.719695568084717,-0.18524289879316067,-0.05358122097721959,0.1468258945448581,-0.056566426199129126,0.002985205221909537,-0.05358122097721959,0.1468258945448581,-0.09536328911781311,0.8770118355751038,0.04178206814059352,0.03703540509131361,-0.14389198357476735,0.039960959211653616,-0.0029255541203400057,0.03703540509131361,-0.14389198357476735,0.08176714926958084,-0.7036526799201965,-0.04473174417826723,1.4907560263273383,0.2930318492579908,1.484798220251629,0.005957806075709282,1.4907560263273383,0.2930318492579908,1.400960922241211,1.175251841545105,0.08979510408612734,-1.5197905064303117,0.02133649937584945,-1.5202243115813137,0.000433805151001998,-1.5197905064303117,0.02133649937584945,-1.5262531042099,-0.158477783203125,0.006462597779588242,0.23908933716249053,-0.06686810916781091,0.08188456089222139,-0.0492180772125721,-0.2799921929836273,7.450580596923828e-09,0.03877135366201401,-0.27999165654182434,1.1175870895385742e-08,0.1267659068107605,-0.2799922525882721,0.0,,120.0,379.44999999998356,,
1776999888.8409584,379483353124,0.13805200440521012,-0.5254727615919587,0.14880099431066413,-0.010748989905454004,0.13805200440521012,-0.5254727615919587,0.31508198380470276,-4.226492881774902,-0.17702997939949264,-0.04260183256988487,0.12741083707378173,-0.045208129035951776,0.0026062964660669083,-0.04260183256988487,0.12741083707378173,-0.08288834989070892,0.613837718963623,0.040286517320824056,0.02627540951106171,-0.12486488253519072,0.028829626323081194,-0.0025542168120194844,0.02627540951106171,-0.12486488253519072,0.06923507153987885,-0.5258845686912537,-0.04295966202881714,1.5126684451053491,0.25428371009741957,1.5074668566829965,0.005201588422352632,1.5126684451053491,0.25428371009741957,1.4265732765197754,0.8490639925003052,0.08609516858557376,-1.518194999625286,0.018515134909468246,-1.5185737423742676,0.00037874274898164195,-1.518194999625286,0.018515134909468246,-1.5243903398513794,-0.0669776052236557,0.006195340226093471,0.23975382435760087,-0.05643057546553909,0.08094729715277638,-0.0492180772125721,-0.2799921929836273,7.450580596923828e-09,0.03877135366201401,-0.27999165654182434,1.1175870895385742e-08,0.1267659068107605,-0.2799922525882721,0.0,,120.0,379.4666666666502,,
1776999888.9118474,379500019792,0.10832113494617861,-0.46546738259163906,0.11788691571217924,-0.009565780766000634,0.10832113494617861,-0.46546738259163906,0.2584068775177002,-6.443095684051514,-0.15008574257152157,-0.03539301939899775,0.11286139488348104,-0.037712424368663594,0.0023194049696658448,-0.03539301939899775,0.11286139488348104,-0.06871161609888077,0.7696692943572998,0.03331859669988302,0.019210644609786436,-0.1106061708606694,0.021483702661521494,-0.0022730580517350586,0.019210644609786436,-0.1106061708606694,0.055402860045433044,-0.5945764780044556,-0.03619221543564661,1.527055633829577,0.22524625751515237,1.5224266170642016,0.0046290167653755265,1.527055633829577,0.22524625751515237,1.4545799493789673,0.9346407055854797,0.07247568445060981,-1.5171474266600533,0.016400833715025896,-1.5174844788049833,0.00033705214492996127,-1.5171474266600533,0.016400833715025896,-1.5224063396453857,-0.15738290548324585,0.005258912985332431,0.2399323785455323,-0.04370095599357334,0.07995456998337275,-0.0492180772125721,-0.2799921929836273,7.450580596923828e-09,0.03877135366201401,-0.27999165654182434,1.1175870895385742e-08,0.1267659068107605,-0.2799922525882721,0.0,,120.0,379.48333333331686,,
1776999888.9822366,379516686460,0.07431503833386378,-0.38554855859149756,0.08223972005168466,-0.007924681717820875,0.07431503833386378,-0.38554855859149756,0.2131124883890152,-3.6669135093688965,-0.13879745005515143,-0.027147596321575894,0.09348356027800717,-0.0290690857022089,0.0019214893806330062,-0.027147596321575894,0.09348356027800717,-0.05846351385116577,0.5852009057998657,0.03131591752958988,0.01112998359490725,-0.09161554889028199,0.013013077304325549,-0.001883093709418299,0.01112998359490725,-0.09161554889028199,0.045106854289770126,-0.5227023363113403,-0.033976870694862875,1.5435116655110543,0.18657240692046467,1.5396767998132705,0.003834865697783796,1.5435116655110543,0.18657240692046467,1.4756909608840942,0.7084551453590393,0.0678207046269601,-1.5159492152349474,0.01358487841471236,-1.5162284429358766,0.00027922770092914106,-1.5159492152349474,0.01358487841471236,-1.5208097696304321,-0.04577261582016945,0.0048605543954847175,0.23956142740651895,-0.03456274338142259,0.07936870467259459,-0.0492180772125721,-0.2799921929836273,7.450580596923828e-09,0.03877135366201401,-0.27999165654182434,1.1175870895385742e-08,0.1267659068107605,-0.2799922525882721,0.0,,120.0,379.4999999999835,,
1776999889.0549169,379533353127,0.04667191477106013,-0.30555104959153623,0.05298290450999423,-0.006310989738934104,0.05298290450999423,-0.32555095359188385,0.1677667796611786,-4.868821144104004,-0.12109486489011846,-0.020444996739057957,0.07408664700200145,-0.02197521589440599,0.0015302191553480324,-0.02197521589440599,0.07893600304161737,-0.04691433906555176,0.5534178018569946,0.0264693423264938,0.004561316998149291,-0.07260622948402776,0.006060958939713369,-0.001499641941564078,0.006060958939713369,-0.07735868450406115,0.033855337649583817,-0.4793952703475952,-0.029294020651434525,1.5568885644333421,0.147860479540195,1.5538345871342312,0.0030539772991109437,1.5538345871342312,0.15753871628721883,1.4984605312347412,0.7376912832260132,0.058428033198600904,-1.514975204402238,0.010766150633153485,-1.51519757335258,0.0002223689503420001,-1.51519757335258,0.011470851138694746,-1.519222617149353,-0.11750191450119019,0.0042474127471150425,0.23860572235838842,-0.025044514051788973,0.0786758126030368,-0.0492180772125721,-0.2799921929836273,7.450580596923828e-09,0.03877135366201401,-0.27999165654182434,1.1175870895385742e-08,0.1267659068107605,-0.2799922525882721,0.0,,120.0,379.51666666665017,,
1776999889.1269567,379550019795,0.03013765130840232,-0.24554616059178822,0.03524777788626251,-0.00511012657786019,0.03013765130840232,-0.24554616059178822,0.12376684695482254,-4.347121238708496,-0.09362919564642022,-0.016435950976546043,0.059537323621631416,-0.017674998083127988,0.0012390471065819447,-0.016435950976546043,0.059537323621631416,-0.036756012588739395,0.3916288912296295,0.020320061612193352,0.0006323809695415265,-0.058347634245347724,0.0018466691335014766,-0.0012142881639599502,0.0006323809695415265,-0.058347634245347724,0.02376105822622776,-0.4690468907356262,-0.023128677256686235,1.564889728650257,0.11882326407613816,1.562416866039169,0.0024728626110879226,1.564889728650257,0.11882326407613816,1.5190728902816772,0.6694419384002686,0.04581683836857975,-1.5143926164147787,0.008651866704008193,-1.514572672718187,0.00018005630340822698,-1.5143926164147787,0.008651866704008193,-1.5176701545715332,-0.07860752940177917,0.003277538156754467,0.23739723311673475,-0.015912103721728306,0.07820806647006227,-0.0492180772125721,-0.2799921929836273,7.450580596923828e-09,0.03877135366201401,-0.27999165654182434,1.1175870895385742e-08,0.1267659068107605,-0.2799922525882721,0.0,,120.0,379.5333333333168,,
1776999889.196389,379566686462,0.013690876495931951,-0.16552754259157398,0.017201826605356442,-0.003510950109424491,0.017201826605356442,-0.1855296945921746,0.09434167295694351,-2.374129295349121,-0.08065079646101156,-0.0124481184965667,0.040135292068165046,-0.0132994149386712,0.0008512964421045002,-0.0132994149386712,0.044985193178077476,-0.029453476890921593,0.3608643710613251,0.017005358394354894,-0.0032757656655385795,-0.03933329883630637,-0.0024414800373510066,-0.0008342856281875729,-0.0024414800373510066,-0.04408628803490829,0.01666179858148098,-0.38284313678741455,-0.01993756424701956,1.5728485558704948,0.08010112175172025,1.5711495573970313,0.0016989984734634422,1.5711495573970313,0.0897804463379027,1.533582329750061,0.4821615517139435,0.039266226120433734,-1.51381311110692,0.0058323951426535086,-1.5139368201165728,0.00012370900965286147,-1.5139368201165728,0.0065371748569369075,-1.516638994216919,-0.041287027299404144,0.0028258831099989834,0.2362885302658549,-0.010510322033555635,0.07786821355921776,-0.0492180772125721,-0.2799921929836273,7.450580596923828e-09,0.03877135366201401,-0.27999165654182434,1.1175870895385742e-08,0.1267659068107605,-0.2799922525882721,0.0,,120.0,379.54999999998347,,
1776999889.273825,379583353130,0.003650114797361703,-0.08554439759189711,0.0055609888173518965,-0.0019108740199901934,0.0055609888173518965,-0.10554426559227013,0.06442341208457947,-3.276984214782715,-0.06077329728721777,-0.01001354539139286,0.020741861616453524,-0.010476873038846736,0.00046332764745387646,-0.010476873038846736,0.02559120892719275,-0.022214146330952644,0.2661098837852478,0.012200600939559785,-0.005661690534902935,-0.020327392659698577,-0.005207621213930398,-0.00045406932097253726,-0.005207621213930398,-0.02507983912527794,0.009426755830645561,-0.36079704761505127,-0.015088446365548496,1.5777074226349326,0.04139614531459423,1.576782723638433,0.0009246989964994956,1.576782723638433,0.05107436464071716,1.5482208728790283,0.47978460788726807,0.029486549755904257,-1.5134593229164914,0.0030141734794503086,-1.51352665293407,6.733001757863732e-05,-1.51352665293407,0.0037188727165259785,-1.5155895948410034,-0.07409197092056274,0.002130271924511984,0.23499122885532514,-0.004245780066359287,0.07758722166156666,-0.0492180772125721,-0.2799921929836273,7.450580596923828e-09,0.03877135366201401,-0.27999165654182434,1.1175870895385742e-08,0.1267659068107605,-0.2799922525882721,0.0,,120.0,379.5666666666501,,
1776999889.3447902,379600019797,0.0003152730968809855,-0.025458997592123216,0.0010283264601097088,-0.0007130533632287233,0.0003152730968809855,-0.025458997592123216,0.038805972784757614,-2.3660888671875,-0.03849069968787663,-0.009204949773078501,0.006173016817169811,-0.009377843084640463,0.00017289331156196235,-0.009204949773078501,0.006173016817169811,-0.016163717955350876,0.2791091799736023,0.006958768182272375,-0.006454128597615175,-0.006049666083877236,-0.006284690082531842,-0.0001694385150833328,-0.006454128597615175,-0.006049666083877236,0.00345959747210145,-0.3358917534351349,-0.009913726069716626,1.5793211997555905,0.012319969437566025,1.5789761431361948,0.00034505661939565613,1.5793211997555905,0.012319969437566025,1.5603916645050049,0.39529481530189514,0.018929535250585605,-1.5133418191208634,0.0008970527295267457,-1.5133669436947383,2.5124573874935052e-05,-1.5133418191208634,0.0008970527295267457,-1.5146872997283936,-0.04373796284198761,0.0013454806075301473,0.23378095564386975,0.0006107046495627121,0.07736494536025224,-0.0492180772125721,-0.2799921929836273,7.450580596923828e-09,0.03877135366201401,-0.27999165654182434,1.1175870895385742e-08,0.1267659068107605,-0.2799922525882721,0.0,,120.0,379.5833333333168,,
1776999889.4248188,379616686465,-8.807182312012274e-06,-4.104764094288662e-18,-8.807182312012274e-06,0.0,-8.807182312012274e-06,-4.104764094288662e-18,0.023124659433960915,-1.3605947494506836,-0.023133466616272927,-0.009126370362937451,9.952779049084912e-19,-0.009126370362937451,0.0,-0.009126370362937451,9.952779049084912e-19,-0.01228370051831007,0.17917276918888092,0.003157330155372619,-0.006531137814745307,-9.753900181528797e-19,-0.006531137814745307,0.0,-0.006531137814745307,-9.753900181528797e-19,-0.00033304921817034483,-0.25469857454299927,-0.006198088596574962,1.5794780267917108,1.9863534692230306e-18,1.5794780267917108,0.0,1.5794780267917108,1.9863534692230306e-18,1.568104863166809,0.2631000876426697,0.011373163624901705,-1.5133304000892231,1.4463216085083604e-19,-1.5133304000892231,0.0,-1.5133304000892231,1.4463216085083604e-19,-1.514137864112854,-0.025930538773536682,0.000807464023630855,0.23295930575394197,0.0034293100951222994,0.07723455537412344,-0.0492180772125721,-0.2799921929836273,7.450580596923828e-09,0.03877135366201401,-0.27999165654182434,1.1175870895385742e-08,0.1267659068107605,-0.2799922525882721,0.0,,120.0,379.5999999999834,,
1776999889.4931183,379633353132,-8.807182312012274e-06,-4.104764094288662e-18,-8.807182312012274e-06,0.0,-8.807182312012274e-06,-4.104764094288662e-18,0.010000425390899181,-1.3876436948776245,-0.010009232573211194,-0.009126370362937451,9.952779049084912e-19,-0.009126370362937451,0.0,-0.009126370362937451,9.952779049084912e-19,-0.009148483164608479,0.14279600977897644,2.211280167102765e-05,-0.006531137814745307,-9.753900181528797e-19,-0.006531137814745307,0.0,-0.006531137814745307,-9.753900181528797e-19,-0.0035332213155925274,-0.23552435636520386,-0.0029979164991527796,1.5794780267917108,1.9863534692230306e-18,1.5794780267917108,0.0,1.5794780267917108,1.9863534692230306e-18,1.5745580196380615,0.22298255562782288,0.004920007153649264,-1.5133304000892231,1.4463216085083604e-19,-1.5133304000892231,0.0,-1.5133304000892231,1.4463216085083604e-19,-1.5136786699295044,-0.034207534044981,0.00034826984028124564,0.2322284365490889,0.006005604461194813,0.07715114671254655,-0.0492180772125721,-0.2799921929836273,7.450580596923828e-09,0.03877135366201401,-0.27999165654182434,1.1175870895385742e-08,0.1267659068107605,-0.2799922525882721,0.0,,120.0,379.6166666666501,,
1776999889.5653927,379650019800,-8.807182312012274e-06,-4.104764094288662e-18,-8.807182312012274e-06,0.0,-8.807182312012274e-06,-4.104764094288662e-18,0.0021636185701936483,-0.5673120617866516,-0.0021724257525056606,-0.009126370362937451,9.952779049084912e-19,-0.009126370362937451,0.0,-0.009126370362937451,9.952779049084912e-19,-0.007305196952074766,0.11243855208158493,-0.0018211734108626847,-0.006531137814745307,-9.753900181528797e-19,-0.006531137814745307,0.0,-0.006531137814745307,-9.753900181528797e-19,-0.005360312294214964,-0.22435390949249268,-0.0011708255205303431,1.5794780267917108,1.9863534692230306e-18,1.5794780267917108,0.0,1.5794780267917108,1.9863534692230306e-18,1.5782713890075684,0.15201112627983093,0.001206637784142428,-1.5133304000892231,1.4463216085083604e-19,-1.5133304000892231,0.0,-1.5133304000892231,1.4463216085083604e-19,-1.513403296470642,-0.01309563685208559,7.289638141894095e-05,0.2317986204493778,0.007372858160600136,0.07709949166327466,-0.0492180772125721,-0.2799921929836273,7.450580596923828e-09,0.03877135366201401,-0.27999165654182434,1.1175870895385742e-08,0.1267659068107605,-0.2799922525882721,0.0,,120.0,379.6333333333167,,
1776999889.6416404,379666686467,-8.807182312012274e-06,-4.104764094288662e-18,-8.807182312012274e-06,0.0,-8.807182312012274e-06,-4.104764094288662e-18,0.00032211135840043426,0.06265775859355927,-0.00033091854071244653,-0.009126370362937451,9.952779049084912e-19,-0.009126370362937451,0.0,-0.009126370362937451,9.952779049084912e-19,-0.006826804019510746,0.06100805848836899,-0.002299566343426705,-0.006531137814745307,-9.753900181528797e-19,-0.006531137814745307,0.0,-0.006531137814745307,-9.753900181528797e-19,-0.005870561581104994,-0.17267899215221405,-0.0006605762336403132,1.5794780267917108,1.9863534692230306e-18,1.5794780267917108,0.0,1.5794780267917108,1.9863534692230306e-18,1.579274296760559,0.06996466219425201,0.0002037300311517054,-1.5133304000892231,1.4463216085083604e-19,-1.5133304000892231,0.0,-1.5133304000892231,1.4463216085083604e-19,-1.513340711593628,-0.004704244434833527,1.0311504404780791e-05,0.2316927004577876,0.007591850682390113,0.07709481929049641,-0.0492180772125721,-0.2799921929836273,7.450580596923828e-09,0.03877135366201401,-0.27999165654182434,1.1175870895385742e-08,0.1267659068107605,-0.2799922525882721,0.0,,120.0,379.6499999999834,,
1776999889.7120388,379683353135,-8.807182312012274e-06,-4.104764094288662e-18,-8.807182312012274e-06,0.0,-8.807182312012274e-06,-4.104764094288662e-18,4.7220077249221504e-05,-0.039792828261852264,-5.602725956123378e-05,-0.009126370362937451,9.952779049084912e-19,-0.009126370362937451,0.0,-0.009126370362937451,9.952779049084912e-19,-0.0067942580208182335,0.07485659420490265,-0.0023321123421192174,-0.006531137814745307,-9.753900181528797e-19,-0.006531137814745307,0.0,-0.006531137814745307,-9.753900181528797e-19,-0.0059869661927223206,-0.16193346679210663,-0.0005441716220229865,1.5794780267917108,1.9863534692230306e-18,1.5794780267917108,0.0,1.5794780267917108,1.9863534692230306e-18,1.5794650316238403,0.04937729239463806,1.2995167870455404e-05,-1.5133304000892231,1.4463216085083604e-19,-1.5133304000892231,0.0,-1.5133304000892231,1.4463216085083604e-19,-1.5133320093154907,-0.009081416763365269,1.60922626757376e-06,0.23167541697038882,0.0076415804271709525,0.07710728786578187,-0.0492180772125721,-0.2799921929836273,7.450580596923828e-09,0.03877135366201401,-0.27999165654182434,1.1175870895385742e-08,0.1267659068107605,-0.2799922525882721,0.0,,120.0,379.66666666665003,,
1776999889.7822118,379700019802,-8.807182312012274e-06,-4.104764094288662e-18,-8.807182312012274e-06,0.0,-8.807182312012274e-06,-4.104764094288662e-18,-6.33005470263015e-07,0.05030091851949692,-8.174176841749259e-06,-0.009126370362937451,9.952779049084912e-19,-0.009126370362937451,0.0,-0.009126370362937451,9.952779049084912e-19,-0.006785889621824026,0.06200283020734787,-0.002340480741113425,-0.006531137814745307,-9.753900181528797e-19,-0.006531137814745307,0.0,-0.006531137814745307,-9.753900181528797e-19,-0.00600925087928772,-0.15857449173927307,-0.0005218869354575873,1.5794780267917108,1.9863534692230306e-18,1.5794780267917108,0.0,1.5794780267917108,1.9863534692230306e-18,1.579501986503601,0.04708680510520935,-2.3959711890286783e-05,-1.5133304000892231,1.4463216085083604e-19,-1.5133304000892231,0.0,-1.5133304000892231,1.4463216085083604e-19,-1.5133309364318848,-0.007217191159725189,5.363426616167288e-07,0.23167284587404374,0.0076454506059585705,0.07710841863512788,-0.0492180772125721,-0.2799921929836273,7.450580596923828e-09,0.03877135366201401,-0.27999165654182434,1.1175870895385742e-08,0.1267659068107605,-0.2799922525882721,0.0,,120.0,379.6833333333167,,
1776999889.8546984,379716686470,-8.807182312012274e-06,-4.104764094288662e-18,-8.807182312012274e-06,0.0,-8.807182312012274e-06,-4.104764094288662e-18,-5.479470928548835e-06,0.021855587139725685,-3.3277113834634386e-06,-0.009126370362937451,9.952779049084912e-19,-0.009126370362937451,0.0,-0.009126370362937451,9.952779049084912e-19,-0.006779276300221682,0.06338203698396683,-0.0023470940627157693,-0.006531137814745307,-9.753900181528797e-19,-0.006531137814745307,0.0,-0.006531137814745307,-9.753900181528797e-19,-0.006012490019202232,-0.15783444046974182,-0.0005186477955430747,1.5794780267917108,1.9863534692230306e-18,1.5794780267917108,0.0,1.5794780267917108,1.9863534692230306e-18,1.5795091390609741,0.04606878384947777,-3.111226926333366e-05,-1.5133304000892231,1.4463216085083604e-19,-1.5133304000892231,0.0,-1.5133304000892231,1.4463216085083604e-19,-1.5133308172225952,-0.008088774979114532,4.171333720659476e-07,0.23167162147669065,0.007647187729145021,0.07710811932362191,-0.0492180772125721,-0.2799921929836273,7.450580596923828e-09,0.03877135366201401,-0.27999165654182434,1.1175870895385742e-08,0.1267659068107605,-0.2799922525882721,0.0,,120.0,379.69999999998333,,
