inbarajaldrin/isaac-sim-mcp/.planning/saved_runs/2026-04-23-green2x2-postfix/20260423T200721_grasp_home.csv
t_wall,t_sim_ns,ref_pos_shoulder_pan,ref_vel_shoulder_pan,fb_pos_shoulder_pan,err_pos_shoulder_pan,js_pos_shoulder_pan,js_vel_shoulder_pan,isaac_pos_shoulder_pan,isaac_vel_shoulder_pan,isaac_lag_shoulder_pan,ref_pos_shoulder_lift,ref_vel_shoulder_lift,fb_pos_shoulder_lift,err_pos_shoulder_lift,js_pos_shoulder_lift,js_vel_shoulder_lift,isaac_pos_shoulder_lift,isaac_vel_shoulder_lift,isaac_lag_shoulder_lift,ref_pos_elbow_flex,ref_vel_elbow_flex,fb_pos_elbow_flex,err_pos_elbow_flex,js_pos_elbow_flex,js_vel_elbow_flex,isaac_pos_elbow_flex,isaac_vel_elbow_flex,isaac_lag_elbow_flex,ref_pos_wrist_flex,ref_vel_wrist_flex,fb_pos_wrist_flex,err_pos_wrist_flex,js_pos_wrist_flex,js_vel_wrist_flex,isaac_pos_wrist_flex,isaac_vel_wrist_flex,isaac_lag_wrist_flex,ref_pos_wrist_roll,ref_vel_wrist_roll,fb_pos_wrist_roll,err_pos_wrist_roll,js_pos_wrist_roll,js_vel_wrist_roll,isaac_pos_wrist_roll,isaac_vel_wrist_roll,isaac_lag_wrist_roll,tcp_x,tcp_y,tcp_z,cup_red_x,cup_red_y,cup_red_z,cup_green_x,cup_green_y,cup_green_z,cup_blue_x,cup_blue_y,cup_blue_z,attached_lego_xyz,physics_rate_hz,sim_time_s,render_fps,app_dt_ms
1777000041.445035,429966689091,1.5573589932953742,-0.040005615388842654,1.5578888182277644,-0.0005298249323901771,1.5578888182277644,-0.013594902089775585,1.559718370437622,-0.13499435782432556,-0.002359377142247876,-0.22919102756900428,0.005864017665337973,-0.22926868923556967,7.766166656539286e-05,-0.22926868923556967,0.001992738900230086,-0.22624346613883972,0.07101137936115265,-0.002947561430164558,0.21260127289464215,-0.005703631439641325,0.21267681044387157,-7.553754922942635e-05,0.21267681044387157,-0.001938235675777592,0.2136102020740509,-0.06707888841629028,-0.0010089291794087574,0.7982752031525129,0.019875598057000666,0.7980119754207456,0.0002632277317672349,0.7980119754207456,0.006754222049439065,0.7980904579162598,0.030107665807008743,0.00018474523625311434,-1.5718180752430841,0.0012672644905385227,-1.5718348585950337,1.6783351949545278e-05,-1.5718348585950337,0.00043064796037435056,-1.5718388557434082,-0.02176676318049431,2.0780500324057982e-05,0.049045570692401,-0.27964575215144744,0.12840439599576886,-0.0492180772125721,-0.2799921929836273,7.450580596923828e-09,0.03877139836549759,-0.27999165654182434,3.725290298461914e-09,0.1267659068107605,-0.2799922525882721,0.0,,120.0,429.933333333271,,
1777000041.5518503,429966689091,1.5481861164054727,-0.14000172899999963,1.5507864129468643,-0.0026002965413916,1.5507864129468643,-0.11999954600000046,1.5597184896469116,-0.13567528128623962,-0.011532373241438965,-0.2278464685214418,0.020521434405009427,-0.22822761963499513,0.00038115111355332965,-0.22822761963499513,0.017589517139961982,-0.22624348104000092,0.07237669825553894,-0.0016029874814408873,0.21129348876202256,-0.019960154477497796,0.21166421504536354,-0.00037072628334097746,0.21166421504536354,-0.017108427820842164,0.21361017227172852,-0.06712610274553299,-0.002316683509705958,0.8028324737336052,0.06955568776641492,0.8015405938716563,0.001291879861948897,0.8015405938716563,0.05961819909872087,0.7980905175209045,0.030006129294633865,0.004741956212700682,-1.57152750450581,0.004434857908098179,-1.5716098745291116,8.237002330169219e-05,-1.5716098745291116,0.003801245451376953,-1.5718388557434082,-0.02172349952161312,0.00031135123759828964,0.04904560126671257,-0.2796457436641005,0.1284044341940873,-0.0492180772125721,-0.2799921929836273,7.450580596923828e-09,0.03877139836549759,-0.27999165654182434,3.725290298461914e-09,0.1267659068107605,-0.2799922525882721,0.0,,120.0,429.94999999993763,,
1777000041.6289768,429983355758,1.5337863921269554,-0.21999984700001188,1.5379859890652616,-0.004199596938306183,1.5379859890652616,-0.2000018470000004,1.5597182512283325,-0.1348911076784134,-0.025931859101377075,-0.22573575889419287,0.03224754766651984,-0.2263513352425173,0.0006155763483244314,-0.2263513352425173,0.029316243545042482,-0.22624337673187256,0.07180812954902649,0.0005076178376796914,0.20924050896609037,-0.03136554785795671,0.20983924874045284,-0.0005987397743624778,0.20983924874045284,-0.028514417574835065,0.2136101871728897,-0.06714017689228058,-0.004369678206799343,0.8099865477082125,0.10930036918751916,0.8079001030944778,0.0020864446137347503,0.8079001030944778,0.09936495871874194,0.7980905175209045,0.03006531298160553,0.011896030187308004,-1.5710713620599481,0.006968971513546523,-1.5712043933862445,0.00013303132629638448,-1.5712043933862445,0.0063354915624084405,-1.5718388557434082,-0.021786488592624664,0.0007674936834600743,0.04904562667945076,-0.27964573480413774,0.12840446969071653,-0.0492180772125721,-0.2799921929836273,7.450580596923828e-09,0.03877139836549759,-0.27999165654182434,3.725290298461914e-09,0.1267659068107605,-0.2799922525882721,0.0,,120.0,429.9666666666043,,
1777000041.7241004,430000022426,1.5129859876662035,-0.3000012360000041,1.5187972774265068,-0.0058112897603033176,1.5129859876662035,-0.3000012360000041,1.5595711469650269,-0.26899173855781555,-0.04658515929882334,-0.22268683843593934,0.043974140390762834,-0.22353865649901877,0.0008518180630794348,-0.22268683843593934,0.043974140390762834,-0.22622422873973846,0.116417296230793,0.003537390303799126,0.20627497926016047,-0.04277140758740464,0.20710349932314578,-0.0008285200629853107,0.20627497926016047,-0.04277140758740464,0.21358726918697357,-0.06003437936306,-0.007312289926813098,0.8203206089260359,0.14904667570750937,0.8174334427533394,0.002887166172696465,0.8203206089260359,0.14904667570750937,0.7981648445129395,0.027930399402976036,0.022155764413096413,-1.5704124642100905,0.00950318873500266,-1.5705965493962797,0.0001840851861891757,-1.5704124642100905,0.00950318873500266,-1.5718342065811157,-0.014536891132593155,0.0014217423710252142,0.049090400772686095,-0.27963711601986363,0.12839816674496918,-0.0492180772125721,-0.2799921929836273,7.450580596923828e-09,0.03877139836549759,-0.27999165654182434,3.725290298461914e-09,0.1267659068107605,-0.2799922525882721,0.0,,120.0,429.98333333327093,,
1777000041.800093,430016689093,1.4857885765099326,-0.3799941630000301,1.4931865330668503,-0.007397956556917773,1.4931865330668503,-0.35999951499997923,1.5533061027526855,-1.3288238048553467,-0.06751752624275298,-0.21870024560586487,0.0556994927561945,-0.21978463707230075,0.00108439146643588,-0.21978463707230075,0.05276867997041918,-0.2253829538822174,0.011406175792217255,0.006682708276352534,0.20239742337606717,-0.054176060882989346,0.20345215574793588,-0.0010547323718687052,0.20345215574793588,-0.05132540849708906,0.21263329684734344,-0.0020378660410642624,-0.010235873471276274,0.8338328323246502,0.1887887781349361,0.8301573780280648,0.0036754542965854453,0.8301573780280648,0.1788550330074673,0.8012949824333191,0.14511121809482574,0.03253784989133113,-1.569550927321884,0.01203713790429799,-1.5697852736144229,0.0002343462925389339,-1.5697852736144229,0.01140376413501479,-1.5716360807418823,-0.05005701258778572,0.0020851534199983757,0.051151682953979226,-0.2792702112116324,0.12804888642235146,-0.0492180772125721,-0.2799921929836273,7.450580596923828e-09,0.03877139836549759,-0.27999165654182434,3.725290298461914e-09,0.1267659068107605,-0.2799922525882721,0.0,,120.0,429.9999999999376,,
1777000041.879337,430033355761,1.4611866124503567,-0.4399993524378663,1.4697855631090848,-0.008598950658728066,1.4611866124503567,-0.4399993524378663,1.5412083864212036,-1.7130297422409058,-0.08002177397084687,-0.21509409305839888,0.06449504526690578,-0.2163545260770154,0.0012604330186165302,-0.21509409305839888,0.06449504526690578,-0.22357118129730225,-0.01191575825214386,0.008477088238903363,0.19888990238624432,-0.06273104701913237,0.2001158614134546,-0.0012259590272102883,0.19888990238624432,-0.06273104701913237,0.2109365314245224,-0.004218956455588341,-0.012046629038278078,0.8460555851634265,0.2186005686800631,0.8417834527304242,0.004272132433002285,0.8460555851634265,0.2186005686800631,0.8072425127029419,0.24970728158950806,0.0388130724604846,-1.5687716068403184,0.01393793220737628,-1.5690439972215129,0.00027239038119453163,-1.5687716068403184,0.01393793220737628,-1.5712482929229736,-0.05975650995969772,0.0024766860826552772,0.05466012910284393,-0.2786058757516001,0.1273183153290034,-0.0492180772125721,-0.2799921929836273,7.450580596923828e-09,0.03877139836549759,-0.27999165654182434,3.725290298461914e-09,0.1267659068107605,-0.2799922525882721,0.0,,120.0,430.01666666660424,,
1777000041.9549985,430050022428,1.4121836137660524,-0.5400048644614134,1.4227849715441336,-0.010601357778081244,1.4227849715441336,-0.5200024404613717,1.5230478048324585,-2.5343546867370605,-0.1108641910664061,-0.20791124017271298,0.07915383962458437,-0.20946518575467737,0.0015539455819643944,-0.20946518575467737,0.07622188703378342,-0.22079263627529144,-0.013677030801773071,0.012881396102578463,0.19190350707108833,-0.07698890999588964,0.19341495082562746,-0.0015114437545391268,0.19341495082562746,-0.07413714897967325,0.20834536850452423,0.04326215386390686,-0.0164418614334359,0.8704012650378751,0.268285327710635,0.8651342962884232,0.005266968749451872,0.8651342962884232,0.2583477193092581,0.816290557384491,0.3448358178138733,0.054110707653384105,-1.5672193307521025,0.017105823339983395,-1.5675551517145612,0.000335820962458655,-1.5675551517145612,0.016472203249073367,-1.5706684589385986,-0.059068359434604645,0.00344912818649612,0.05997572462370004,-0.2774813404835943,0.12619760441757844,-0.0492180772125721,-0.2799921929836273,7.450580596923828e-09,0.03877139836549759,-0.27999165654182434,3.725290298461914e-09,0.1267659068107605,-0.2799922525882721,0.0,,120.0,430.0333333332709,,
1777000042.0319874,430066689096,1.377987574707717,-0.5999977764615242,1.3897845438151424,-0.011796969107425337,1.377987574707717,-0.5999977764615242,1.498388648033142,-3.3094916343688965,-0.12040107332542505,-0.20289878941614573,0.08794759251014356,-0.20462798754423434,0.0017291981280886104,-0.20289878941614573,0.08794759251014356,-0.21711941063404083,0.018356770277023315,0.014220621217895107,0.18702815140942464,-0.08554214572824874,0.1887100543932831,-0.001681902983858452,0.18702815140942464,-0.08554214572824874,0.2048293799161911,0.04950951039791107,-0.017801228506766464,0.8873905481887232,0.29809101857654424,0.8815295755729785,0.005860972615744697,0.8873905481887232,0.29809101857654424,0.8285093903541565,0.46935373544692993,0.05888115783456671,-1.5661360971711578,0.01900622872858337,-1.566509791711298,0.00037369454014024583,-1.5661360971711578,0.01900622872858337,-1.5698829889297485,-0.07463766634464264,0.0037468917585907757,0.06694570874261022,-0.2758346416102587,0.1247634406557903,-0.0492180772125721,-0.2799921929836273,7.450580596923828e-09,0.03877139836549759,-0.27999165654182434,3.725290298461914e-09,0.1267659068107605,-0.2799922525882721,0.0,,120.0,430.04999999993754,,
1777000042.1078935,430083355763,1.312984522204685,-0.7000023360430162,1.326782952593994,-0.013798430389309058,1.326782952593994,-0.680004719030919,1.4673715829849243,-4.08700704574585,-0.15438706078023934,-0.1933706508167557,0.10260624725898503,-0.19539322286746455,0.002022572050708854,-0.19539322286746455,0.09967499927581697,-0.21246442198753357,0.055833518505096436,0.019093771170777873,0.17776061608156102,-0.09979987291462633,0.179727868943971,-0.0019672528624099794,0.179727868943971,-0.09694879723439372,0.20041526854038239,0.057074613869190216,-0.022654652458821367,0.9196853780887511,0.3477753044147492,0.9128300390677204,0.0068553390210306375,0.9128300390677204,0.3378400842220784,0.8439040780067444,0.5887007117271423,0.07578130008200668,-1.5640769847337397,0.0221740896906153,-1.564514079893695,0.0004370951599552697,-1.564514079893695,0.021540621871485918,-1.5688951015472412,-0.08794994652271271,0.004818116813501527,0.07559353577694845,-0.27348983880552225,0.1229717753823349,-0.0492180772125721,-0.2799921929836273,7.450580596923828e-09,0.03877139836549759,-0.27999165654182434,3.725290298461914e-09,0.1267659068107605,-0.2799922525882721,0.0,,120.0,430.0666666666042,,
1777000042.1884992,430100022431,1.2537819416588398,-0.780005309121079,1.269185157976997,-0.01540321631815722,1.269185157976997,-0.7600013111685606,1.4381076097488403,-3.1208300590515137,-0.1843256680900005,-0.18469274460833443,0.11433307217718071,-0.18695054596233937,0.00225780135400494,-0.18695054596233937,0.11140088887663942,-0.20810478925704956,0.07880209386348724,0.02341204464871513,0.16932005851414975,-0.11120595848731486,0.17151610694409988,-0.002196048429950137,0.17151610694409988,-0.10835397307147512,0.19633205235004425,-0.018023017793893814,-0.027011993835894504,0.9490984163192485,0.3875223979367847,0.9414457872233296,0.007652629095918906,0.9414457872233296,0.37758400756398103,0.8583505153656006,0.5552228093147278,0.09074790095364793,-1.562201614805176,0.024708357091179186,-1.5626895450342282,0.0004879302290521359,-1.5626895450342282,0.024074687141906283,-1.5679662227630615,-0.06428869068622589,0.00576460795788547,0.08326234227913956,-0.2711340810665515,0.12132390695957276,-0.0492180772125721,-0.2799921929836273,7.450580596923828e-09,0.03877139836549759,-0.27999165654182434,3.725290298461914e-09,0.1267659068107605,-0.2799922525882721,0.0,,120.0,430.08333333327084,,
1777000042.2650197,430116689098,1.1881187304830223,-0.8600782583324141,1.2051854381915994,-0.0170667077085771,1.2051854381915994,-0.840000711332332,1.397801399230957,-5.5772929191589355,-0.20968266874793473,-0.17506784004042925,0.12607015418746984,-0.17756947573630708,0.0025016356958778296,-0.17756947573630708,0.12312719007753677,-0.20210592448711395,0.14855128526687622,0.027038084446684707,0.15995840385517165,-0.12262202061127314,0.1623916175355934,-0.0024332136804217364,0.1623916175355934,-0.11975954925100415,0.19036416709423065,0.08880677819252014,-0.030405763239058997,0.9817212263867217,0.4273042570156167,0.9732421411564359,0.008479085230285732,0.9732421411564359,0.41732932598992456,0.8786309361457825,0.7888957262039185,0.10309029024093919,-1.5601215904123766,0.027244841137253728,-1.5606622153331338,0.0005406249207571268,-1.5606622153331338,0.02660884136266395,-1.5666853189468384,-0.11781059950590134,0.0065637285344617435,0.09447713319331001,-0.2671754918184146,0.11909459957080172,-0.0492180772125721,-0.2799921929836273,7.450580596923828e-09,0.03877139836549759,-0.27999165654182434,3.725290298461914e-09,0.1267659068107605,-0.2799922525882721,0.0,,120.0,430.0999999999375,,
1777000042.3429322,430133355766,1.116183308461662,-0.9400027930647148,1.1347836290042026,-0.018600320542540683,1.1347836290042026,-0.9200025727164309,1.3488574028015137,-5.903901100158691,-0.23267409433985176,-0.16452355565942736,0.1377854816236024,-0.16724998811602854,0.0027264324566011744,-0.16724998811602854,0.13485385204377867,-0.19493775069713593,0.26096847653388977,0.030414195037708563,0.1497025152586075,-0.13401692316850747,0.15235437730354043,-0.0026518620449329233,0.15235437730354043,-0.13116547632862074,0.1835002303123474,0.025685392320156097,-0.03379771505373991,1.017460197535162,0.46701238078254603,1.0082191824616118,0.00924101507355024,1.0082191824616118,0.45707586719988735,0.9026471376419067,0.9221796989440918,0.1148130598932553,-1.5578428801599924,0.02977662383338301,-1.5584320855879565,0.0005892054279641457,-1.5584320855879565,0.029143073547908516,-1.5651286840438843,-0.12366250157356262,0.007285803883891884,0.10717472739103612,-0.26196113089767425,0.11646109052101054,-0.0492180772125721,-0.2799921929836273,7.450580596923828e-09,0.03877139836549759,-0.27999165654182434,3.725290298461914e-09,0.1267659068107605,-0.2799922525882721,0.0,,120.0,430.11666666660415,,
1777000042.419366,430150022434,1.05798448280851,-1.0000014593906894,1.0777834308801653,-0.019798948071655165,1.0777834308801653,-0.9800025402013494,1.2943072319030762,-6.583961009979248,-0.23632274909456608,-0.155992779706727,0.14658007797745612,-0.15889490682360474,0.002902127116877734,-0.15889490682360474,0.1436486391213233,-0.18658454716205597,0.35409215092658997,0.03059176745532896,0.14140506380037673,-0.14257097929955914,0.14422781509655683,-0.0028227512961800927,0.14422781509655683,-0.13971971796690394,0.17566654086112976,0.01946467161178589,-0.034261477060753026,1.04637455005364,0.4968209305138946,1.0365380326048053,0.009836517448834847,1.0365380326048053,0.4868850633732579,0.9299330115318298,1.0483505725860596,0.11644153852181027,-1.5559993063410587,0.031677211502780904,-1.5566264808913644,0.000627174550305698,-1.5566264808913644,0.03104370243432701,-1.5633931159973145,-0.1378747820854187,0.007393809656255801,0.12090172584282285,-0.25533071343624975,0.11351152068801096,-0.0492180772125721,-0.2799921929836273,7.450580596923828e-09,0.03877139836549759,-0.27999165654182434,3.725290298461914e-09,0.1267659068107605,-0.2799922525882721,0.0,,120.0,430.1333333332708,,
1777000042.4978514,430166689101,0.9746640677649926,-1.080112735564666,0.9961816842573242,-0.021517616492331637,0.9961816842573242,-1.0600039018461105,1.232740879058838,-7.180793762207031,-0.2580768112938453,-0.14377968459621132,0.15832277794873198,-0.1469337338965562,0.00315404930034488,-0.1469337338965562,0.1553752278358541,-0.17750316858291626,0.4417952597141266,0.03372348398670494,0.12952600796816022,-0.15399250572814902,0.13259379114657005,-0.003067783178409833,0.13259379114657005,-0.1511255737962979,0.16689762473106384,-0.02442244440317154,-0.037371616762903626,1.087769815774499,0.5366218312022368,1.0770794291277883,0.010690386646710737,1.0770794291277883,0.5266313563026488,0.9604167938232422,1.1723343133926392,0.12735302195125686,-1.5533599517830743,0.03421490963847032,-1.5540415688769924,0.0006816170939181188,-1.5540415688769924,0.033577918789272874,-1.5614389181137085,-0.1508863866329193,0.008078966330634207,0.13572198575310804,-0.2469313372246333,0.11041797689054039,-0.0492180772125721,-0.2799921929836273,7.450580596923828e-09,0.03877139836549759,-0.27999165654182434,3.725290298461914e-09,0.1267659068107605,-0.2799922525882721,0.0,,120.0,430.14999999993745,,
1777000042.5768342,430183355769,0.9081832429099118,-1.1400022715530564,0.9307829501649921,-0.022599707255080315,0.9081832429099118,-1.1400022715530564,1.1649844646453857,-7.674975872039795,-0.25680122173547393,-0.13403493432634597,0.16710137799252944,-0.13734759634359517,0.003312662017249196,-0.13403493432634597,0.16710137799252944,-0.16742388904094696,0.5656832456588745,0.03338895471460099,0.12004778549635851,-0.16253100306280907,0.12326984318935764,-0.0032220576929991307,0.12004778549635851,-0.16253100306280907,0.1572035700082779,-0.064853236079216,-0.03715578451191938,1.1207988328380916,0.5663761627768457,1.1095708416363068,0.011227991201784748,1.1207988328380916,0.5663761627768457,0.994087278842926,1.2879095077514648,0.12671155399516554,-1.5512540277066271,0.036112040368060865,-1.5519699223684775,0.0007158946618504025,-1.5512540277066271,0.036112040368060865,-1.559289574623108,-0.1596774458885193,0.008035546916480785,0.15109937676747068,-0.23665946828130288,0.1071062648994743,-0.0492180772125721,-0.2799921929836273,7.450580596923828e-09,0.03877139836549759,-0.27999165654182434,3.725290298461914e-09,0.1267659068107605,-0.2799922525882721,0.0,,120.0,430.1666666666041,,
1777000042.6509504,430200022436,0.789196559337802,-1.2338929695120362,0.8137699183117992,-0.02457335897399726,0.8137699183117992,-1.2209899575096042,1.0879857540130615,-5.234678268432617,-0.29878919467525955,-0.11659388242337596,0.1808638637358697,-0.12019584204128614,0.003601959617910183,-0.12019584204128614,0.1789725419905869,-0.1653263121843338,-0.2723531424999237,0.048732429760957846,0.10308376225301366,-0.17591707228243375,0.10658720499372433,-0.003503442740710669,0.10658720499372433,-0.17407747991001754,0.14323009550571442,-0.3017785847187042,-0.040146333252700755,1.179913821417285,0.6130229586275261,1.167705280163004,0.012208541254281169,1.167705280163004,0.6066124815534348,1.0305453538894653,1.226948857307434,0.14936846752781974,-1.5474848668657777,0.039086231524935386,-1.5482632812193196,0.0007784143535418675,-1.5482632812193196,0.03867750068121722,-1.555891990661621,-0.18186400830745697,0.008407123795843408,0.16604365477318003,-0.22534486635128587,0.10723100832147983,-0.0492180772125721,-0.2799921929836273,7.450580596923828e-09,0.03877139836549759,-0.27999165654182434,3.725290298461914e-09,0.12654824554920197,-0.2796613574028015,0.0016777701675891876,,120.0,430.18333333327075,,
1777000042.729551,430216689104,0.6925025302505926,-1.168744088764146,0.7160649314568003,-0.023562401206207673,0.7160649314568003,-1.1887335897629454,1.0217609405517578,-8.707167625427246,-0.3292584103011652,-0.10242048478434292,0.1713143496521722,-0.10587425835007994,0.00345377356573702,-0.10587425835007994,0.1742444079912072,-0.1567678600549698,-0.04372560977935791,0.05434737527062687,0.08929801995241418,-0.166628746109234,0.09265732966448698,-0.0033593097120727944,0.09265732966448698,-0.1694786646831979,0.13440389931201935,0.11478854715824127,-0.04510587935960517,1.2279533688150626,0.5806556783089252,1.216247091806684,0.011706277008378452,1.216247091806684,0.5905868663021748,1.0620235204696655,1.3315391540527344,0.16592984834539704,-1.5444218741254292,0.037022499662114974,-1.545168264202677,0.0007463900772477494,-1.545168264202677,0.03765571038898768,-1.554733395576477,-0.3508725166320801,0.010311521451047856,0.1802144302313925,-0.21263640102867626,0.10439331568025374,-0.0492180772125721,-0.2799921929836273,7.450580596923828e-09,0.03877139836549759,-0.27999165654182434,3.725290298461914e-09,0.1261904090642929,-0.2783450484275818,0.007123131304979324,,120.0,430.1999999999374,,
1777000042.808696,430233355771,0.6021073597515423,-1.0886562377628406,0.6240858748052514,-0.02197851505370907,0.6240858748052514,-1.108661099762749,0.9437413215637207,-7.995692253112793,-0.3416339618121784,-0.08917037298089647,0.15957508333953058,-0.09239198072971348,0.0032216077488170097,-0.09239198072971348,0.16250739329202,-0.14042963087558746,1.4908418655395508,0.05125925789469099,0.07641031077861674,-0.1552105594255765,0.07954380462038241,-0.003133493841765672,0.07954380462038241,-0.15806266802931632,0.12400750815868378,-0.12823966145515442,-0.04759719738006704,1.2728635159949118,0.5408664157196788,1.261944145630242,0.010919370364669723,1.261944145630242,0.550805235368671,1.103187918663025,1.4639742374420166,0.16967559733188686,-1.5415584113696117,0.03448554356955169,-1.542254628423432,0.0006962170538202805,-1.542254628423432,0.035119240889420485,-1.5521467924118042,-0.19568613171577454,0.010588381042192507,0.19369037485651308,-0.19749816656405764,0.09912891696274954,-0.0492180772125721,-0.2799921929836273,7.450580596923828e-09,0.03877139836549759,-0.27999165654182434,3.725290298461914e-09,0.12652301788330078,-0.2766696512699127,0.013046707957983017,,120.0,430.21666666660406,,
1777000042.886209,430250022439,0.5183038412139718,-1.0087444507624626,0.5386797990952544,-0.020375957881282658,0.5386797990952544,-1.0287454897633812,0.8547878861427307,-10.000007629394531,-0.33648404492875894,-0.0768864646258956,0.14786162446421147,-0.07987316976222977,0.0029867051363341723,-0.07987316976222977,0.1507933740420281,-0.12070059776306152,1.0597996711730957,0.04381413313716592,0.06446237850866765,-0.14381747432231673,0.06736739453841536,-0.0029050160297477146,0.06736739453841536,-0.14666903787814217,0.11296948790550232,-0.22450712323188782,-0.04850710939683467,1.3144987972929427,0.5011646252834868,1.3043756097119386,0.010123187581004167,1.3043756097119386,0.5111015455893543,1.148758053779602,1.6495170593261719,0.16574074351334067,-1.5389037534624026,0.03195416468547041,-1.5395492060478124,0.0006454525854098225,-1.5395492060478124,0.03258774090353165,-1.5493754148483276,-0.16045722365379333,0.010471661385925035,0.20776036342699403,-0.17803544967640336,0.0935939029564206,-0.0492180772125721,-0.2799921929836273,7.450580596923828e-09,0.03877139836549759,-0.27999165654182434,3.725290298461914e-09,0.12735658884048462,-0.27364903688430786,0.019257422536611557,,120.0,430.2333333332707,,
1777000042.9624243,430266689106,0.4595799464465168,-0.9487452647622272,0.4787572968580044,-0.019177350411487604,0.4595799464465168,-0.9487452647622272,0.7572241425514221,-9.681829452514648,-0.29764419610490533,-0.0682787241137985,0.1390669519365743,-0.07108973753014855,0.0028110134163500528,-0.0682787241137985,0.1390669519365743,-0.1067812591791153,0.9734975099563599,0.0385025350653168,0.05609006754186003,-0.13526334410090465,0.05882419718023329,-0.002734129638373259,0.05609006754186003,-0.13526334410090465,0.09905847162008286,-0.34836050868034363,-0.042968404078222826,1.3436740147566701,0.47135581736752213,1.3341463195850736,0.009527695171596573,1.3436740147566701,0.47135581736752213,1.1967612504959106,1.678459644317627,0.1469127642607595,-1.5370435469423556,0.030053560554251478,-1.5376510310408462,0.0006074840984906515,-1.5370435469423556,0.030053560554251478,-1.5463541746139526,-0.1890910118818283,0.009310627671597071,0.22019981491443946,-0.1572322758735973,0.09031616789349073,-0.0492180772125721,-0.2799921929836273,7.450580596923828e-09,0.03877139836549759,-0.27999165654182434,3.725290298461914e-09,0.12900903820991516,-0.26952308416366577,0.02449261024594307,,120.0,430.24999999993736,,
1777000043.0382423,430283355774,0.38687940178985614,-0.8687442017619633,0.4044553149915549,-0.017575913201698767,0.4044553149915549,-0.888745359762835,0.6616646647453308,-9.469459533691406,-0.2747852629554747,-0.05762228816092505,0.12734040699732715,-0.06019856312876336,0.002576274967838306,-0.06019856312876336,0.13027217401814106,-0.09393342584371567,0.8999109864234924,0.036311137682790616,0.0457250948210933,-0.12385753084948975,0.048230906321385575,-0.0025058115002922765,0.048230906321385575,-0.12670911137122898,0.08559316396713257,-0.4416964650154114,-0.03986806914603927,1.3797931142899815,0.43160967281079593,1.371061045481982,0.008732068807999482,1.371061045481982,0.4415466522382045,1.243333339691162,1.615200400352478,0.13645977459881942,-1.5347405997737984,0.027519353659539444,-1.53529735488112,0.0005567551073215604,-1.53529735488112,0.028152933647193193,-1.5433566570281982,-0.18575045466423035,0.008616057254399845,0.23016365308215658,-0.1358345884867859,0.08760185972472817,-0.0492180772125721,-0.2799921929836273,7.450580596923828e-09,0.03877139836549759,-0.27999165654182434,3.725290298461914e-09,0.13177239894866943,-0.264102965593338,0.028424734249711037,,120.0,430.266666666604,,
1777000043.1235442,430300022441,0.32058612515428714,-0.7887521377628732,0.33657953492846887,-0.015993409774181733,0.32058612515428714,-0.7887521377628732,0.5735068321228027,-8.461934089660645,-0.2529207069685156,-0.04790502868358026,0.11561518113044975,-0.050249340514138395,0.002344311830558138,-0.04790502868358026,0.11561518113044975,-0.0811503455042839,0.9338783025741577,0.03324531682070365,0.0362736112435908,-0.11245300059261105,0.03855380400974293,-0.002280192766152135,0.0362736112435908,-0.11245300059261105,0.07308827340602875,-0.47783780097961426,-0.03681466216243795,1.4127289536086227,0.39186799913962667,1.4047831044786223,0.007945849130000404,1.4127289536086227,0.39186799913962667,1.287036657333374,1.481520652770996,0.1256922962752487,-1.5326406166932995,0.024985431827536198,-1.5331472425780002,0.0005066258847006289,-1.5326406166932995,0.024985431827536198,-1.5405820608139038,-0.17351675033569336,0.007941444120604269,0.23688498097771443,-0.11605897106028906,0.08506903349166224,-0.0492180772125721,-0.2799921929836273,7.450580596923828e-09,0.03877139836549759,-0.27999165654182434,3.725290298461914e-09,0.13604094088077545,-0.2579103410243988,0.03176623582839966,,120.0,430.28333333327066,,
1777000043.200123,430316689109,0.2606884638308341,-0.7087556787620266,0.27506232467654784,-0.014373860845713737,0.27506232467654784,-0.7287539597628603,0.4915773272514343,-8.05976390838623,-0.23088886342060022,-0.0391252376292666,0.10388931104480859,-0.041232156198051075,0.002106918568784477,-0.041232156198051075,0.1068206563553483,-0.06933972239494324,0.8107119202613831,0.03021448476567664,0.02773395547364688,-0.10104784373694434,0.02978324790001759,-0.0020492924263707107,0.02978324790001759,-0.10389901408256891,0.061467934399843216,-0.49904489517211914,-0.03373397892619634,1.4424873220138608,0.3521241419428658,1.4353460975152526,0.007141224498608212,1.4353460975152526,0.36205969201851523,1.3276208639144897,1.3656184673309326,0.11486645809937102,-1.5307432285760627,0.022451370774631715,-1.5311985517416893,0.0004553231656265755,-1.5311985517416893,0.02308485962707022,-1.5379974842071533,-0.16946831345558167,0.0072542556310906114,0.2413632155961518,-0.09727960491796676,0.0830332937328014,-0.0492180772125721,-0.2799921929836273,7.450580596923828e-09,0.03877139836549759,-0.27999165654182434,3.725290298461914e-09,0.1413714438676834,-0.2509456276893616,0.033444844186306,,120.0,430.2999999999373,,
1777000043.2745204,430333355776,0.21995656034377123,-0.6487455627628868,0.23313101885852175,-0.01317445851475052,0.21995656034377123,-0.6487455627628868,0.4161039888858795,-7.285121917724609,-0.1961474285421083,-0.03315476075322104,0.09509303639942066,-0.035085871091379485,0.0019311103381584455,-0.03315476075322104,0.09509303639942066,-0.058578573167324066,0.6579204797744751,0.025423812414103027,0.021926776579704026,-0.0924921552171582,0.02380506929073053,-0.0018782927110265052,0.021926776579704026,-0.0924921552171582,0.05071180686354637,-0.45561549067497253,-0.028785030283842345,1.462723754673044,0.3223099037825471,1.4561784174869332,0.006545337186110833,1.462723754673044,0.3223099037825471,1.3650400638580322,1.2282187938690186,0.09768369081501183,-1.5294529573374018,0.020550420412034996,-1.5298702868371614,0.0004173294997595889,-1.5294529573374018,0.020550420412034996,-1.5356160402297974,-0.15041624009609222,0.006163082892395533,0.2438846710811436,-0.08015406522756174,0.08138951428322996,-0.0492180772125721,-0.2799921929836273,7.450580596923828e-09,0.03877139836549759,-0.27999165654182434,3.725290298461914e-09,0.14464998245239258,-0.24523933231830597,0.03200928494334221,,120.0,430.31666666660396,,
1777000043.353357,430350022444,0.16008021571102865,-0.5487423037629137,0.17126232641330807,-0.011182110702279424,0.17126232641330807,-0.568755076762939,0.3471338152885437,-6.704916954040527,-0.18705359957751505,-0.024378094296533898,0.08043457228963088,-0.02601716656317975,0.001639072266645853,-0.02601716656317975,0.08336804183544153,-0.048641350120306015,0.5780160427093506,0.024263255823772117,0.013390159946794851,-0.07823461345570808,0.014984402093632759,-0.0015942421468379073,0.014984402093632759,-0.08108784993683504,0.04088756442070007,-0.45361483097076416,-0.027497404473905224,1.4924715325156237,0.27262626409959706,1.486916033979051,0.005555498536572667,1.486916033979051,0.28256901409327606,1.39927339553833,1.11937415599823,0.09319813697729362,-1.5275562444725024,0.01738260064881947,-1.527910462041324,0.00035421756882159094,-1.527910462041324,0.018016548566717482,-1.533437967300415,-0.14160653948783875,0.005881722827912661,0.2449059506518226,-0.0645939774139136,0.08004631907037213,-0.0492180772125721,-0.2799921929836273,7.450580596923828e-09,0.03877139836549759,-0.27999165654182434,3.725290298461914e-09,0.14649389684200287,-0.2405005246400833,0.0317780040204525,,120.0,430.3333333332706,,
1777000043.428297,430366689112,0.12894257515219915,-0.4887154947628607,0.13893134670687177,-0.00998877155467262,0.12894257515219915,-0.4887154947628607,0.28454700112342834,-6.125594139099121,-0.1556044259712292,-0.019813943176266318,0.0716358507864375,-0.021278095952878297,0.0014641527766119794,-0.019813943176266318,0.0716358507864375,-0.03961988911032677,0.5779706239700317,0.01980594593406045,0.008950842517943388,-0.06967654500190855,0.010374949382164364,-0.0014241068642209757,0.008950842517943388,-0.06967654500190855,0.03196518123149872,-0.4893580675125122,-0.023014338713555328,1.5079413414955736,0.24280373251913623,1.5029787179594978,0.004962623536075794,1.5079413414955736,0.24280373251913623,1.4303394556045532,1.0239031314849854,0.07760188589102035,-1.5265698922862958,0.015481121499283726,-1.5268863082537114,0.0003164159674156064,-1.5265698922862958,0.015481121499283726,-1.5314620733261108,-0.13378199934959412,0.004892181039815036,0.24481091706166197,-0.050682684059233964,0.079005986675297,-0.0492180772125721,-0.2799921929836273,7.450580596923828e-09,0.03877139836549759,-0.27999165654182434,3.725290298461914e-09,0.14731833338737488,-0.23669689893722534,0.03167694807052612,,120.0,430.34999999993727,,
1777000043.5040257,430383355779,0.08508345536505937,-0.38874746976288976,0.09306079840263162,-0.007977343037572249,0.09306079840263162,-0.4087533257619335,0.23854534327983856,-4.064492702484131,-0.1534618879147792,-0.01338507936006875,0.0569825512715786,-0.014554397218077424,0.001169317858008674,-0.014554397218077424,0.059915006924325914,-0.033107414841651917,0.3766399919986725,0.019722335481583166,0.002697813984285793,-0.05542402657901339,0.0038351499335435055,-0.0011373359492577125,0.0038351499335435055,-0.05827627689797508,0.025489486753940582,-0.41601160168647766,-0.02279167276965479,1.5297314383994751,0.19313759779924022,1.5257681331925317,0.003963305206943435,1.5257681331925317,0.20307691128711494,1.4530020952224731,0.771678626537323,0.07672934317700197,-1.5251805597000518,0.01231441784930345,-1.525433259313896,0.00025269961384410955,-1.525433259313896,0.01294814665622728,-1.5300090312957764,-0.07656161487102509,0.004828471595724526,0.24410986121514144,-0.04101962002573348,0.0783545934424944,-0.0492180772125721,-0.2799921929836273,7.450580596923828e-09,0.03877139836549759,-0.27999165654182434,3.725290298461914e-09,0.1471015363931656,-0.23358826339244843,0.03161248564720154,,120.0,430.3666666666039,,
1777000043.5826244,430400022447,0.06353218930348356,-0.3286671007621644,0.07033225749714729,-0.00680006819366373,0.06353218930348356,-0.3286671007621644,0.19079424440860748,-5.214240074157715,-0.12726205510512392,-0.010226097710438484,0.04817597895076726,-0.01122285078186558,0.0009967530714270964,-0.010226097710438484,0.04817597895076726,-0.026017172262072563,0.4547920823097229,0.01579107455163408,-0.0003747666391628354,-0.04685832203460946,0.0005947243276454927,-0.0009694909668083281,-0.0003747666391628354,-0.04685832203460946,0.0184146910905838,-0.4108167886734009,-0.018789457729746637,1.5404385428320921,0.16328845652829302,1.5370601315549801,0.0033784112771120256,1.5404385428320921,0.16328845652829302,1.477317214012146,0.7994688749313354,0.06312132881994614,-1.524497876683168,0.010411242070779116,-1.5247132835672095,0.00021540688404142472,-1.524497876683168,0.010411242070779116,-1.5285089015960693,-0.13024593889713287,0.004011024912901284,0.2428541226078729,-0.030446421170594398,0.07771262373037618,-0.0492180772125721,-0.2799921929836273,7.450580596923828e-09,0.03877139836549759,-0.27999165654182434,3.725290298461914e-09,0.14595288038253784,-0.2310367077589035,0.031301744282245636,,120.0,430.38333333327057,,
1777000043.658761,430416689114,0.04045914043330121,-0.24874879976286648,0.045633571408039954,-0.005174430974738742,0.045633571408039954,-0.26874677176203926,0.14513809978961945,-4.545056343078613,-0.10467895935631824,-0.0068440533435935496,0.03646156525437085,-0.007602520732459475,0.0007584673888659252,-0.007602520732459475,0.03939286527148862,-0.019603542983531952,0.243107408285141,0.012759489639938403,-0.003664309011283802,-0.03546430822550053,-0.002926586396522844,-0.000737722614760958,-0.002926586396522844,-0.038315434516520606,0.012104284949600697,-0.3626025915145874,-0.015768593960884498,1.5519016997123447,0.12358342980590122,1.5493309378523408,0.002570761860003934,1.5493309378523408,0.13351882636329038,1.4994102716445923,0.7175432443618774,0.05249142806775242,-1.5237669879007458,0.007879656841652071,-1.5239308992059284,0.00016391130518256247,-1.5239308992059284,0.008513135905804195,-1.5270580053329468,-0.08871190249919891,0.003291017432200949,0.24125802763088056,-0.020725985765344717,0.07722146106073521,-0.0492180772125721,-0.2799921929836273,7.450580596923828e-09,0.03877139836549759,-0.27999165654182434,3.725290298461914e-09,0.144563227891922,-0.22847256064414978,0.030666492879390717,,120.0,430.3999999999372,,
1777000043.7389467,430433355782,0.02375851657897022,-0.16874453376278312,0.027333701319424152,-0.003575184740453933,0.027333701319424152,-0.18874609176286378,0.10738569498062134,-3.5213961601257324,-0.08362717840165113,-0.004396078169305721,0.024734550819845092,-0.0049201282625514434,0.0005240500932457226,-0.0049201282625514434,0.027666376472488492,-0.013958888128399849,0.2749670147895813,0.009562809959094129,-0.006045329834269727,-0.02405803831993039,-0.005535612988522389,-0.0005097168457473388,-0.005535612988522389,-0.026909675869865497,0.006620561704039574,-0.33299219608306885,-0.012665891538309302,1.5601989070869489,0.08383569393412738,1.558422683069642,0.0017762240173069266,1.558422683069642,0.09377287208923049,1.5185006856918335,0.6088815927505493,0.041698221395115365,-1.5232379594787426,0.0053453484849896775,-1.523351211196649,0.00011325171790632638,-1.523351211196649,0.005978941143484494,-1.5258692502975464,-0.07612957060337067,0.0026312908188037554,0.23949898336879347,-0.013177101925838954,0.07682499308533908,-0.0492180772125721,-0.2799921929836273,7.450580596923828e-09,0.03877139836549759,-0.27999165654182434,3.725290298461914e-09,0.14292623102664948,-0.22587214410305023,0.02997540310025215,,120.0,430.4166666666039,,
1777000043.8147216,430450022449,0.015434301506559545,-0.10874873576303047,0.017808740249496992,-0.0023744387429374472,0.015434301506559545,-0.10874873576303047,0.07497994601726532,-3.269352674484253,-0.05954564451070578,-0.0031759158555841704,0.01594037490485998,-0.0035239607637431334,0.000348044908158963,-0.0031759158555841704,0.01594037490485998,-0.009333355352282524,0.21138250827789307,0.006157439496698353,-0.00723211959705354,-0.01550439112836034,-0.006893594034227187,-0.0003385255628263525,-0.00723211959705354,-0.01550439112836034,0.0020317514427006245,-0.3295254707336426,-0.009263871039754165,1.5643345453295097,0.05402856924522199,1.5631548761853935,0.0011796691441161578,1.5643345453295097,0.05402856924522199,1.5344418287277222,0.5250690579414368,0.029892716601787495,-1.5229742719421229,0.003444851676033936,-1.5230494874306142,7.521548849132031e-05,-1.5229742719421229,0.003444851676033936,-1.5248440504074097,-0.06967239826917648,0.0018697784652867977,0.23780242715316424,-0.006504171837932093,0.07657698713082105,-0.0492180772125721,-0.2799921929836273,7.450580596923828e-09,0.03877139836549759,-0.27999165654182434,3.725290298461914e-09,0.14147579669952393,-0.22363217175006866,0.030616138130426407,,120.0,430.4333333332705,,
1777000043.8904557,430466689117,0.009934349333726935,-0.02874688173712598,0.010709156627745416,-0.0007748072940184803,0.009934349333726935,-0.02874688173712598,0.049501992762088776,-2.3243441581726074,-0.03956764342836184,-0.0023697336137529384,0.004213714017181687,-0.002483304761582994,0.00011357114783005573,-0.0023697336137529384,0.004213714017181687,-0.00564206438139081,0.19268564879894257,0.0032723307676378716,-0.00801625202007946,-0.004098465099808841,-0.007905787146614213,-0.0001104648734652474,-0.00801625202007946,-0.004098465099808841,-0.0016587066929787397,-0.27844732999801636,-0.006357545327100721,1.5670670326980318,0.014282031690960963,1.5666820927790261,0.0003849399190056779,1.5670670326980318,0.014282031690960963,1.547209620475769,0.41452455520629883,0.019857412222262782,-1.5228000490481477,0.0009106197238627555,-1.5228245927468553,2.4543698707635286e-05,-1.5228000490481477,0.0009106197238627555,-1.5240412950515747,-0.04959474503993988,0.00124124600342701,0.23630423799419265,-0.0016233908260810499,0.07639592920321908,-0.0492180772125721,-0.2799921929836273,7.450580596923828e-09,0.03877139836549759,-0.27999165654182434,3.725290298461914e-09,0.14001306891441345,-0.22185936570167542,0.03093574568629265,,120.0,430.4499999999372,,
1777000043.9661837,430483355784,0.00952115774154663,-1.752861971711257e-16,0.00952115774154663,0.0,0.00952115774154663,-1.752861971711257e-16,0.03321424871683121,-1.4769337177276611,-0.023693090975284575,-0.002309168046340346,2.5693426952967336e-17,-0.002309168046340346,0.0,-0.002309168046340346,2.5693426952967336e-17,-0.0033013944048434496,0.12085515260696411,0.0009922263585031036,-0.008075161064043641,-2.4990688317205124e-17,-0.008075161064043641,0.0,-0.008075161064043641,-2.4990688317205124e-17,-0.003987202886492014,-0.22016403079032898,-0.004087958177551627,1.5672723146297525,8.708572449270518e-17,1.5672723146297525,0.0,1.5672723146297525,8.708572449270518e-17,1.5552550554275513,0.2756393551826477,0.012017259202201203,-1.5227869603097925,5.552569837939183e-18,-1.5227869603097925,0.0,-1.5227869603097925,5.552569837939183e-18,-1.5235276222229004,-0.028148062527179718,0.0007406619131078429,0.23529433075977874,0.0014529389298874311,0.07630245883357042,-0.0492180772125721,-0.2799921929836273,7.450580596923828e-09,0.03877139836549759,-0.27999165654182434,3.725290298461914e-09,0.13880035281181335,-0.22037485241889954,0.0313495434820652,,120.0,430.4666666666038,,
1777000044.0475132,430500022452,0.00952115774154663,-1.752861971711257e-16,0.00952115774154663,0.0,0.00952115774154663,-1.752861971711257e-16,0.020058266818523407,-1.3205430507659912,-0.010537109076976777,-0.002309168046340346,2.5693426952967336e-17,-0.002309168046340346,0.0,-0.002309168046340346,2.5693426952967336e-17,-0.0013888402609154582,0.10285557061433792,-0.0009203277854248878,-0.008075161064043641,-2.4990688317205124e-17,-0.008075161064043641,0.0,-0.008075161064043641,-2.4990688317205124e-17,-0.005962552037090063,-0.2007630318403244,-0.002112609026953578,1.5672723146297525,8.708572449270518e-17,1.5672723146297525,0.0,1.5672723146297525,8.708572449270518e-17,1.562007188796997,0.2300824373960495,0.005265125832755402,-1.5227869603097925,5.552569837939183e-18,-1.5227869603097925,0.0,-1.5227869603097925,5.552569837939183e-18,-1.5231159925460815,-0.03469230979681015,0.00032903223628899525,0.23441020273625826,0.003989310886191575,0.07623636841909534,-0.0492180772125721,-0.2799921929836273,7.450580596923828e-09,0.03877139836549759,-0.27999165654182434,3.725290298461914e-09,0.13778887689113617,-0.2192225605249405,0.03158086910843849,,120.0,430.4833333332705,,
1777000044.1227527,430516689119,0.00952115774154663,-1.752861971711257e-16,0.00952115774154663,0.0,0.00952115774154663,-1.752861971711257e-16,0.01184915006160736,-0.7380188703536987,-0.0023279923200607306,-0.002309168046340346,2.5693426952967336e-17,-0.002309168046340346,0.0,-0.002309168046340346,2.5693426952967336e-17,-0.0002488133613951504,0.12147677689790726,-0.0020603546849451955,-0.008075161064043641,-2.4990688317205124e-17,-0.008075161064043641,0.0,-0.008075161064043641,-2.4990688317205124e-17,-0.007102380506694317,-0.20541492104530334,-0.0009727805573493242,1.5672723146297525,8.708572449270518e-17,1.5672723146297525,0.0,1.5672723146297525,8.708572449270518e-17,1.5659435987472534,0.15405163168907166,0.0013287158824990541,-1.5227869603097925,5.552569837939183e-18,-1.5227869603097925,0.0,-1.5227869603097925,5.552569837939183e-18,-1.5228548049926758,-0.018295036628842354,6.784468288323353e-05,0.23387665794275325,0.005515889296873611,0.07619905410209818,-0.0492180772125721,-0.2799921929836273,7.450580596923828e-09,0.03877139836549759,-0.27999165654182434,3.725290298461914e-09,0.13700467348098755,-0.21830283105373383,0.0317046083509922,,120.0,430.49999999993713,,
1777000044.2009912,430533355787,0.00952115774154663,-1.752861971711257e-16,0.00952115774154663,0.0,0.00952115774154663,-1.752861971711257e-16,0.009903084486722946,0.07760307937860489,-0.00038192674517631593,-0.002309168046340346,2.5693426952967336e-17,-0.002309168046340346,0.0,-0.002309168046340346,2.5693426952967336e-17,5.3264717280399054e-05,0.06226402521133423,-0.002362432763620745,-0.008075161064043641,-2.4990688317205124e-17,-0.008075161064043641,0.0,-0.008075161064043641,-2.4990688317205124e-17,-0.007447550538927317,-0.16987907886505127,-0.0006276105251163244,1.5672723146297525,8.708572449270518e-17,1.5672723146297525,0.0,1.5672723146297525,8.708572449270518e-17,1.5670469999313354,0.07321035861968994,0.0002253146984170229,-1.5227869603097925,5.552569837939183e-18,-1.5227869603097925,0.0,-1.5227869603097925,5.552569837939183e-18,-1.5227969884872437,-0.004389593843370676,1.0028177451104625e-05,0.23374263892701222,0.005715867344358079,0.07619338896309992,-0.0492180772125721,-0.2799921929836273,7.450580596923828e-09,0.03877139836549759,-0.27999165654182434,3.725290298461914e-09,0.13641232252120972,-0.2175946831703186,0.03181847557425499,,120.0,430.5166666666038,,
1777000044.275834,430550022454,0.00952115774154663,-1.752861971711257e-16,0.00952115774154663,0.0,0.00952115774154663,-1.752861971711257e-16,0.009589224122464657,-0.08928525447845459,-6.80663809180266e-05,-0.002309168046340346,2.5693426952967336e-17,-0.002309168046340346,0.0,-0.002309168046340346,2.5693426952967336e-17,6.042515451554209e-05,0.07765444368124008,-0.002369593200855888,-0.008075161064043641,-2.4990688317205124e-17,-0.008075161064043641,0.0,-0.008075161064043641,-2.4990688317205124e-17,-0.007530273403972387,-0.16282176971435547,-0.0005448876600712537,1.5672723146297525,8.708572449270518e-17,1.5672723146297525,0.0,1.5672723146297525,8.708572449270518e-17,1.567257046699524,0.04997402802109718,1.5267930228546334e-05,-1.5227869603097925,5.552569837939183e-18,-1.5227869603097925,0.0,-1.5227869603097925,5.552569837939183e-18,-1.522788405418396,-0.010639430955052376,1.4451086034483751e-06,0.23371763370232007,0.005788326897173681,0.07620669245272578,-0.0492180772125721,-0.2799921929836273,7.450580596923828e-09,0.03877139836549759,-0.27999165654182434,3.725290298461914e-09,0.13597118854522705,-0.2170713096857071,0.03188388794660568,,120.0,430.53333333327043,,
1777000044.3516977,430566689122,0.00952115774154663,-1.752861971711257e-16,0.00952115774154663,0.0,0.00952115774154663,-1.752861971711257e-16,0.009539900347590446,0.09100367873907089,-1.8742606043816237e-05,-0.002309168046340346,2.5693426952967336e-17,-0.002309168046340346,0.0,-0.002309168046340346,2.5693426952967336e-17,5.71311466046609e-05,0.04167315363883972,-0.002366299192945007,-0.008075161064043641,-2.4990688317205124e-17,-0.008075161064043641,0.0,-0.008075161064043641,-2.4990688317205124e-17,-0.007550496142357588,-0.15813308954238892,-0.0005246649216860532,1.5672723146297525,8.708572449270518e-17,1.5672723146297525,0.0,1.5672723146297525,8.708572449270518e-17,1.5672961473464966,0.04996780306100845,-2.3832716744109916e-05,-1.5227869603097925,5.552569837939183e-18,-1.5227869603097925,0.0,-1.5227869603097925,5.552569837939183e-18,-1.5227868556976318,-0.006403145845979452,-1.0461216071178114e-07,0.23371507639647005,0.0057904939921573475,0.07620898633044111,-0.0492180772125721,-0.2799921929836273,7.450580596923828e-09,0.03877139836549759,-0.27999165654182434,3.725290298461914e-09,0.1357284039258957,-0.216763436794281,0.03195402771234512,,120.0,430.5499999999371,,
1777000044.4277475,430583355790,0.00952115774154663,-1.752861971711257e-16,0.00952115774154663,0.0,0.00952115774154663,-1.752861971711257e-16,0.00953671708703041,0.025013169273734093,-1.5559345483780532e-05,-0.002309168046340346,2.5693426952967336e-17,-0.002309168046340346,0.0,-0.002309168046340346,2.5693426952967336e-17,6.437717820517719e-05,0.061891548335552216,-0.002373545224545523,-0.008075161064043641,-2.4990688317205124e-17,-0.008075161064043641,0.0,-0.008075161064043641,-2.4990688317205124e-17,-0.007551542948931456,-0.15755528211593628,-0.0005236181151121854,1.5672723146297525,8.708572449270518e-17,1.5672723146297525,0.0,1.5672723146297525,8.708572449270518e-17,1.5673036575317383,0.046792030334472656,-3.1342901985809135e-05,-1.5227869603097925,5.552569837939183e-18,-1.5227869603097925,0.0,-1.5227869603097925,5.552569837939183e-18,-1.5227868556976318,-0.008308127522468567,-1.0461216071178114e-07,0.2337132904385863,0.0057914771034426335,0.07620847175649775,-0.0492180772125721,-0.2799921929836273,7.450580596923828e-09,0.03877139836549759,-0.27999165654182434,3.725290298461914e-09,0.13567966222763062,-0.21668048202991486,0.03204260393977165,,120.0,430.56666666660374,,
