inbarajaldrin/isaac-sim-mcp/.planning/saved_runs/2026-04-23-green2x2-postfix/20260423T200232_drop_point.csv
t_wall,t_sim_ns,ref_pos_shoulder_pan,ref_vel_shoulder_pan,fb_pos_shoulder_pan,err_pos_shoulder_pan,js_pos_shoulder_pan,js_vel_shoulder_pan,isaac_pos_shoulder_pan,isaac_vel_shoulder_pan,isaac_lag_shoulder_pan,ref_pos_shoulder_lift,ref_vel_shoulder_lift,fb_pos_shoulder_lift,err_pos_shoulder_lift,js_pos_shoulder_lift,js_vel_shoulder_lift,isaac_pos_shoulder_lift,isaac_vel_shoulder_lift,isaac_lag_shoulder_lift,ref_pos_elbow_flex,ref_vel_elbow_flex,fb_pos_elbow_flex,err_pos_elbow_flex,js_pos_elbow_flex,js_vel_elbow_flex,isaac_pos_elbow_flex,isaac_vel_elbow_flex,isaac_lag_elbow_flex,ref_pos_wrist_flex,ref_vel_wrist_flex,fb_pos_wrist_flex,err_pos_wrist_flex,js_pos_wrist_flex,js_vel_wrist_flex,isaac_pos_wrist_flex,isaac_vel_wrist_flex,isaac_lag_wrist_flex,ref_pos_wrist_roll,ref_vel_wrist_roll,fb_pos_wrist_roll,err_pos_wrist_roll,js_pos_wrist_roll,js_vel_wrist_roll,isaac_pos_wrist_roll,isaac_vel_wrist_roll,isaac_lag_wrist_roll,tcp_x,tcp_y,tcp_z,cup_red_x,cup_red_y,cup_red_z,cup_green_x,cup_green_y,cup_green_z,cup_blue_x,cup_blue_y,cup_blue_z,attached_lego_xyz,physics_rate_hz,sim_time_s,render_fps,app_dt_ms
1776999752.8730795,334300017435,-0.005475047780667227,0.013602969698296993,-0.005572682600468397,9.763481980116975e-05,-0.005572682600468397,0.0,-0.004411111585795879,0.06190802529454231,-0.001063936194871348,0.0006410961582450272,-2.957302338288718e-05,0.0006413084175437688,-2.1225929874163496e-07,0.0006413084175437688,0.0,0.0029777514282613993,0.05588192492723465,-0.002336655270016372,-0.0006703180462029092,-4.557847546456806e-05,-0.0006699909083545206,-3.2713784838857285e-07,-0.0006699909083545206,0.0,-8.148387132678181e-05,0.009547969326376915,-0.0005888341748761274,1.5694368587441776,3.9290340573760096e-05,1.5694365767391885,2.8200498913832917e-07,1.5694365767391885,0.0,1.569454550743103,-0.041928261518478394,-1.769199892542872e-05,-1.5181486407067974,-0.0004357598598043018,-1.5181455130562673,-3.1276505301214286e-06,-1.5181455130562673,0.0,-1.511318564414978,0.018735088407993317,-0.00683007629181942,0.23197536943979402,0.008499540150071002,0.07464010157579985,-0.049156397581100464,-0.28000012040138245,1.862645149230957e-08,0.038835640996694565,-0.2799999713897705,1.4901161193847656e-08,0.12682759761810303,-0.27999991178512573,-1.4901161193847656e-08,,120.0,334.2666666666913,,
1776999752.9459658,334300017435,-0.0005718763679704836,0.10000806199999966,-0.0023978984575418385,0.0018260220895713547,-0.0023978984575418385,0.08320369353606971,-0.004420996177941561,0.023975808173418045,0.003849119809971077,0.0006304366033056277,-0.00021741875646267718,0.0006344063977806766,-3.969794475048834e-06,0.0006344063977806766,-0.00018088585279970554,0.002976608695462346,0.05928974598646164,-0.0023461720921567186,-0.0006867467439717608,-0.0003350896974133981,-0.000680628425335963,-6.118318635797812e-06,-0.000680628425335963,-0.0002787845292980534,-8.31630895845592e-05,0.0056811850517988205,-0.0006035836543872016,1.5694510208925148,0.00028885977865121467,1.5694457466743563,5.274218158435318e-06,1.5694457466743563,0.00024032263015691895,1.5694540739059448,-0.03065336123108864,-3.0530134300654765e-06,-1.5183057097391321,-0.003203675376991333,-1.5182472146349453,-5.849510418687309e-05,-1.5182472146349453,-0.0026653613611152377,-1.5113966464996338,-0.010944408364593983,-0.006909063239498359,0.23197670971691509,0.008503507881761215,0.07464045216853567,-0.049156397581100464,-0.28000012040138245,1.862645149230957e-08,0.038835640996694565,-0.2799999713897705,1.4901161193847656e-08,0.12682759761810303,-0.27999991178512573,-1.4901161193847656e-08,,120.0,334.283333333358,,
1776999753.0339234,334316684102,0.007228765760500317,0.16000905200000026,0.004226413440377588,0.0030023523201227293,0.007228765760500317,0.16000905200000026,-0.004411121364682913,0.06121387705206871,0.01163988712518323,0.000613477911403544,-0.0003478616464801741,0.0006200050622636807,-6.527150860136761e-06,0.000613477911403544,-0.0003478616464801741,0.0029776988085359335,0.05584222078323364,-0.0023642208971323894,-0.0007128837849081153,-0.0005361306253298279,-0.0007028240226213676,-1.0059762286747701e-05,-0.0007128837849081153,-0.0005361306253298279,-8.149303903337568e-05,0.009578432887792587,-0.0006313907458747396,1.5694735519936425,0.0004621645337068343,1.5694648801045041,8.671889138334166e-06,1.5694735519936425,0.0004621645337068343,1.5694546699523926,-0.04193444550037384,1.8882041249890236e-05,-1.5185555968443507,-0.005125757361303515,-1.5184594189762004,-9.617786815030449e-05,-1.5185555968443507,-0.005125757361303515,-1.5113184452056885,0.01870620809495449,-0.0072371516386622314,0.23197538511457444,0.008499571824323723,0.07464007192686124,-0.049156397581100464,-0.28000012040138245,1.862645149230957e-08,0.038835640996694565,-0.2799999713897705,1.4901161193847656e-08,0.12682759761810303,-0.27999991178512573,-1.4901161193847656e-08,,120.0,334.3000000000246,,
1776999753.1240935,334333350770,0.03362902065803304,0.28000608299999435,0.028226875920973057,0.005402144737059984,0.028226875920973057,0.2599983020000183,-0.0044210078194737434,0.022222299128770828,0.038050028477506784,0.0005560834326452289,-0.0006087366673283026,0.0005678277617270478,-1.1744329081818925e-05,0.0005678277617270478,-0.0005652395054235822,0.0029765618965029716,0.05929550528526306,-0.002420478463857743,-0.000801341187724809,-0.0009381958989104332,-0.0007832406165396098,-1.8100571185199242e-05,-0.0007832406165396098,-0.0008711572907510606,-8.318223262904212e-05,0.005775056779384613,-0.0007181589550957669,1.5695498055639412,0.0008087597493726971,1.569534202198554,1.5603365387084622e-05,1.569534202198554,0.0007509699764663284,1.5694544315338135,-0.030677616596221924,9.537403012771506e-05,-1.519401307128803,-0.008969762792873984,-1.519228253899584,-0.00017305322921901123,-1.519228253899584,-0.008328830111490224,-1.5113967657089233,-0.011004673317074776,-0.008004541419879718,0.2319767122905252,0.008503547727787254,0.07464042249424874,-0.049156397581100464,-0.28000012040138245,1.862645149230957e-08,0.038835640996694565,-0.2799999713897705,1.4901161193847656e-08,0.12682759761810303,-0.27999991178512573,-1.4901161193847656e-08,,120.0,334.3166666666913,,
1776999753.2019908,334350017437,0.05225833806053104,0.3400912249999485,0.045653313338444225,0.006605024722086815,0.05225833806053104,0.3400912249999485,-0.0015112488763406873,0.5310587286949158,0.05376958693687173,0.0005155830675506659,-0.0007393625048284411,0.0005299424725102517,-1.4359404959585751e-05,0.0005155830675506659,-0.0007393625048284411,0.002953416435047984,0.05784190446138382,-0.002437833367497318,-0.0008637610787474068,-0.001139518788777099,-0.000841630105591142,-2.213097315626486e-05,-0.0008637610787474068,-0.001139518788777099,-9.704823605716228e-05,0.0768190547823906,-0.0007667128426902445,1.5696036138309313,0.0009823075661135963,1.5695845361091851,1.9077721746141307e-05,1.5696036138309313,0.0009823075661135963,1.5694632530212402,-0.07589489221572876,0.00014036080969104248,-1.5199980818713488,-0.01089454051677795,-1.5197864953787863,-0.00021158649256247664,-1.5199980818713488,-0.01089454051677795,-1.5114102363586426,0.034488920122385025,-0.008587845512706194,0.23200896653012018,0.007882160396940762,0.07464323043946289,-0.049156397581100464,-0.28000012040138245,1.862645149230957e-08,0.038835640996694565,-0.2799999713897705,1.4901161193847656e-08,0.12682759761810303,-0.27999991178512573,-1.4901161193847656e-08,,120.0,334.3333333333579,,
1776999753.2672756,334366684105,0.08262979289689913,0.4200058939998882,0.07442905220893593,0.008200740687963198,0.07442905220893593,0.4000043369999866,0.007249700836837292,1.3169069290161133,0.07538009206006184,0.000449555151296419,-0.0009130979778455364,0.0004673836623863535,-1.7828511089934486e-05,0.0004673836623863535,-0.0008696143469934957,0.0029374188743531704,0.10053429007530212,-0.0024878637230567515,-0.000965524490692369,-0.0014072830241652586,-0.000938046868781294,-2.7477621911074974e-05,-0.000938046868781294,-0.0013402652703076365,-0.00012772886839229614,0.1099470853805542,-0.0008377956223000728,1.5696913376758486,0.0012131302931649402,1.5696676509440737,2.3686731774885672e-05,1.5696676509440737,0.0011553584974513594,1.5694913864135742,-0.08805927634239197,0.0001999512622743449,-1.5209710062544115,-0.013454540702917177,-1.5207083023234513,-0.0002627039309601731,-1.5207083023234513,-0.01281380740221328,-1.5117689371109009,0.02641044743359089,-0.009202069143510627,0.23207261139086593,0.006038448633434415,0.0746566202675064,-0.049156397581100464,-0.28000012040138245,1.862645149230957e-08,0.038835640996694565,-0.2799999713897705,1.4901161193847656e-08,0.12682759761810303,-0.27999991178512573,-1.4901161193847656e-08,,120.0,334.3500000000246,,
1776999753.3336549,334383350772,0.10023984403029156,0.46002723100005816,0.091228517283246,0.00901132674704555,0.10023984403029156,0.46002723100005816,0.018709544092416763,1.4025864601135254,0.08153029993787479,0.0004112706836035411,-0.0010001048565764737,0.00043086141875268833,-1.9590735149147226e-05,0.0004112706836035411,-0.0010001048565764737,0.002915952354669571,0.11901237815618515,-0.00250468167106603,-0.0010245292007898703,-0.0015413795903547688,-0.0009943356074677565,-3.0193593322113852e-05,-0.0010245292007898703,-0.0015413795903547688,-0.00017531758930999786,0.07462805509567261,-0.0008492116114798725,1.5697422019298966,0.001328726519263456,1.5697161739297791,2.602800011741735e-05,1.5697422019298966,0.001328726519263456,1.5695284605026245,-0.07244175672531128,0.0002137414272720406,-1.52153512964682,-0.014736591063043678,-1.5212464592632908,-0.00028867038352919927,-1.52153512964682,-0.014736591063043678,-1.5121513605117798,0.020586131140589714,-0.009383769135040243,0.23214263261118911,0.003774011440619699,0.07466243640651757,-0.049156397581100464,-0.28000012040138245,1.862645149230957e-08,0.038835640996694565,-0.2799999713897705,1.4901161193847656e-08,0.12682759761810303,-0.27999991178512573,-1.4901161193847656e-08,,120.0,334.36666666669123,,
1776999753.4011722,334400017440,0.14022965342976254,0.5400043947881987,0.1296303649538164,0.010599288475946128,0.14022965342976254,0.5400043947881987,0.037871312350034714,2.50272798538208,0.10235834107972783,0.00032433234626417227,-0.0011739761940315508,0.00034737532973713877,-2.3042983472966504e-05,0.00032433234626417227,-0.0011739761940315508,0.002847962314262986,0.21892514824867249,-0.002523629967998814,-0.0011585201297540596,-0.001809353222458035,-0.0011230058692317218,-3.5514260522337806e-05,-0.0011585201297540596,-0.001809353222458035,-0.00024216598831117153,0.05524863302707672,-0.0009163541414428881,1.5698577070927846,0.0015597297540780126,1.5698270924797046,3.061461307996005e-05,1.5698577070927846,0.0015597297540780126,1.569594144821167,-0.09245364367961884,0.00026356227161761225,-1.5228161700463794,-0.017298593217912783,-1.5224766306250075,-0.00033953942137188164,-1.5228161700463794,-0.017298593217912783,-1.512673258781433,0.07883932441473007,-0.010142911264946264,0.2321815375072532,-9.696187204848324e-05,0.07469416264213696,-0.049156397581100464,-0.28000012040138245,1.862645149230957e-08,0.038835640996694565,-0.2799999713897705,1.4901161193847656e-08,0.12682759761810303,-0.27999991178512573,-1.4901161193847656e-08,,120.0,334.3833333333579,,
1776999753.4659681,334416684107,0.1866293280326569,0.6200030437293362,0.17443020376404125,0.012199124268615635,0.17443020376404125,0.6000046047290999,0.05849391222000122,2.208305597305298,0.12813541581265567,0.00022345888315842603,-0.0013478942404734123,0.00024997992931584563,-2.65210461574196e-05,0.00024997992931584563,-0.0013044173881909791,0.002868782030418515,0.19206273555755615,-0.0026453231472600893,-0.0013139881251519115,-0.002077398843291753,-0.0012731134118725072,-4.087471327940428e-05,-0.0012731134118725072,-0.0020103915366875154,-0.0003336197114549577,0.0623941570520401,-0.0009803684136969538,1.56999172628551,0.0017907950458506353,1.5699564907628383,3.5235522671817066e-05,1.5699564907628383,0.0017330322560570963,1.5696560144424438,-0.075795978307724,0.00033571184306624424,-1.5243025451650745,-0.019861283631868405,-1.5239117563300681,-0.0003907888350063171,-1.5239117563300681,-0.019220650213700948,-1.5133837461471558,0.025476589798927307,-0.010918799017918701,0.23215805701209824,-0.004137709312567105,0.07469258143048403,-0.049156397581100464,-0.28000012040138245,1.862645149230957e-08,0.038835640996694565,-0.2799999713897705,1.4901161193847656e-08,0.12682759761810303,-0.27999991178512573,-1.4901161193847656e-08,,120.0,334.40000000002453,,
1776999753.5327275,334433350775,0.22563000025885233,0.6800037637288491,0.21223206670175307,0.013397933557099256,0.21223206670175307,0.6600070087289522,0.08124114573001862,2.638291120529175,0.1443888545288337,0.00013867094219594754,-0.0014783365435065122,0.00016779821448679623,-2.912727229084869e-05,0.00016779821448679623,-0.001434863352261539,0.002823001006618142,0.22051957249641418,-0.0026843300644221945,-0.0014446648245483554,-0.002278438866537282,-0.001399773348683008,-4.489147586534737e-05,-0.001399773348683008,-0.0022114372023898012,-0.000405543833039701,0.049512773752212524,-0.0010391209915086544,1.5701043744592795,0.0019640990210638572,1.5700656763379048,3.869812137469175e-05,1.5700656763379048,0.0019063410952775564,1.569738745689392,-0.09059861302375793,0.0003656287698874383,-1.525551899375109,-0.02178335696690396,-1.5251227076781497,-0.000429191696959208,-1.5251227076781497,-0.02114277749432541,-1.5140761137008667,0.07685807347297668,-0.011475785674242234,0.23200845572463305,-0.00849397604652282,0.07473078367902614,-0.049156397581100464,-0.28000012040138245,1.862645149230957e-08,0.038835640996694565,-0.2799999713897705,1.4901161193847656e-08,0.12682759761810303,-0.27999991178512573,-1.4901161193847656e-08,,120.0,334.4166666666912,,
1776999753.5990658,334450017442,0.2536298116863542,0.7200032927293339,0.23943225394998577,0.01419755773636841,0.2536298116863542,0.7200032927293339,0.1158357784152031,4.4443278312683105,0.13779403327115108,7.77990078737231e-05,-0.0015652960113780165,0.00010866467296228655,-3.086566508856346e-05,7.77990078737231e-05,-0.0015652960113780165,0.0027470842469483614,0.3953608274459839,-0.002669285239074638,-0.0015384817444170143,-0.0024124623622575996,-0.0014909110263094185,-4.7570718107595774e-05,-0.0015384817444170143,-0.0024124623622575996,-0.00054361013462767,-0.02120436728000641,-0.0009948716097893443,1.570185248132556,0.002079632257705733,1.5701442404047479,4.100772780812889e-05,1.570185248132556,0.002079632257705733,1.5698498487472534,-0.06924530863761902,0.0003353993853025816,-1.5264488501272473,-0.023064708725878895,-1.525994043132453,-0.0004548069947942768,-1.5264488501272473,-0.023064708725878895,-1.515214204788208,0.0850927084684372,-0.011234645339039284,0.23159154852671632,-0.01554930922356412,0.07476584800833752,-0.049156397581100464,-0.28000012040138245,1.862645149230957e-08,0.038835640996694565,-0.2799999713897705,1.4901161193847656e-08,0.12682759761810303,-0.27999991178512573,-1.4901161193847656e-08,,120.0,334.43333333335784,,
1776999753.6661985,334466684110,0.33063037442464766,0.8200035452444729,0.31443052870670496,0.016199845717942696,0.31443052870670496,0.8000038597290963,0.1492803543806076,3.330831527709961,0.18135002004404005,-8.960116229941939e-05,-0.001782697789924583,-5.438249851927008e-05,-3.52186637801493e-05,-5.438249851927008e-05,-0.0017392182277029102,0.002773490035906434,0.2910569906234741,-0.0028630911982058535,-0.001796481897131065,-0.0027475258930013597,-0.0017422022591577868,-5.4279637973278115e-05,-0.0017422022591577868,-0.002680514409790027,-0.0006935507990419865,0.025923103094100952,-0.0011029310980890784,1.5704076538572926,0.0023684694797163936,1.5703608627911056,4.6791066186990804e-05,1.5703608627911056,0.0023107030895315717,1.5699536800384521,-0.08609980344772339,0.0004539738188404918,-1.5289154993345797,-0.02626813393249633,-1.528396550703842,-0.0005189486307377589,-1.528396550703842,-0.025627460583250227,-1.5162540674209595,0.0731673389673233,-0.012661431913620236,0.23099637072689586,-0.021894948405947433,0.07477245482149909,-0.049156397581100464,-0.28000012040138245,1.862645149230957e-08,0.038835640996694565,-0.2799999713897705,1.4901161193847656e-08,0.12682759761810303,-0.27999991178512573,-1.4901161193847656e-08,,120.0,334.4500000000245,,
1776999753.7338793,334483350777,0.38163343039986264,0.8800066650134131,0.3642319407672552,0.01740148963260746,0.3642319407672552,0.8600051028912545,0.1838924139738083,3.9337143898010254,0.19774101642605435,-0.00020048243311064293,-0.001913145310085972,-0.00016265138068489242,-3.7831052425750506e-05,-0.00016265138068489242,-0.0018696616680980629,0.002687717555090785,0.35379600524902344,-0.002888199988201428,-0.001967374105740141,-0.0029485739569787717,-0.0019090682074063366,-5.830589833380451e-05,-0.0019090682074063366,-0.0028815561859583745,-0.0007861338090151548,-0.03597430884838104,-0.0011812402967249862,1.5705549692953182,0.0025417803863753553,1.5705047074429932,5.026185232503977e-05,1.5705047074429932,0.0024840085758447606,1.5700854063034058,-0.0653635561466217,0.0004695629919124755,-1.5305493399601398,-0.02819028414221022,-1.529991897662548,-0.0005574422975918036,-1.529991897662548,-0.027549550677420504,-1.5173906087875366,0.06570155173540115,-0.013158731172603133,0.2301300999233553,-0.028471524550939452,0.07483584402372709,-0.049156397581100464,-0.28000012040138245,1.862645149230957e-08,0.038835640996694565,-0.2799999713897705,1.4901161193847656e-08,0.12682759761810303,-0.27999991178512573,-1.4901161193847656e-08,,120.0,334.46666666669114,,
1776999753.8028085,334500017445,0.4552245518753408,0.9599968629612811,0.43622640813195446,0.01899814374338632,0.43622640813195446,0.9399987709609297,0.2337503880262375,6.227725982666016,0.2214741638491033,-0.00036047043605676876,-0.002087044983964542,-0.0003191682379621163,-4.130219809465245e-05,-0.0003191682379621163,-0.0020435688860641257,0.00258459011092782,0.5882035493850708,-0.002945060546984589,-0.0022139504930271054,-0.003216591261687576,-0.002150294802564994,-6.365569046211123e-05,-0.002150294802564994,-0.0031495851177504638,-0.0009875656105577946,-0.12161696702241898,-0.0012263848824693108,1.5707675273094914,0.002772821268568708,1.5707126537374336,5.487357205780086e-05,1.5707126537374336,0.002715059481028243,1.5702483654022217,-0.07798044383525848,0.0005191619072697495,-1.5329067705424475,-0.030752703835595516,-1.5322981807537641,-0.0006085897886833891,-1.5322981807537641,-0.0301120815332805,-1.518943190574646,0.15364867448806763,-0.01396357996780151,0.22841008994346862,-0.03844979851863383,0.07488735531580884,-0.049156397581100464,-0.28000012040138245,1.862645149230957e-08,0.038835640996694565,-0.2799999713897705,1.4901161193847656e-08,0.12682759761810303,-0.27999991178512573,-1.4901161193847656e-08,,120.0,334.4833333333578,,
1776999753.8682737,334516684113,0.5146312116816457,1.0200035425115406,0.4944322213997353,0.02019899028191041,0.4944322213997353,1.0000046579612503,0.28020715713500977,4.474417209625244,0.23442405454663595,-0.0004896212449254393,-0.002217500243134254,-0.00044570839169071996,-4.3912853234719324e-05,-0.00044570839169071996,-0.002174022422220527,0.00262060365639627,0.48304569721221924,-0.003110224901321709,-0.002413000042240802,-0.0034176512531638474,-0.0023453207631280687,-6.767927911273354e-05,-0.0023453207631280687,-0.003350642453687638,-0.0012174934381619096,-0.05637936666607857,-0.0011955066040788926,1.570939115422078,0.0029461424571280317,1.5708807733669965,5.8342055081483934e-05,1.5708807733669965,0.0028883783804236856,1.570385456085205,-0.06867581605911255,0.0005536593368729026,-1.534809813651619,-0.0326749680799559,-1.5341627557393658,-0.0006470579122532794,-1.5341627557393658,-0.03203432038896134,-1.5204716920852661,0.050036463886499405,-0.014338121566352946,0.2264935974396389,-0.04708637777303262,0.07489071348219378,-0.049156397581100464,-0.28000012040138245,1.862645149230957e-08,0.038835640996694565,-0.2799999713897705,1.4901161193847656e-08,0.12682759761810303,-0.27999991178512573,-1.4901161193847656e-08,,120.0,334.50000000002444,,
1776999753.9376295,334533350780,0.5562383325164811,1.0600100404030546,0.5352352703812383,0.021003062135242834,0.5562383325164811,1.0600100404030546,0.32661452889442444,5.154772758483887,0.2296238036220567,-0.0005800756372113557,-0.0023044748614604958,-0.0005344147218808213,-4.566091533053445e-05,-0.0005800756372113557,-0.0023044748614604958,0.002488406142219901,0.5007979273796082,-0.003068481779431257,-0.002552409978319633,-0.0035516980990374777,-0.00248203655446853,-7.037342385110296e-05,-0.002552409978319633,-0.0035516980990374777,-0.0013110078871250153,-0.1389700174331665,-0.0012414020911946178,1.5710592919705912,0.0030616958224520597,1.57099862746257,6.066450802122425e-05,1.5710592919705912,0.0030616958224520597,1.5705763101577759,-0.07326530665159225,0.000482981812815364,-1.536142663282543,-0.03395654308152698,-1.535469847594903,-0.0006728156876401048,-1.536142663282543,-0.03395654308152698,-1.5218892097473145,0.11625900864601135,-0.014253453535228555,0.22413121632594865,-0.05560662614720319,0.07499365273778036,-0.049156397581100464,-0.28000012040138245,1.862645149230957e-08,0.038835640996694565,-0.2799999713897705,1.4901161193847656e-08,0.12682759761810303,-0.27999991178512573,-1.4901161193847656e-08,,120.0,334.5166666666911,,
1776999754.004398,334550017448,0.6442301945650425,1.1400022227242188,0.6216339704446411,0.02259622412040141,0.6442301945650425,1.1400022227242188,0.39164337515830994,4.821817398071289,0.25258681940673255,-0.0007713710272313505,-0.0024783788493910764,-0.0007222465581559501,-4.9124469075400375e-05,-0.0007713710272313505,-0.0024783788493910764,0.0023717230651527643,0.22499658167362213,-0.003143094092384115,-0.0028472378735816574,-0.003819722052640755,-0.002771526358412103,-7.571151516955459e-05,-0.0028472378735816574,-0.003819722052640755,-0.0016427302034571767,-0.15032345056533813,-0.0012045076701244807,1.5713134445787527,0.003292742436281627,1.571248178437531,6.526614122170926e-05,1.5713134445787527,0.003292742436281627,1.5707627534866333,-0.017023980617523193,0.0005506910921193597,-1.5389614096534168,-0.03651902634267081,-1.5382375583420342,-0.0007238513113825285,-1.5389614096534168,-0.03651902634267081,-1.523972988128662,0.07162228971719742,-0.014988421524754658,0.21999762477562126,-0.06794282118024174,0.07505365405253452,-0.049156397581100464,-0.28000012040138245,1.862645149230957e-08,0.038835640996694565,-0.2799999713897705,1.4901161193847656e-08,0.12682759761810303,-0.27999991178512573,-1.4901161193847656e-08,,120.0,334.53333333335775,,
1776999754.0702617,334566684115,0.7145369424387454,1.2000911203284925,0.6906368988103876,0.023900043628357848,0.7145369424387454,1.2000911203284925,0.45129144191741943,6.732954502105713,0.263245500521326,-0.0009242187615833615,-0.0026090128516211308,-0.0008722597728662201,-5.1958988717141314e-05,-0.0009242187615833615,-0.0026090128516211308,0.0024052243679761887,0.4440632164478302,-0.0033294431295595502,-0.0030828095505042556,-0.004021057526136067,-0.003002729422688226,-8.008012781602963e-05,-0.0030828095505042556,-0.004021057526136067,-0.0018728389404714108,-0.2564941942691803,-0.0012099706100328449,1.5715165161234095,0.003466301100600577,1.5714474840756507,6.903204775876581e-05,1.5715165161234095,0.003466301100600577,1.5709656476974487,-0.012187393382191658,0.0005508684259607488,-1.5412136280495627,-0.03844392437424196,-1.540448009960882,-0.0007656180886808084,-1.5412136280495627,-0.03844392437424196,-1.5258872509002686,0.10839125514030457,-0.01532637714929419,0.2154136904984423,-0.07899487679866303,0.075104565777187,-0.049156397581100464,-0.28000012040138245,1.862645149230957e-08,0.038835640996694565,-0.2799999713897705,1.4901161193847656e-08,0.12682759761810303,-0.27999991178512573,-1.4901161193847656e-08,,120.0,334.5500000000244,,
1776999754.1437898,334583350783,0.8128565543720652,1.2268735122676737,0.788155861132436,0.0247006932396292,0.8128565543720652,1.2268735122676737,0.5096302032470703,6.512144565582275,0.30322635112499485,-0.0011379668068403081,-0.002667238101006689,-0.0010842671960236696,-5.369961081663852e-05,-0.0011379668068403081,-0.002667238101006689,0.002286688657477498,0.931854784488678,-0.003424655464317806,-0.0034122418817951,-0.004110795327583704,-0.0033294790758968246,-8.276280589827531e-05,-0.0034122418817951,-0.004110795327583704,-0.0020404253154993057,-0.3389257490634918,-0.0013718165662957942,1.5718004990421093,0.0035436584221718464,1.5717291544260945,7.134461601476794e-05,1.5718004990421093,0.0035436584221718464,1.5711809396743774,-0.011691242456436157,0.0006195593677318367,-1.5443632153280968,-0.03930187610204821,-1.543571949092717,-0.0007912662353797284,-1.5443632153280968,-0.03930187610204821,-1.5277858972549438,0.07989183813333511,-0.01657731807315299,0.21082906916493813,-0.08850942662204211,0.07518188552429499,-0.049156397581100464,-0.28000012040138245,1.862645149230957e-08,0.038835640996694565,-0.2799999713897705,1.4901161193847656e-08,0.12682759761810303,-0.27999991178512573,-1.4901161193847656e-08,,120.0,334.56666666669105,,
1776999754.2092583,334600017450,0.9076814674011998,1.1450446400997027,0.8845772146062858,0.023104252794914015,0.8845772146062858,1.1650475241017644,0.5848748087882996,7.834746360778809,0.32280665861290025,-0.0013441173337095905,-0.0024893411267656582,-0.0012938884040492047,-5.022892966038582e-05,-0.0012938884040492047,-0.002532827642536724,0.0022896237205713987,0.5334891080856323,-0.0036337410542809892,-0.0037299647811168003,-0.0038366173116708064,-0.0036525510514315834,-7.74137296852169e-05,-0.0036525510514315834,-0.003903639511817473,-0.002388520399108529,-0.3574320077896118,-0.0013414443820082712,1.5720743879950627,0.0033073067777630067,1.5720076544816366,6.673351342612044e-05,1.5720076544816366,0.0033650824063553107,1.571421504020691,0.08764051645994186,0.0006528839743717985,-1.5474008528237309,-0.036680556004032513,-1.546660727234827,-0.000740125588903906,-1.546660727234827,-0.03732133181413326,-1.5303394794464111,0.059786878526210785,-0.017061373377319722,0.2035585834509068,-0.10148466498187227,0.0752444980117605,-0.049156397581100464,-0.28000012040138245,1.862645149230957e-08,0.038835640996694565,-0.2799999713897705,1.4901161193847656e-08,0.12682759761810303,-0.27999991178512573,-1.4901161193847656e-08,,120.0,334.5833333333577,,
1776999754.2753282,334616684118,0.9745823359513734,1.0850463081016803,0.95268398454452,0.021898351406853478,0.95268398454452,1.1050439781012784,0.6610089540481567,5.762081623077393,0.3135733819032167,-0.0014895606445343907,-0.0023589040152771634,-0.001441953359319117,-4.760728521527378e-05,-0.001441953359319117,-0.0024023791957427476,0.0018853466026484966,0.6275248527526855,-0.0033749072471828873,-0.0039541246273417105,-0.0036355852897271236,-0.0038807514232216786,-7.337320412003192e-05,-0.0038807514232216786,-0.0037025900196971796,-0.0028036623261868954,-0.34676775336265564,-0.0011504623011548152,1.5722676221173382,0.003134009699983841,1.5722043716871856,6.32504301525394e-05,1.5722043716871856,0.00319177026862289,1.5716493129730225,0.04094071313738823,0.0006183091443157096,-1.5495439666986255,-0.03475855916656771,-1.5488424711612072,-0.000701495537418273,-1.5488424711612072,-0.035399167950436156,-1.532649278640747,0.008666709065437317,-0.016894688057878415,0.19492925579703008,-0.11449894819133863,0.07532122916515854,-0.049156397581100464,-0.28000012040138245,1.862645149230957e-08,0.038835640996694565,-0.2799999713897705,1.4901161193847656e-08,0.12682759761810303,-0.27999991178512573,-1.4901161193847656e-08,,120.0,334.60000000002435,,
1776999754.3432825,334633350785,1.037906157402355,1.0250257791016537,1.0171875334635054,0.02071862393884949,1.037906157402355,1.0250257791016537,0.7494635581970215,6.431509017944336,0.28844259920533344,-0.0016272274109830499,-0.002228418647233325,-0.0015821848677888568,-4.5042543194193096e-05,-0.0016272274109830499,-0.002228418647233325,0.0016324265161529183,0.3762899935245514,-0.003259653927135968,-0.0041662991235245205,-0.003434478893912547,-0.004096878745930452,-6.942037759406858e-05,-0.0041662991235245205,-0.003434478893912547,-0.0030435502994805574,-0.3558461666107178,-0.001122748824043963,1.5724505244222307,0.0029606485091337085,1.57239068147552,5.984294671068646e-05,1.5724505244222307,0.0029606485091337085,1.5719921588897705,0.04495431110262871,0.00045836553246014766,-1.5515724928344434,-0.03283585126657512,-1.550908788888675,-0.0006637039457684235,-1.5515724928344434,-0.03283585126657512,-1.5355225801467896,0.012469008564949036,-0.016049912687653878,0.18469821104251344,-0.12732756983783644,0.07552402076284741,-0.049156397581100464,-0.28000012040138245,1.862645149230957e-08,0.038835640996694565,-0.2799999713897705,1.4901161193847656e-08,0.12682759761810303,-0.27999991178512573,-1.4901161193847656e-08,,120.0,334.616666666691,,
1776999754.4112988,334650017453,1.116693142661909,0.9450417331020464,1.0975924681967817,0.01910067446512742,1.0975924681967817,0.9650415671017486,0.8326663374900818,4.255773067474365,0.2840268051718273,-0.0017985112856828283,-0.002054532347765915,-0.001756986184538419,-4.152510114440941e-05,-0.001756986184538419,-0.0020980122327943444,0.001521013560704887,1.2207565307617188,-0.003319524846387715,-0.004430284911497677,-0.0031664822020868533,-0.0043662856788466995,-6.399923265097782e-05,-0.0043662856788466995,-0.003233494182813755,-0.003472873941063881,-0.6678158044815063,-0.0009574109704337964,1.5726780899871216,0.002729625395998084,1.5726229202689235,5.5169718198078144e-05,1.5726229202689235,0.002787392215057302,1.572230339050293,0.03638262301683426,0.0004477509368285837,-1.554096368606613,-0.030273628645728832,-1.5534844943312385,-0.0006118742753744577,-1.5534844943312385,-0.030914306751556826,-1.538023591041565,-0.07085132598876953,-0.01607277756504799,0.17325583617197576,-0.13947802934996403,0.07549525650710012,-0.049156397581100464,-0.28000012040138245,1.862645149230957e-08,0.038835640996694565,-0.2799999713897705,1.4901161193847656e-08,0.12682759761810303,-0.27999991178512573,-1.4901161193847656e-08,,120.0,334.63333333335765,,
1776999754.4809635,334666684120,1.1715913117015895,0.8850466311020608,1.1536968999145722,0.017894411787017228,1.1715913117015895,0.8850466311020608,0.9028686285018921,6.69975471496582,0.2687226831996974,-0.0019178605801895574,-0.001924102258332862,-0.0018789579089392697,-3.890267125028772e-05,-0.0019178605801895574,-0.001924102258332862,0.0019979258067905903,0.7307714223861694,-0.003915786386980148,-0.004614228190511083,-0.0029654610026613373,-0.004554270693973431,-5.995749653765238e-05,-0.004614228190511083,-0.0029654610026613373,-0.0035731883253902197,-0.5260183215141296,-0.0010410398651208635,1.5728366559331066,0.002556337647622345,1.57278497034172,5.168559138657436e-05,1.5728366559331066,0.002556337647622345,1.5725042819976807,0.11136719584465027,0.00033237393542595584,-1.555854985950826,-0.028351735278607883,-1.555281753300564,-0.000573232650261879,-1.555854985950826,-0.028351735278607883,-1.5403231382369995,0.02365121990442276,-0.01553184771382643,0.16335456386798136,-0.14826954967807668,0.07555141258606049,-0.049156397581100464,-0.28000012040138245,1.862645149230957e-08,0.038835640996694565,-0.2799999713897705,1.4901161193847656e-08,0.12682759761810303,-0.27999991178512573,-1.4901161193847656e-08,,120.0,334.6500000000243,,
1776999754.5456972,334683350788,1.2392013368187031,0.8050388121011215,1.2228949865916476,0.01630635022705551,1.2228949865916476,0.8250455681005907,0.9833606481552124,9.020299911499023,0.25584068866349075,-0.0020648456061105004,-0.0017501642760682358,-0.0020293954002179883,-3.5450205892512045e-05,-0.0020293954002179883,-0.0017936592096093635,0.0010096345795318484,0.4936397671699524,-0.003074480185642349,-0.004840764155767624,-0.0026973846563790736,-0.00478612766092683,-5.463649484079361e-05,-0.00478612766092683,-0.002764419830144308,-0.0040103234350681305,-0.570529580116272,-0.0008304407206994931,1.573031938358337,0.002325245869369687,1.5729848396682622,4.70986900749093e-05,1.5729848396682622,0.002383032681715701,1.572797417640686,0.04867498576641083,0.00023452071765106552,-1.5580208170685756,-0.025788751109393826,-1.557498456654162,-0.0005223604144135585,-1.557498456654162,-0.026429650955737106,-1.5429892539978027,0.05864483863115311,-0.015031563070772913,0.15138184388524067,-0.15781509154131318,0.07577586015387543,-0.049156397581100464,-0.28000012040138245,1.862645149230957e-08,0.038835640996694565,-0.2799999713897705,1.4901161193847656e-08,0.12682759761810303,-0.27999991178512573,-1.4901161193847656e-08,,120.0,334.66666666669096,,
1776999754.6107605,334700017455,1.2706574569772309,0.7649674821011133,1.2551255122683693,0.015531944708861545,1.2706574569772309,0.7649674821011133,1.0536236763000488,5.015132904052734,0.21703378067718204,-0.0021332315981119018,-0.001663048711940947,-0.0020994649593378423,-3.376663877405943e-05,-0.0021332315981119018,-0.001663048711940947,0.001577613060362637,0.6483839154243469,-0.003710844658474539,-0.004946161876460587,-0.0025631205823021873,-0.004894120125539207,-5.20417509213807e-05,-0.004946161876460587,-0.0025631205823021873,-0.0041268980130553246,-0.42186203598976135,-0.0008192638634052628,1.5731227951125277,0.002209505245231948,1.57307793318819,4.4861924337835646e-05,1.5731227951125277,0.002209505245231948,1.5730539560317993,-0.03649618849158287,6.883908072841116e-05,-1.5590284878062364,-0.02450509926496679,-1.5585309348307517,-0.0004975529754847052,-1.5590284878062364,-0.02450509926496679,-1.5451452732086182,0.012033313512802124,-0.01388321459761821,0.1397303580139986,-0.16549704598932632,0.07576931791917235,-0.049156397581100464,-0.28000012040138245,1.862645149230957e-08,0.038835640996694565,-0.2799999713897705,1.4901161193847656e-08,0.12682759761810303,-0.27999991178512573,-1.4901161193847656e-08,,120.0,334.6833333333576,,
1776999754.6766207,334716684123,1.3285961282381544,0.6850532141008666,1.3147013945886326,0.013894733649521873,1.3147013945886326,0.7050442351011199,1.1136902570724487,6.559421539306641,0.2149058711657057,-0.0022591909818328853,-0.0014893141107021005,-0.0022289836600325767,-3.02073218003086e-05,-0.0022289836600325767,-0.0015327748361613628,0.0016556697664782405,0.6920679807662964,-0.003914860748311126,-0.005140292743843632,-0.002295357690514341,-0.00509373667625122,-4.655606759241225e-05,-0.00509373667625122,-0.0023623401421686958,-0.004350975621491671,-0.5759952068328857,-0.0007893171223519613,1.5732901431384878,0.0019786836764184505,1.5732500100771507,4.013306133709982e-05,1.5732500100771507,0.0020364250403195013,1.5732489824295044,0.10045893490314484,4.1160708983412064e-05,-1.5608845051190632,-0.021945111924514326,-1.5604393988429026,-0.0004451062761605673,-1.5604393988429026,-0.022585507713200604,-1.5470484495162964,0.04852357506752014,-0.013836055602766795,0.1298070223677938,-0.17104611531624989,0.07585744126041308,-0.049156397581100464,-0.28000012040138245,1.862645149230957e-08,0.038835640996694565,-0.2799999713897705,1.4901161193847656e-08,0.12682759761810303,-0.27999991178512573,-1.4901161193847656e-08,,120.0,334.70000000002426,,
1776999754.7433817,334733350791,1.3679023450799637,0.6250483761016814,1.355186181875873,0.012716163204090636,1.3679023450799637,0.6250483761016814,1.181268334388733,8.165846824645996,0.18663401069123076,-0.0023446431805466076,-0.001358862855086911,-0.0023169980853860826,-2.7645095160525046e-05,-0.0023446431805466076,-0.001358862855086911,0.0012833349173888564,0.4585399031639099,-0.003627978097935464,-0.005271993209231979,-0.002094303869388267,-0.0052293860914146405,-4.260711781733841e-05,-0.005271993209231979,-0.002094303869388267,-0.004544394556432962,-0.7084373235702515,-0.0007275986527990165,1.5734036738366084,0.001805367806908177,1.5733669449168095,3.672891979888959e-05,1.5734036738366084,0.001805367806908177,1.5735152959823608,0.09867475926876068,-0.00011162214575244356,-1.5621436471976158,-0.020022906672692183,-1.561736295448847,-0.00040735174876882496,-1.5621436471976158,-0.020022906672692183,-1.5492411851882935,0.02639678865671158,-0.012902462009322324,0.1181593250965462,-0.17684081152010714,0.07599761765406014,-0.049156397581100464,-0.28000012040138245,1.862645149230957e-08,0.038835640996694565,-0.2799999713897705,1.4901161193847656e-08,0.12682759761810303,-0.27999991178512573,-1.4901161193847656e-08,,120.0,334.7166666666909,,
1776999754.8121552,334750017458,1.414709568286708,0.545042224101622,1.4036075660310723,0.011102002255635623,1.4036075660310723,0.5650442731003723,1.2374701499938965,4.234373569488525,0.17723941829281142,-0.002446402659328244,-0.0011849284969028605,-0.0024222667699169867,-2.4135889411257532e-05,-0.0024222667699169867,-0.0012284131973664457,0.0016941091744229198,0.5744109153747559,-0.004140511833751164,-0.005428826747923191,-0.0018262331086042376,-0.005391628081114469,-3.7198666808721526e-05,-0.005391628081114469,-0.0018932525109663842,-0.004736853763461113,-0.4687843322753906,-0.0006919729844620777,1.5735388701784268,0.0015742808435772605,1.5735068035444977,3.206663392907316e-05,1.5735068035444977,0.0016320540603586317,1.573692798614502,0.030419547110795975,-0.00015392843607520135,-1.5636430777980495,-0.017459975904495623,-1.5632874343574068,-0.0003556434406426501,-1.5632874343574068,-0.018100724965969955,-1.5509893894195557,-0.028545118868350983,-0.012653688378493788,0.10823720628621611,-0.18094961014946015,0.0759798350481783,-0.049156397581100464,-0.28000012040138245,1.862645149230957e-08,0.038835640996694565,-0.2799999713897705,1.4901161193847656e-08,0.12682759761810303,-0.27999991178512573,-1.4901161193847656e-08,,120.0,334.73333333335756,,
1776999754.8787038,334766684126,1.435711365329804,0.5050420101009518,1.4254111163244336,0.010300249005370299,1.435711365329804,0.5050420101009518,1.2957088947296143,6.737175941467285,0.14000247060018967,-0.0024920608243328966,-0.0010979675398325407,-0.0024696679563458784,-2.2392867987018183e-05,-0.0024920608243328966,-0.0010979675398325407,0.001633087289519608,0.4791926145553589,-0.004125148113852504,-0.005499195932922582,-0.0016922073177038776,-0.005464683642078549,-3.4512290844033316e-05,-0.005499195932922582,-0.0016922073177038776,-0.0049189175479114056,-0.5795117020606995,-0.0005802783850111766,1.5735995310324002,0.0014587456284006987,1.5735697801544388,2.975087796142084e-05,1.5735995310324002,0.0014587456284006987,1.5738905668258667,0.12779520452022552,-0.00029103579346645425,-1.5643158529595111,-0.016178602202156795,-1.5639858930197281,-0.00032995993978301996,-1.5643158529595111,-0.016178602202156795,-1.5528552532196045,0.06449463218450546,-0.011460599739906652,0.09754900422264491,-0.18469364984133002,0.07609260569626683,-0.049156397581100464,-0.28000012040138245,1.862645149230957e-08,0.038835640996694565,-0.2799999713897705,1.4901161193847656e-08,0.12682759761810303,-0.27999991178512573,-1.4901161193847656e-08,,120.0,334.7500000000242,,
1776999754.9456098,334783350793,1.472947407636758,0.4249651131022105,1.464215009218684,0.008732398418073828,1.472947407636758,0.4249651131022105,1.3421852588653564,5.078783988952637,0.13076214877140147,-0.002573012438153486,-0.000923879381151404,-0.0025540280966211575,-1.898434153232856e-05,-0.002573012438153486,-0.000923879381151404,0.0016075063031166792,0.5315365791320801,-0.004180518741270165,-0.005623960015937303,-0.001423899516827623,-0.00559470100736252,-2.9259008574782606e-05,-0.005623960015937303,-0.001423899516827623,-0.005139403976500034,-0.5130220651626587,-0.00048455603943726826,1.5737070823110029,0.0012274543277170304,1.5736818599576874,2.5222353315479396e-05,1.5737070823110029,0.0012274543277170304,1.574047327041626,0.0461120530962944,-0.0003402447306231071,-1.5655086787126535,-0.013613405176564619,-1.56522894356696,-0.0002797351456935715,-1.5655086787126535,-0.013613405176564619,-1.554256796836853,-0.009258586913347244,-0.011251881875800507,0.08926881489522566,-0.18711567705824567,0.07608565269261128,-0.049156397581100464,-0.28000012040138245,1.862645149230957e-08,0.038835640996694565,-0.2799999713897705,1.4901161193847656e-08,0.12682759761810303,-0.27999991178512573,-1.4901161193847656e-08,,120.0,334.76666666669087,,
1776999755.01919,334800017461,1.5037348241022581,0.3449934991015472,1.496615771966058,0.007119052136200121,1.496615771966058,0.3650460501009179,1.380493402481079,4.153028964996338,0.12324142162117901,-0.0026399446601040287,-0.0007500201090025178,-0.0026244677532258043,-1.547690687822437e-05,-0.0026244677532258043,-0.0007936146014363841,0.0017216152045875788,0.33421462774276733,-0.0043615598646916075,-0.005727117160083994,-0.0011559444799913562,-0.005703263872874112,-2.3853287209882508e-05,-0.005703263872874112,-0.0012231330957125919,-0.005166591610759497,-0.4392387270927429,-0.0005605255493244974,1.5737960076049002,0.0009964671226849848,1.5737754451843995,2.056242050074708e-05,1.5737754451843995,0.001054386207684742,1.5741982460021973,0.09421592950820923,-0.0004022383972970278,-1.566494928081746,-0.01105158080449003,-1.566266875147011,-0.0002280529347349347,-1.566266875147011,-0.011693947655701581,-1.5554765462875366,0.010891269892454147,-0.011018381794209331,0.08213716542633914,-0.18886011534027244,0.07613393549627699,-0.049156397581100464,-0.28000012040138245,1.862645149230957e-08,0.038835640996694565,-0.2799999713897705,1.4901161193847656e-08,0.12682759761810303,-0.27999991178512573,-1.4901161193847656e-08,,120.0,334.7833333333575,,
1776999755.0937796,334816684128,1.5281211723748662,0.26504304910076143,1.5226201663058125,0.005501006069053682,1.5226201663058125,0.28504355810055476,1.4244011640548706,4.92109489440918,0.10372000831999562,-0.0026929608810972536,-0.0005762068476495537,-0.002681001626264106,-1.1959254833147828e-05,-0.002681001626264106,-0.0006196882001364966,0.0016215364448726177,0.45384305715560913,-0.004314497325969871,-0.005808826713296673,-0.0008880603558211067,-0.005790394894678406,-1.84318186182671e-05,-0.005790394894678406,-0.0009550745982214252,-0.005329841747879982,-0.5071734189987183,-0.00047898496541669104,1.5738664442779364,0.0007655410470356769,1.5738505553649464,1.5888912989980852e-05,1.5738505553649464,0.0008233098157483226,1.5743389129638672,0.0933719128370285,-0.0004724686859307603,-1.5672761245366447,-0.00849043440364624,-1.5670999043665936,-0.00017622017005103352,-1.5670999043665936,-0.009131134132533279,-1.5569194555282593,-0.02077304571866989,-0.010356669008385389,0.07356170258498407,-0.19068873904188582,0.07618819144816288,-0.049156397581100464,-0.28000012040138245,1.862645149230957e-08,0.038835640996694565,-0.2799999713897705,1.4901161193847656e-08,0.12682759761810303,-0.27999991178512573,-1.4901161193847656e-08,,120.0,334.80000000002417,,
1776999755.1614244,334833350796,1.5422416042187328,0.20495598110103364,1.5379231715911985,0.0043184326275342855,1.5422416042187328,0.20495598110103364,1.4641867876052856,4.017722129821777,0.07805481661344715,-0.002723658873547197,-0.000445576823002278,-0.002714270547916542,-9.388325630655184e-06,-0.002723658873547197,-0.000445576823002278,0.0015402865828946233,0.3312609791755676,-0.00426394545644182,-0.005856139011318285,-0.0006867310126478785,-0.005841669555021248,-1.4469456297036207e-05,-0.005856139011318285,-0.0006867310126478785,-0.0054898858070373535,-0.42617398500442505,-0.0003662532042809311,1.5739072292380218,0.000591987667295136,1.5738947560286827,1.2473209339169955e-05,1.5739072292380218,0.000591987667295136,1.5744775533676147,0.0640663281083107,-0.0005703241295929029,-1.5677284608673963,-0.006565594981937403,-1.5675901234573981,-0.00013833740999813493,-1.5677284608673963,-0.006565594981937403,-1.5581321716308594,-0.015532603487372398,-0.009596289236536881,0.0661584690293384,-0.19187412173138116,0.07623665316830079,-0.049156397581100464,-0.28000012040138245,1.862645149230957e-08,0.038835640996694565,-0.2799999713897705,1.4901161193847656e-08,0.12682759761810303,-0.27999991178512573,-1.4901161193847656e-08,,120.0,334.8166666666908,,
1776999755.226719,334850017463,1.5554364748154281,0.12496884810169354,1.5527264595226413,0.002710015292786805,1.5527264595226413,0.14504221310160317,1.4915963411331177,2.792715072631836,0.06384013368231045,-0.0027523446844653163,-0.00027168381235950686,-0.0027464530778971126,-5.891606568203707e-06,-0.0027464530778971126,-0.00031532355468650685,0.0014277576701715589,0.22466324269771576,-0.004180102354636875,-0.005900350098976952,-0.0004187239774378161,-0.005891269848982252,-9.08024999470014e-06,-0.005891269848982252,-0.0004859823331081342,-0.005604087840765715,-0.3323061764240265,-0.0002962622582112374,1.5739453408394641,0.00036095563778484977,1.5739375133263416,7.827513122560248e-06,1.5739375133263416,0.00041893484119837694,1.574558138847351,0.06993545591831207,-0.0006127980078869388,-1.5681511476107226,-0.004003273471603286,-1.5680643345169472,-8.681309377545077e-05,-1.5680643345169472,-0.004646307082091069,-1.5590918064117432,-0.06691636145114899,-0.009059341198979443,0.06120614383596583,-0.1924866160510947,0.07625790349857625,-0.049156397581100464,-0.28000012040138245,1.862645149230957e-08,0.038835640996694565,-0.2799999713897705,1.4901161193847656e-08,0.12682759761810303,-0.27999991178512573,-1.4901161193847656e-08,,120.0,334.8333333333575,,
1776999755.2921786,334866684131,1.55962891755623,0.08504309210079762,1.557723310107755,0.0019056074484748997,1.55962891755623,0.08504309210079762,1.5134717226028442,2.4602859020233154,0.04615719495338566,-0.0027614591065330692,-0.0001848847278961945,-0.002757316292509203,-4.1428140238660566e-06,-0.0027614591065330692,-0.0001848847278961945,0.001441950793378055,0.11952974647283554,-0.004203409899911125,-0.005914397410177107,-0.00028494766751059673,-0.005908012430701166,-6.3849794759403625e-06,-0.005914397410177107,-0.00028494766751059673,-0.005650232546031475,-0.30996012687683105,-0.0002641648641456317,1.5739574501440328,0.0002456354844673524,1.5739519460543157,5.504089717112137e-06,1.5739574501440328,0.0002456354844673524,1.5746479034423828,0.0702175498008728,-0.0006904532983500467,-1.5682854490391236,-0.00272428496961048,-1.5682244044839253,-6.104455519828633e-05,-1.5682854490391236,-0.00272428496961048,-1.5597052574157715,-0.03912203013896942,-0.008580191623352107,0.0570482237366901,-0.1929129901683909,0.07626697607491516,-0.049156397581100464,-0.28000012040138245,1.862645149230957e-08,0.038835640996694565,-0.2799999713897705,1.4901161193847656e-08,0.12682759761810303,-0.27999991178512573,-1.4901161193847656e-08,,120.0,334.8500000000241,,
1776999755.3628974,334883350798,1.5632450813132954,1.8075000981107696e-16,1.5632323808706232,1.2700442672208823e-05,1.5632323808706232,0.005039929101127117,1.531876802444458,2.1906299591064453,0.03136827886883742,-0.0027693206910043957,-3.9295274378720774e-19,-0.0027692930800858645,-2.7610918531140866e-08,-0.0027692930800858645,-1.0956867835586295e-05,0.0013960393844172359,0.07922109216451645,-0.0041653600754216315,-0.0059265138255432245,-6.056258353957783e-19,-0.0059264712710990425,-4.2554444181983064e-08,-0.0059264712710990425,-1.6886921751185165e-05,-0.005735909566283226,-0.268524706363678,-0.00019060425925999849,1.5739678949445972,5.220719888085899e-19,1.5739678582610839,3.668351333807607e-08,1.5739678582610839,1.4557154447904122e-05,1.5746960639953613,0.06619516015052795,-0.0007281690507641159,-1.5684012898479145,-5.7901767541769896e-18,-1.56840088299976,-4.0684815449942846e-07,-1.56840088299976,-0.00016144995153553887,-1.5603433847427368,-0.06923583149909973,-0.008057905105177676,0.05356437148437975,-0.19321281015526884,0.07628711205690103,-0.049156397581100464,-0.28000012040138245,1.862645149230957e-08,0.038835640996694565,-0.2799999713897705,1.4901161193847656e-08,0.12682759761810303,-0.27999991178512573,-1.4901161193847656e-08,,120.0,334.8666666666908,,
1776999755.4352345,334900017466,1.5632450813132954,1.8075000981107696e-16,1.5632450813132954,0.0,1.5632450813132954,1.8075000981107696e-16,1.5492740869522095,2.068070888519287,0.013970994361085953,-0.0027693206910043957,-3.9295274378720774e-19,-0.0027693206910043957,0.0,-0.0027693206910043957,-3.9295274378720774e-19,0.0013416834408417344,0.05050605908036232,-0.00411100413184613,-0.0059265138255432245,-6.056258353957783e-19,-0.0059265138255432245,0.0,-0.0059265138255432245,-6.056258353957783e-19,-0.005768893752247095,-0.27199214696884155,-0.0001576200732961294,1.5739678949445972,5.220719888085899e-19,1.5739678949445972,0.0,1.5739678949445972,5.220719888085899e-19,1.5747572183609009,0.08042894303798676,-0.0007893234163036666,-1.5684012898479145,-5.7901767541769896e-18,-1.5684012898479145,0.0,-1.5684012898479145,-5.7901767541769896e-18,-1.5609347820281982,-0.06454986333847046,-0.0074665078197162504,0.050206036852191264,-0.19343910840214182,0.07631031479543308,-0.049156397581100464,-0.28000012040138245,1.862645149230957e-08,0.038835640996694565,-0.2799999713897705,1.4901161193847656e-08,0.12682759761810303,-0.27999991178512573,-1.4901161193847656e-08,,120.0,334.8833333333574,,
1776999755.5025113,334916684133,1.5632450813132954,1.8075000981107696e-16,1.5632450813132954,0.0,1.5632450813132954,1.8075000981107696e-16,1.5620719194412231,1.8575329780578613,0.0011731618720722814,-0.0027693206910043957,-3.9295274378720774e-19,-0.0027693206910043957,0.0,-0.0027693206910043957,-3.9295274378720774e-19,0.0013192465994507074,-0.1504417359828949,-0.004088567290455103,-0.0059265138255432245,-6.056258353957783e-19,-0.0059265138255432245,0.0,-0.0059265138255432245,-6.056258353957783e-19,-0.00588132394477725,-0.197622612118721,-4.518988076597421e-05,1.5739678949445972,5.220719888085899e-19,1.5739678949445972,0.0,1.5739678949445972,5.220719888085899e-19,1.5747923851013184,0.07536696642637253,-0.0008244901567211471,-1.5684012898479145,-5.7901767541769896e-18,-1.5684012898479145,0.0,-1.5684012898479145,-5.7901767541769896e-18,-1.5612564086914062,-0.04924001172184944,-0.007144881156508243,0.04791448463174824,-0.19353909672363792,0.07631286665065898,-0.049156397581100464,-0.28000012040138245,1.862645149230957e-08,0.038835640996694565,-0.2799999713897705,1.4901161193847656e-08,0.12682759761810303,-0.27999991178512573,-1.4901161193847656e-08,,120.0,334.9000000000241,,
1776999755.569101,334933350801,1.5632450813132954,1.8075000981107696e-16,1.5632450813132954,0.0,1.5632450813132954,1.8075000981107696e-16,1.567525863647461,1.0031676292419434,-0.004280782334165512,-0.0027693206910043957,-3.9295274378720774e-19,-0.0027693206910043957,0.0,-0.0027693206910043957,-3.9295274378720774e-19,0.001283861929550767,-0.2073712944984436,-0.004053182620555163,-0.0059265138255432245,-6.056258353957783e-19,-0.0059265138255432245,0.0,-0.0059265138255432245,-6.056258353957783e-19,-0.0059111230075359344,-0.1502351462841034,-1.539081800729005e-05,1.5739678949445972,5.220719888085899e-19,1.5739678949445972,0.0,1.5739678949445972,5.220719888085899e-19,1.5748084783554077,0.09627154469490051,-0.0008405834108105026,-1.5684012898479145,-5.7901767541769896e-18,-1.5684012898479145,0.0,-1.5684012898479145,-5.7901767541769896e-18,-1.5614144802093506,-0.05893651396036148,-0.006986809638563907,0.04702839555854432,-0.19355477105436739,0.07630285305492657,-0.049156397581100464,-0.28000012040138245,1.862645149230957e-08,0.038835640996694565,-0.2799999713897705,1.4901161193847656e-08,0.12682759761810303,-0.27999991178512573,-1.4901161193847656e-08,,120.0,334.91666666669073,,
1776999755.6341925,334950017469,1.5632450813132954,1.8075000981107696e-16,1.5632450813132954,0.0,1.5632450813132954,1.8075000981107696e-16,1.5691664218902588,0.05083806812763214,-0.005921340576963363,-0.0027693206910043957,-3.9295274378720774e-19,-0.0027693206910043957,0.0,-0.0027693206910043957,-3.9295274378720774e-19,0.0013140225782990456,0.020265471190214157,-0.004083343269303441,-0.0059265138255432245,-6.056258353957783e-19,-0.0059265138255432245,0.0,-0.0059265138255432245,-6.056258353957783e-19,-0.005928387865424156,-0.1145842969417572,1.8740398809316897e-06,1.5739678949445972,5.220719888085899e-19,1.5739678949445972,0.0,1.5739678949445972,5.220719888085899e-19,1.5748082399368286,0.07954836636781693,-0.000840344992231401,-1.5684012898479145,-5.7901767541769896e-18,-1.5684012898479145,0.0,-1.5684012898479145,-5.7901767541769896e-18,-1.5614607334136963,-0.05782919377088547,-0.0069405564342182036,0.04676295876532756,-0.19356086649217713,0.07629000768929253,-0.049156397581100464,-0.28000012040138245,1.862645149230957e-08,0.038835640996694565,-0.2799999713897705,1.4901161193847656e-08,0.12682759761810303,-0.27999991178512573,-1.4901161193847656e-08,,120.0,334.9333333333574,,
1776999755.6998491,334966684136,1.5632450813132954,1.8075000981107696e-16,1.5632450813132954,0.0,1.5632450813132954,1.8075000981107696e-16,1.5693719387054443,0.15900182723999023,-0.00612685739214891,-0.0027693206910043957,-3.9295274378720774e-19,-0.0027693206910043957,0.0,-0.0027693206910043957,-3.9295274378720774e-19,0.0013181649846956134,-0.08150564879179001,-0.004087485675700009,-0.0059265138255432245,-6.056258353957783e-19,-0.0059265138255432245,0.0,-0.0059265138255432245,-6.056258353957783e-19,-0.005924851167947054,-0.11795924603939056,-1.66265759617059e-06,1.5739678949445972,5.220719888085899e-19,1.5739678949445972,0.0,1.5739678949445972,5.220719888085899e-19,1.5748099088668823,0.0906982347369194,-0.000842013922285112,-1.5684012898479145,-5.7901767541769896e-18,-1.5684012898479145,0.0,-1.5684012898479145,-5.7901767541769896e-18,-1.561464786529541,-0.059778232127428055,-0.006936503318373477,0.046745804003245066,-0.19355584966611084,0.07628827684950408,-0.049156397581100464,-0.28000012040138245,1.862645149230957e-08,0.038835640996694565,-0.2799999713897705,1.4901161193847656e-08,0.12682759761810303,-0.27999991178512573,-1.4901161193847656e-08,,120.0,334.95000000002403,,
1776999755.7663953,334983350804,1.5632450813132954,1.8075000981107696e-16,1.5632450813132954,0.0,1.5632450813132954,1.8075000981107696e-16,1.5694060325622559,0.22669650614261627,-0.0061609512489604334,-0.0027693206910043957,-3.9295274378720774e-19,-0.0027693206910043957,0.0,-0.0027693206910043957,-3.9295274378720774e-19,0.0012936159037053585,-0.11838056147098541,-0.004062936594709754,-0.0059265138255432245,-6.056258353957783e-19,-0.0059265138255432245,0.0,-0.0059265138255432245,-6.056258353957783e-19,-0.005928323604166508,-0.11865753680467606,1.8097786232832216e-06,1.5739678949445972,5.220719888085899e-19,1.5739678949445972,0.0,1.5739678949445972,5.220719888085899e-19,1.5748103857040405,0.09220370650291443,-0.0008424907594433151,-1.5684012898479145,-5.7901767541769896e-18,-1.5684012898479145,0.0,-1.5684012898479145,-5.7901767541769896e-18,-1.5614662170410156,-0.06011659651994705,-0.006935072806898868,0.04673176919160932,-0.1935582643120075,0.0762965314805589,-0.049156397581100464,-0.28000012040138245,1.862645149230957e-08,0.038835640996694565,-0.2799999713897705,1.4901161193847656e-08,0.12682759761810303,-0.27999991178512573,-1.4901161193847656e-08,,120.0,334.9666666666907,,
1776999755.833153,335000017471,1.5632450813132954,1.8075000981107696e-16,1.5632450813132954,0.0,1.5632450813132954,1.8075000981107696e-16,1.5694149732589722,0.31690484285354614,-0.006169891945676742,-0.0027693206910043957,-3.9295274378720774e-19,-0.0027693206910043957,0.0,-0.0027693206910043957,-3.9295274378720774e-19,0.0012947367504239082,-0.09834028780460358,-0.004064057441428304,-0.0059265138255432245,-6.056258353957783e-19,-0.0059265138255432245,0.0,-0.0059265138255432245,-6.056258353957783e-19,-0.005927789956331253,-0.1274259388446808,1.2761307880285525e-06,1.5739678949445972,5.220719888085899e-19,1.5739678949445972,0.0,1.5739678949445972,5.220719888085899e-19,1.5748101472854614,0.08762271702289581,-0.0008422523408642135,-1.5684012898479145,-5.7901767541769896e-18,-1.5684012898479145,0.0,-1.5684012898479145,-5.7901767541769896e-18,-1.5614664554595947,-0.05559511110186577,-0.006934834388319766,0.04668894786039853,-0.19357350827017725,0.07630215930693611,-0.049156397581100464,-0.28000012040138245,1.862645149230957e-08,0.038835640996694565,-0.2799999713897705,1.4901161193847656e-08,0.12682759761810303,-0.27999991178512573,-1.4901161193847656e-08,,120.0,334.98333333335734,,
