inbarajaldrin/isaac-sim-mcp/.planning/saved_runs/2026-04-23-green2x2-postfix/20260423T200225_grasp_home.csv
t_wall,t_sim_ns,ref_pos_shoulder_pan,ref_vel_shoulder_pan,fb_pos_shoulder_pan,err_pos_shoulder_pan,js_pos_shoulder_pan,js_vel_shoulder_pan,isaac_pos_shoulder_pan,isaac_vel_shoulder_pan,isaac_lag_shoulder_pan,ref_pos_shoulder_lift,ref_vel_shoulder_lift,fb_pos_shoulder_lift,err_pos_shoulder_lift,js_pos_shoulder_lift,js_vel_shoulder_lift,isaac_pos_shoulder_lift,isaac_vel_shoulder_lift,isaac_lag_shoulder_lift,ref_pos_elbow_flex,ref_vel_elbow_flex,fb_pos_elbow_flex,err_pos_elbow_flex,js_pos_elbow_flex,js_vel_elbow_flex,isaac_pos_elbow_flex,isaac_vel_elbow_flex,isaac_lag_elbow_flex,ref_pos_wrist_flex,ref_vel_wrist_flex,fb_pos_wrist_flex,err_pos_wrist_flex,js_pos_wrist_flex,js_vel_wrist_flex,isaac_pos_wrist_flex,isaac_vel_wrist_flex,isaac_lag_wrist_flex,ref_pos_wrist_roll,ref_vel_wrist_roll,fb_pos_wrist_roll,err_pos_wrist_roll,js_pos_wrist_roll,js_vel_wrist_roll,isaac_pos_wrist_roll,isaac_vel_wrist_roll,isaac_lag_wrist_roll,tcp_x,tcp_y,tcp_z,cup_red_x,cup_red_y,cup_red_z,cup_green_x,cup_green_y,cup_green_z,cup_blue_x,cup_blue_y,cup_blue_z,attached_lego_xyz,physics_rate_hz,sim_time_s,render_fps,app_dt_ms
1776999745.9952192,332150017322,-0.35752226063556886,0.010374923718457564,-0.3575964070234446,7.414638787572869e-05,-0.3575964070234446,0.0,-0.3580203652381897,0.10596603900194168,0.0004981046026208413,0.45897653531643295,-0.013511006443325212,0.4590730943226987,-9.655900626576175e-05,0.4590730943226987,0.0,0.45915311574935913,-0.0765908807516098,-0.00017658043292617664,-0.18953848715507468,0.005567548204828335,-0.1895782767091875,3.978955411282348e-05,-0.1895782767091875,0.0,-0.18888287246227264,0.011239960789680481,-0.0006556146928020368,1.3010513472998766,0.00791157727234318,1.3009948056911802,5.654160869639213e-05,1.3009948056911802,0.0,1.2976070642471313,0.021810801699757576,0.003444283052745245,-1.2280579391787108,-0.008551328481355218,-1.227996825464949,-6.111371376182895e-05,-1.227996825464949,0.0,-1.223000168800354,0.01899607852101326,-0.005057770378356752,0.2561445634656146,0.08893932843979505,0.014725115487069826,-0.049156397581100464,-0.28000012040138245,1.862645149230957e-08,0.038835640996694565,-0.2799999713897705,1.4901161193847656e-08,0.12682759761810303,-0.27999991178512573,-1.4901161193847656e-08,,120.0,332.1166666666933,,
1776999746.081756,332150017322,-0.35207392904526347,0.0920938437789162,-0.3537628933722189,0.0016889643269554222,-0.3537628933722189,0.07672952286987966,-0.35802045464515686,0.10652978718280792,0.005946525599893393,0.4518813078989022,-0.1199315339999952,0.4540808043504702,-0.002199496451568028,0.4540808043504702,-0.09992295905213691,0.45915305614471436,-0.07721590250730515,-0.007271748245812171,-0.18661472119899827,0.04942078886757398,-0.18752107873585727,0.0009063575368589982,-0.18752107873585727,0.04117575501317179,-0.1888830065727234,0.011358626186847687,0.002268285373725115,1.3052060666551013,0.07022775117544952,1.3039181177365782,0.0012879489185231296,1.3039181177365782,0.05851142290087474,1.2976067066192627,0.021895000711083412,0.007599360035838609,-1.2325486202061917,-0.0759065541718604,-1.2311565243079463,-0.0013920958982454046,-1.2311565243079463,-0.06324281238916324,-1.2230002880096436,0.019039828330278397,-0.00954833219654816,0.2561446969042696,0.08893941529824319,0.01472509817516432,-0.049156397581100464,-0.28000012040138245,1.862645149230957e-08,0.038835640996694565,-0.2799999713897705,1.4901161193847656e-08,0.12682759761810303,-0.27999991178512573,-1.4901161193847656e-08,,120.0,332.13333333335993,,
1776999746.1625173,332166683990,-0.34225014601010595,0.15351997594279007,-0.34516682806885995,0.0029166820587540054,-0.34516682806885995,0.13816301826042096,-0.3580203950405121,0.1061854213476181,0.015770249030406136,0.43908803833011323,-0.19992526600000132,0.4428863612053796,-0.00379832287526638,0.4428863612053796,-0.17992628000000846,0.45915302634239197,-0.07738557457923889,-0.02006498801227874,-0.1813429344286806,0.0823842073118142,-0.1829081283906741,0.0015651939619935051,-0.1829081283906741,0.07414312482327506,-0.1888829469680786,0.011251014657318592,0.007540012539398011,1.312697362080353,0.11706930918054634,1.3104731958008795,0.0022241662794735273,1.3104731958008795,0.10535859586162036,1.2976068258285522,0.0220451969653368,0.01509053625180079,-1.2406456817309663,-0.12653584530951112,-1.2382416634425513,-0.0024040182884150774,-1.2382416634425513,-0.11387817252269654,-1.223000407218933,0.01904146373271942,-0.017645274512033238,0.2561446864264502,0.08893942872671477,0.014725135388878749,-0.049156397581100464,-0.28000012040138245,1.862645149230957e-08,0.038835640996694565,-0.2799999713897705,1.4901161193847656e-08,0.12682759761810303,-0.27999991178512573,-1.4901161193847656e-08,,120.0,332.1500000000266,,
1776999746.255757,332183350658,-0.3316567066754746,0.19959335614039544,-0.335496181238478,0.003839474563003431,-0.3316567066754746,0.19959335614039544,-0.3580204248428345,0.10655267536640167,0.026363718167359884,0.42529246440675583,-0.25992548899999673,0.4302925171268962,-0.005000052720140369,0.42529246440675583,-0.25992548899999673,0.4591531455516815,-0.0771828293800354,-0.033860681144925686,-0.17565812307478526,0.10710880020237848,-0.17771851988259071,0.0020603968078054535,-0.17565812307478526,0.10710880020237848,-0.18888287246227264,0.01125701330602169,0.013224749387487383,1.3207755722099077,0.15220336100801798,1.3178477145682788,0.0029278576416289503,1.3207755722099077,0.15220336100801798,1.2976069450378418,0.02196044847369194,0.023168627172065914,-1.249377117446157,-0.16451093013973636,-1.2462125054379132,-0.0031646120082438056,-1.249377117446157,-0.16451093013973636,-1.2230002880096436,0.019055508077144623,-0.026376829436513427,0.2561446264278406,0.08893935986092026,0.014725143752904388,-0.049156397581100464,-0.28000012040138245,1.862645149230957e-08,0.038835640996694565,-0.2799999713897705,1.4901161193847656e-08,0.12682759761810303,-0.27999991178512573,-1.4901161193847656e-08,,120.0,332.16666666669323,,
1776999746.3202722,332200017325,-0.3132316906713575,0.2610250636659776,-0.3182975759399471,0.005065885268589643,-0.3182975759399471,0.24567067874322435,-0.3550800383090973,0.4241231083869934,0.04184834763773981,0.40129802196983244,-0.3399264816555978,0.4078951990057748,-0.00659717703594237,0.4078951990057748,-0.31993084609679623,0.4563586115837097,0.08304406702518463,-0.055060589613877275,-0.1657706128085497,0.14007521058138786,-0.16848914464535023,0.002718531836800514,-0.16848914464535023,0.13183550872595823,-0.18664056062698364,0.12999919056892395,0.02086994781843393,1.3348258863921134,0.19904917060141697,1.3309628080849474,0.0038630783071660346,1.3309628080849474,0.1873404191848067,1.3002184629440308,0.03922624513506889,0.03460742344808265,-1.2645635774530974,-0.21514481666048743,-1.2603881203455436,-0.004175457107553848,-1.2603881203455436,-0.2024892644206194,-1.2257070541381836,-0.02199813351035118,-0.03885652331491385,0.2558977643593104,0.08809585061743427,0.014975792002286353,-0.049156397581100464,-0.28000012040138245,1.862645149230957e-08,0.038835640996694565,-0.2799999713897705,1.4901161193847656e-08,0.12682759761810303,-0.27999991178512573,-1.4901161193847656e-08,,120.0,332.1833333333599,,
1776999746.3845053,332216683993,-0.28989092563846725,0.3224595428238458,-0.2961890574535296,0.0062981318150623355,-0.2961890574535296,0.3070954928007706,-0.34929946064949036,0.8005883693695068,0.05940853501102311,0.3709019212071359,-0.41993108373932875,0.379103822430065,-0.008201901222929131,0.379103822430065,-0.3999228615595602,0.4503316581249237,-0.19551199674606323,-0.07942973691778782,-0.15324513908125809,0.17304310831556333,-0.1566249376640992,0.003379798582841126,-0.1566249376640992,0.16479821982806686,-0.18320493400096893,0.12072233855724335,0.029959794919710847,1.3526247898987303,0.24589709375086108,1.3478220407047674,0.004802749193962841,1.3478220407047674,0.23418097204518534,1.304642677307129,0.14094413816928864,0.047982112591601345,-1.2838017477007737,-0.26578098764506897,-1.2786106354159028,-0.005191112284870902,-1.2786106354159028,-0.25311746913470734,-1.2303781509399414,-0.10028230398893356,-0.053423596760832304,0.25579933989808,0.0864378563458121,0.015776633210450697,-0.049156397581100464,-0.28000012040138245,1.862645149230957e-08,0.038835640996694565,-0.2799999713897705,1.4901161193847656e-08,0.12682759761810303,-0.27999991178512573,-1.4901161193847656e-08,,120.0,332.20000000002653,,
1776999746.461741,332233350660,-0.26162032370141247,0.3839235445234802,-0.2691627932285175,0.007542469527105022,-0.2691627932285175,0.3685292343180738,-0.3408750295639038,0.85210120677948,0.07925470586249134,0.3340858158271325,-0.4999741322986905,0.3439081872627897,-0.009822371435657229,0.3439081872627897,-0.4799265030322023,0.4390524923801422,-0.49669328331947327,-0.10496667655300973,-0.1380741418445213,0.20602684888183184,-0.14212169571722125,0.004047553872699949,-0.14212169571722125,0.19776572171843593,-0.17866496741771698,0.2261573076248169,0.04059082557319568,1.374183025682454,0.2927675298243173,1.3684313852745529,0.005751640407901215,1.3684313852745529,0.28102833269390554,1.311000943183899,0.001657053828239441,0.06318208249855517,-1.3071032398456526,-0.3164414920087968,-1.300886506476121,-0.006216733369531546,-1.300886506476121,-0.30375303213354377,-1.2370667457580566,-0.22559437155723572,-0.07003649408759594,0.25583819534143437,0.08443225048016904,0.017561602750015323,-0.049156397581100464,-0.28000012040138245,1.862645149230957e-08,0.038835640996694565,-0.2799999713897705,1.4901161193847656e-08,0.12682759761810303,-0.27999991178512573,-1.4901161193847656e-08,,120.0,332.2166666666932,,
1776999746.5267596,332250017328,-0.2372231535856437,0.42996024606314015,-0.24568635312803083,0.00846319954238714,-0.24568635312803083,0.41457001073057675,-0.32617008686065674,1.604252815246582,0.08894693327501305,0.3023139848644976,-0.5599265895900597,0.31333540021668127,-0.01102141535218365,0.31333540021668127,-0.5398842669296366,0.41968730092048645,-0.9064234495162964,-0.11737331605598883,-0.12498176407221127,0.23073175871720192,-0.1295234139867544,0.0045416499145431305,-0.1295234139867544,0.22247281827359422,-0.17066635191440582,0.31906837224960327,0.04568458784219455,1.3927875091307587,0.3278736117079232,1.3863337501472834,0.006453758983475222,1.3863337501472834,0.3161375219421064,1.3226865530014038,0.1927652806043625,0.07010095612935485,-1.3272121313745857,-0.3543863451707971,-1.3202365042515207,-0.006975627123064987,-1.3202365042515207,-0.3417012439299921,-1.249624490737915,-0.34188252687454224,-0.07758764063667067,0.2557634152392563,0.08072540186829007,0.020562043139751296,-0.049156397581100464,-0.28000012040138245,1.862645149230957e-08,0.038835640996694565,-0.2799999713897705,1.4901161193847656e-08,0.12682759761810303,-0.27999991178512573,-1.4901161193847656e-08,,120.0,332.23333333335984,,
1776999746.594598,332266683995,-0.21937523167166575,0.4607342455337021,-0.22845820583207285,0.009082974160407098,-0.21937523167166575,0.4607342455337021,-0.3097630441188812,2.095790386199951,0.09038781244721547,0.27907107778165163,-0.6000028076343294,0.290899610283292,-0.011828532501640343,0.27907107778165163,-0.6000028076343294,0.3985522389411926,-0.9379093050956726,-0.119481161159541,-0.11540394274950554,0.2472461669342845,-0.12027818547683385,0.0048742427273283095,-0.11540394274950554,0.2472461669342845,-0.16259433329105377,0.3077501952648163,0.047190390541548236,1.4063977502472291,0.3513408565183131,1.3994713714243263,0.006926378822902812,1.4063977502472291,0.3513408565183131,1.3344523906707764,0.30155083537101746,0.07194535957645276,-1.341922932835656,-0.3797512138964661,-1.3344364685742274,-0.007486464261428516,-1.341922932835656,-0.3797512138964661,-1.2621151208877563,-0.29235750436782837,-0.07980781194789954,0.2559304247485106,0.07647445061913717,0.023795692465758175,-0.049156397581100464,-0.28000012040138245,1.862645149230957e-08,0.038835640996694565,-0.2799999713897705,1.4901161193847656e-08,0.12682759761810303,-0.27999991178512573,-1.4901161193847656e-08,,120.0,332.2500000000265,,
1776999746.6598551,332283350663,-0.18004344398356623,0.5108716864335359,-0.19025659967371966,0.010213155690153436,-0.19025659967371966,0.507407754272975,-0.28729960322380066,2.09822416305542,0.10725615924023443,0.22785026389402674,-0.6652955563264747,0.24115060383685025,-0.013300339942823508,0.24115060383685025,-0.6607845631846876,0.36908236145973206,-1.4371172189712524,-0.14123209756570532,-0.09429712501493297,0.2741516774374525,-0.09977786281806372,0.005480737803130756,-0.09977786281806372,0.2722928098635303,-0.14998126029968262,0.4098702669143677,0.05568413528474965,1.436390884269046,0.3895740280268829,1.4286026660006679,0.0077882182683781664,1.4286026660006679,0.3869325467304623,1.3523368835449219,0.5115328431129456,0.08405400072412417,-1.3743413915546774,-0.4210760214790198,-1.365923397214889,-0.008417994339788404,-1.365923397214889,-0.41822094296992246,-1.2811163663864136,-0.46126213669776917,-0.09322502516826381,0.2552254789126915,0.07122414439170241,0.02812393470546244,-0.049156397581100464,-0.28000012040138245,1.862645149230957e-08,0.038835640996694565,-0.2799999713897705,1.4901161193847656e-08,0.12682759761810303,-0.27999991178512573,-1.4901161193847656e-08,,120.0,332.26666666669314,,
1776999746.7242835,332300017330,-0.15042406049102275,0.4716555170011699,-0.16000455588279794,0.00958049539177519,-0.15042406049102275,0.4716555170011699,-0.2639979422092438,3.0928847789764404,0.11357388171822103,0.18927767366831483,-0.6142253092324599,0.20175411575899155,-0.01247644209067672,0.18927767366831483,-0.6142253092324599,0.3390156328678131,-1.3961654901504517,-0.14973795919949828,-0.07840232425618983,0.2531069045168624,-0.08354355433819535,0.005141230082005524,-0.07840232425618983,0.2531069045168624,-0.13829587399959564,0.4129100441932678,0.05989354974340581,1.4589776567234363,0.35966906070292476,1.4516718844925989,0.007305772230837393,1.4589776567234363,0.35966906070292476,1.3694067001342773,0.4659554958343506,0.08957095658915892,-1.3987545905846925,-0.3887528588518078,-1.390858054153932,-0.007896536430760603,-1.3987545905846925,-0.3887528588518078,-1.2992247343063354,-0.4797661006450653,-0.09952985627835709,0.2549103892806042,0.06516742302657538,0.03256804938152631,-0.049156397581100464,-0.28000012040138245,1.862645149230957e-08,0.038835640996694565,-0.2799999713897705,1.4901161193847656e-08,0.12682759761810303,-0.27999991178512573,-1.4901161193847656e-08,,120.0,332.2833333333598,,
1776999746.794968,332316683998,-0.11515192667404169,0.41023031781990826,-0.1235075500697967,0.008355623395755019,-0.1235075500697967,0.42558343453220265,-0.23997841775417328,2.423218250274658,0.1248264910801316,0.14334364656571183,-0.534232792232639,0.154224968163981,-0.010881321598269184,0.154224968163981,-0.5542267762323432,0.3076860308647156,-1.412123203277588,-0.16434238429900375,-0.05947405927397721,0.22014398674384275,-0.06395798005254612,0.004483920778568906,-0.06395798005254612,0.22838300803303296,-0.1252690702676773,0.41048464179039,0.0657950109937001,1.485875031569388,0.3128282141599183,1.479503306634532,0.006371724934856049,1.479503306634532,0.32453599848073655,1.3881218433380127,0.5302562713623047,0.09775318823137535,-1.427826958796006,-0.3381243367069117,-1.420939999213209,-0.006886959582796948,-1.420939999213209,-0.35077884364895334,-1.3190656900405884,-0.5062134265899658,-0.10876126875541758,0.2537979729772287,0.05972968366479826,0.036969944927291165,-0.049156397581100464,-0.28000012040138245,1.862645149230957e-08,0.038835640996694565,-0.2799999713897705,1.4901161193847656e-08,0.12682759761810303,-0.27999991178512573,-1.4901161193847656e-08,,120.0,332.30000000002644,,
1776999746.858051,332333350665,-0.09935387346727066,0.3795084717197408,-0.1071103250876867,0.0077564516204160355,-0.09935387346727066,0.3795084717197408,-0.20550039410591125,4.15952730178833,0.10614652063864059,0.12277023277868356,-0.49422449223215287,0.13287126779972597,-0.010101035021042412,0.12277023277868356,-0.49422449223215287,0.2626092731952667,-2.0906484127044678,-0.13983904041658318,-0.05099626944554062,0.20365756585578312,-0.0551586536198223,0.0041623841742816775,-0.05099626944554062,0.20365756585578312,-0.10644180327653885,0.5556187629699707,0.05544553383099823,1.4979221098988038,0.2894007398028859,1.4920072937498479,0.005914816148955948,1.4979221098988038,0.2894007398028859,1.4149835109710693,0.7165609002113342,0.08293859892773447,-1.4408481959639154,-0.3128024543793606,-1.434455092028326,-0.006393103935589339,-1.4408481959639154,-0.3128024543793606,-1.3475587368011475,-0.6844421625137329,-0.09328945916276798,0.25190648243999375,0.05117982140734619,0.043243847452282436,-0.049156397581100464,-0.28000012040138245,1.862645149230957e-08,0.038835640996694565,-0.2799999713897705,1.4901161193847656e-08,0.12682759761810303,-0.27999991178512573,-1.4901161193847656e-08,,120.0,332.3166666666931,,
1776999746.922059,332350017333,-0.06521545658769543,0.30265128386728524,-0.07145006584371523,0.006234609256019805,-0.07145006584371523,0.3180766387641852,-0.17243002355098724,3.8775362968444824,0.10721456696329182,0.07831261719117887,-0.39413527823215017,0.08643179455725815,-0.008119177366079283,0.08643179455725815,-0.41422333623221225,0.2202792465686798,-1.7185105085372925,-0.14196662937750093,-0.03267639676296569,0.1624133013321937,-0.03602210691111909,0.003345710148153401,-0.03602210691111909,0.17069108816664458,-0.08999534696340561,0.49405449628829956,0.05731895020043992,1.523954949313107,0.23079196376452926,1.5192006403436715,0.004754308969435517,1.5192006403436715,0.24255483456069452,1.439164161682129,0.6576471328735352,0.08479078763097814,-1.4689861201060745,-0.2494544166188421,-1.4638473650513004,-0.0051387550547741245,-1.4638473650513004,-0.26216846447540754,-1.3732677698135376,-0.642244815826416,-0.09571835029253695,0.25008998248899034,0.04334825418699164,0.04900986893927618,-0.049156397581100464,-0.28000012040138245,1.862645149230957e-08,0.038835640996694565,-0.2799999713897705,1.4901161193847656e-08,0.12682759761810303,-0.27999991178512573,-1.4901161193847656e-08,,120.0,332.33333333335975,,
1776999746.9859931,332366684000,-0.04844200608532422,0.2565883407872142,-0.05374921041054189,0.005307204325217668,-0.05374921041054189,0.2720077960098607,-0.1441885381937027,2.7302465438842773,0.09574653210837847,0.05646896764114337,-0.33414864723204313,0.06338040851337767,-0.0069114408722343035,0.06338040851337767,-0.35422902223230635,0.18292458355426788,-1.5765998363494873,-0.12645561591312451,-0.02367517451136322,0.137694309365215,-0.026523206623730162,0.0028480321123669425,-0.026523206623730162,0.1459689302273948,-0.07444899529218674,0.4490043818950653,0.050773820780823514,1.536745833696889,0.19566587094120766,1.5326987333751392,0.00404710032174993,1.5326987333751392,0.20742424283875657,1.4615930318832397,0.6311330199241638,0.07515280181364936,-1.482811309466872,-0.2114879343790769,-1.4784369498345376,-0.004374359632334457,-1.4784369498345376,-0.22419711954438207,-1.3970290422439575,-0.6332795023918152,-0.08578226722291449,0.2476035523913403,0.037418135247364294,0.05377711033376885,-0.049156397581100464,-0.28000012040138245,1.862645149230957e-08,0.038835640996694565,-0.2799999713897705,1.4901161193847656e-08,0.12682759761810303,-0.27999991178512573,-1.4901161193847656e-08,,120.0,332.3500000000264,,
1776999747.0507345,332383350668,-0.038804371324732884,0.22591226458140481,-0.043482838122708596,0.0046784667979757125,-0.038804371324732884,0.22591226458140481,-0.11758220940828323,3.3414669036865234,0.07877783808355035,0.043918114364303484,-0.29419995223245804,0.05001076591217738,-0.006092651547873897,0.043918114364303484,-0.29419995223245804,0.14901825785636902,-1.4224172830581665,-0.10510014349206553,-0.018503281438582018,0.12123245020889316,-0.021013910926496213,0.0025106294879141955,-0.018503281438582018,0.12123245020889316,-0.060348883271217346,0.41863173246383667,0.04184560183263533,1.544095178540302,0.17227329920761603,1.5405275328792136,0.00356764566108847,1.544095178540302,0.17227329920761603,1.4819531440734863,0.5597222447395325,0.062142034466815765,-1.4907549419077073,-0.1862037769940608,-1.4868988069168134,-0.003856134990893878,-1.4907549419077073,-0.1862037769940608,-1.4186190366744995,-0.5526547431945801,-0.07213590523320779,0.24521996104361676,0.031239155200244784,0.05799662940274976,-0.049156397581100464,-0.28000012040138245,1.862645149230957e-08,0.038835640996694565,-0.2799999713897705,1.4901161193847656e-08,0.12682759761810303,-0.27999991178512573,-1.4901161193847656e-08,,120.0,332.36666666669305,,
1776999747.1176083,332400017336,-0.02662201419016683,0.1797971313058362,-0.030387181822476426,0.003765167632309597,-0.02662201419016683,0.1797971313058362,-0.09388718008995056,2.5285778045654297,0.06726516589978374,0.02805333210598305,-0.2341453552321382,0.03295661674891802,-0.00490328464293497,0.02805333210598305,-0.2341453552321382,0.1184040904045105,-1.2912232875823975,-0.09035075829852746,-0.011965801025644785,0.0964854511512461,-0.013986322126426453,0.0020205211007816685,-0.011965801025644785,0.0964854511512461,-0.047759316861629486,0.37564617395401,0.0357935158359847,1.5533850453812448,0.13710740784929876,1.550513851773012,0.002871193608232847,1.5533850453812448,0.13710740784929876,1.5001839399337769,0.479341059923172,0.05320110544746792,-1.500796012122952,-0.14819427800380153,-1.4976926461527544,-0.003103365970197558,-1.500796012122952,-0.14819427800380153,-1.4379026889801025,-0.4777967035770416,-0.06289332314284946,0.24282049634659722,0.02628075694966234,0.06171947459815852,-0.049156397581100464,-0.28000012040138245,1.862645149230957e-08,0.038835640996694565,-0.2799999713897705,1.4901161193847656e-08,0.12682759761810303,-0.27999991178512573,-1.4901161193847656e-08,,120.0,332.3833333333597,,
1776999747.1841068,332416684003,-0.014705352472803144,0.1184302055192851,-0.017226871437910886,0.0025215189651077424,-0.014705352472803144,0.1184302055192851,-0.06842460483312607,3.010082244873047,0.053719252360322926,0.01253455841516622,-0.15422872623234296,0.01581827017142028,-0.0032837117562540593,0.01253455841516622,-0.15422872623234296,0.08522732555866241,-1.4036338329315186,-0.07269276714349619,-0.005570902098915887,0.0635538049271,-0.006924037675484179,0.0013531355765682923,-0.005570902098915887,0.0635538049271,-0.03387647122144699,0.3768611550331116,0.028305569122531106,1.5624723015928328,0.09031099868986418,1.560549473755493,0.001922827837339769,1.5624723015928328,0.09031099868986418,1.5201131105422974,0.5139902234077454,0.04235919105053543,-1.510618088073744,-0.09761378656773508,-1.5085397752564416,-0.00207831281730253,-1.510618088073744,-0.09761378656773508,-1.4590529203414917,-0.47976842522621155,-0.05156516773225239,0.2399321947932959,0.020824347795133584,0.06567383606192259,-0.049156397581100464,-0.28000012040138245,1.862645149230957e-08,0.038835640996694565,-0.2799999713897705,1.4901161193847656e-08,0.12682759761810303,-0.27999991178512573,-1.4901161193847656e-08,,120.0,332.40000000002635,,
1776999747.2489297,332433350671,-0.0076880655451902705,0.056997801255818326,-0.008981670131722835,0.0012936045865325641,-0.008981670131722835,0.07235629317601139,-0.049257792532444,2.0875768661499023,0.04156972698725373,0.003396119283804963,-0.07422682623224494,0.005080748528130168,-0.0016846292443252046,0.005080748528130168,-0.09422781023218699,0.0607202984392643,-0.8105068206787109,-0.057324179155459336,-0.0018051796418830871,0.030587020654084057,-0.0024993732657546813,0.0006941936238715942,-0.0024993732657546813,0.03882892646848736,-0.024350633844733238,0.2838192880153656,0.022545454202850153,1.5678234549387857,0.043464657787058374,1.5668369944187908,0.0009864605199949583,1.5668369944187908,0.055176541065465406,1.5342355966567993,0.35567572712898254,0.033587858281986405,-1.5164019499308836,-0.04697932577434476,-1.515335721586019,-0.0010662283448645837,-1.515335721586019,-0.05963826312673707,-1.4740853309631348,-0.3912562131881714,-0.042316618967748854,0.23789613653647093,0.016920270405224345,0.06848393000948283,-0.049156397581100464,-0.28000012040138245,1.862645149230957e-08,0.038835640996694565,-0.2799999713897705,1.4901161193847656e-08,0.12682759761810303,-0.27999991178512573,-1.4901161193847656e-08,,120.0,332.416666666693,,
1776999747.31548,332450017338,-0.005650378104478124,0.010923493403426006,-0.006023133606315157,0.00037275550183703265,-0.006023133606315157,0.026301915963612064,-0.035415906459093094,1.396380066871643,0.02976552835461497,0.0007424893499322426,-0.014225395170351672,0.001227919616580404,-0.00048543026664816136,0.001227919616580404,-0.03425233434959647,0.04247080534696579,-0.7135820388793945,-0.04172831599703355,-0.0007116850427511943,0.005861929951398567,-0.0009117187279532004,0.0002000336852020061,-0.0009117187279532004,0.014114531246744638,-0.01648937538266182,0.2668852210044861,0.015777690339910624,1.5693773286906856,0.008329898560246607,1.5690930775447007,0.00028425114598484846,1.5690930775447007,0.020056980292459267,1.5455116033554077,0.2562893331050873,0.023865725335277865,-1.5180814740527682,-0.009003476342740192,-1.517774237602078,-0.0003072364506901959,-1.517774237602078,-0.021678841136316237,-1.4859753847122192,-0.27811217308044434,-0.03210608934054893,0.2360132831144673,0.01440899164690349,0.07046392411180441,-0.049156397581100464,-0.28000012040138245,1.862645149230957e-08,0.038835640996694565,-0.2799999713897705,1.4901161193847656e-08,0.12682759761810303,-0.27999991178512573,-1.4901161193847656e-08,,120.0,332.43333333335966,,
1776999747.3862512,332466684006,-0.005572682600468397,-8.230387967085631e-17,-0.005572682600468397,0.0,-0.005572682600468397,-8.230387967085631e-17,-0.021128183230757713,1.8332120180130005,0.015555500630289317,0.0006413084175437688,1.0718230598315602e-16,0.0006413084175437688,0.0,0.0006413084175437688,1.0718230598315602e-16,0.024381017312407494,-0.7214528322219849,-0.023739708894863723,-0.0006699909083545206,-4.416715052050822e-17,-0.0006699909083545206,0.0,-0.0006699909083545206,-4.416715052050822e-17,-0.00892280600965023,0.22649718821048737,0.00825281510129571,1.5694365767391885,-6.27622449571607e-17,1.5694365767391885,0.0,1.5694365767391885,-6.27622449571607e-17,1.5564091205596924,0.2562252879142761,0.013027456179496077,-1.5181455130562673,6.783736723800817e-17,-1.5181455130562673,0.0,-1.5181455130562673,6.783736723800817e-17,-1.4975786209106445,-0.2763558626174927,-0.020566892145622795,0.23420373109363643,0.011353849651248561,0.07247155201600046,-0.049156397581100464,-0.28000012040138245,1.862645149230957e-08,0.038835640996694565,-0.2799999713897705,1.4901161193847656e-08,0.12682759761810303,-0.27999991178512573,-1.4901161193847656e-08,,120.0,332.4500000000263,,
1776999747.451201,332483350673,-0.005572682600468397,-8.230387967085631e-17,-0.005572682600468397,0.0,-0.005572682600468397,-8.230387967085631e-17,-0.012281179428100586,0.7831328511238098,0.006708496827632189,0.0006413084175437688,1.0718230598315602e-16,0.0006413084175437688,0.0,0.0006413084175437688,1.0718230598315602e-16,0.012944246642291546,-0.31102681159973145,-0.012302938224747777,-0.0006699909083545206,-4.416715052050822e-17,-0.0006699909083545206,0.0,-0.0006699909083545206,-4.416715052050822e-17,-0.004471934400498867,0.11794422566890717,0.0038019434921443464,1.5694365767391885,-6.27622449571607e-17,1.5694365767391885,0.0,1.5694365767391885,-6.27622449571607e-17,1.5630425214767456,0.14235664904117584,0.006394055262442855,-1.5181455130562673,6.783736723800817e-17,-1.5181455130562673,0.0,-1.5181455130562673,6.783736723800817e-17,-1.5045822858810425,-0.1599288135766983,-0.013563227175224846,0.23311273909749344,0.009866266448758381,0.07368844201543326,-0.049156397581100464,-0.28000012040138245,1.862645149230957e-08,0.038835640996694565,-0.2799999713897705,1.4901161193847656e-08,0.12682759761810303,-0.27999991178512573,-1.4901161193847656e-08,,120.0,332.46666666669296,,
1776999747.5170848,332500017341,-0.005572682600468397,-8.230387967085631e-17,-0.005572682600468397,0.0,-0.005572682600468397,-8.230387967085631e-17,-0.007364796474575996,0.6445332765579224,0.0017921138741075994,0.0006413084175437688,1.0718230598315602e-16,0.0006413084175437688,0.0,0.0006413084175437688,1.0718230598315602e-16,0.006474737543612719,-0.20850640535354614,-0.00583342912606895,-0.0006699909083545206,-4.416715052050822e-17,-0.0006699909083545206,0.0,-0.0006699909083545206,-4.416715052050822e-17,-0.0016361088491976261,0.131769061088562,0.0009661179408431055,1.5694365767391885,-6.27622449571607e-17,1.5694365767391885,0.0,1.5694365767391885,-6.27622449571607e-17,1.5671306848526,0.05758945271372795,0.0023058918865883626,-1.5181455130562673,6.783736723800817e-17,-1.5181455130562673,0.0,-1.5181455130562673,6.783736723800817e-17,-1.5089300870895386,-0.10983248800039291,-0.009215425966728752,0.23238567722468587,0.008987945296343726,0.07432837866952485,-0.049156397581100464,-0.28000012040138245,1.862645149230957e-08,0.038835640996694565,-0.2799999713897705,1.4901161193847656e-08,0.12682759761810303,-0.27999991178512573,-1.4901161193847656e-08,,120.0,332.4833333333596,,
1776999747.5796857,332516684008,-0.005572682600468397,-8.230387967085631e-17,-0.005572682600468397,0.0,-0.005572682600468397,-8.230387967085631e-17,-0.004789949394762516,0.1573483794927597,-0.000782733205705881,0.0006413084175437688,1.0718230598315602e-16,0.0006413084175437688,0.0,0.0006413084175437688,1.0718230598315602e-16,0.0034703039564192295,-0.016707241535186768,-0.0028289955388754607,-0.0006699909083545206,-4.416715052050822e-17,-0.0006699909083545206,0.0,-0.0006699909083545206,-4.416715052050822e-17,-0.00036510202335193753,0.03459663689136505,-0.00030488888500258306,1.5694365767391885,-6.27622449571607e-17,1.5694365767391885,0.0,1.5694365767391885,-6.27622449571607e-17,1.5690099000930786,0.004901356995105743,0.000426676646109847,-1.5181455130562673,6.783736723800817e-17,-1.5181455130562673,0.0,-1.5181455130562673,6.783736723800817e-17,-1.510882019996643,-0.025314508005976677,-0.00726349305962426,0.23206024992606095,0.008498363885426123,0.07462324978725363,-0.049156397581100464,-0.28000012040138245,1.862645149230957e-08,0.038835640996694565,-0.2799999713897705,1.4901161193847656e-08,0.12682759761810303,-0.27999991178512573,-1.4901161193847656e-08,,120.0,332.50000000002626,,
1776999747.6446164,332533350676,-0.005572682600468397,-8.230387967085631e-17,-0.005572682600468397,0.0,-0.005572682600468397,-8.230387967085631e-17,-0.0044829510152339935,-0.24434421956539154,-0.0010897315852344035,0.0006413084175437688,1.0718230598315602e-16,0.0006413084175437688,0.0,0.0006413084175437688,1.0718230598315602e-16,0.002993064234033227,0.06467346847057343,-0.002351755816489458,-0.0006699909083545206,-4.416715052050822e-17,-0.0006699909083545206,0.0,-0.0006699909083545206,-4.416715052050822e-17,-0.00014400301733985543,0.06492656469345093,-0.0005259878910146652,1.5694365767391885,-6.27622449571607e-17,1.5694365767391885,0.0,1.5694365767391885,-6.27622449571607e-17,1.5693683624267578,-0.04726637154817581,6.82143124306478e-05,-1.5181455130562673,6.783736723800817e-17,-1.5181455130562673,0.0,-1.5181455130562673,6.783736723800817e-17,-1.511286735534668,-0.026909206062555313,-0.006858777521599357,0.23199814868187146,0.00853767775320267,0.07464455139312028,-0.049156397581100464,-0.28000012040138245,1.862645149230957e-08,0.038835640996694565,-0.2799999713897705,1.4901161193847656e-08,0.12682759761810303,-0.27999991178512573,-1.4901161193847656e-08,,120.0,332.5166666666929,,
1776999747.7125607,332550017343,-0.005572682600468397,-8.230387967085631e-17,-0.005572682600468397,0.0,-0.005572682600468397,-8.230387967085631e-17,-0.004436429124325514,0.1944088339805603,-0.0011362534761428832,0.0006413084175437688,1.0718230598315602e-16,0.0006413084175437688,0.0,0.0006413084175437688,1.0718230598315602e-16,0.0030074999667704105,0.06044364720582962,-0.0023661915492266417,-0.0006699909083545206,-4.416715052050822e-17,-0.0006699909083545206,0.0,-0.0006699909083545206,-4.416715052050822e-17,-8.314413571497425e-05,0.023680277168750763,-0.0005868467726395463,1.5694365767391885,-6.27622449571607e-17,1.5694365767391885,0.0,1.5694365767391885,-6.27622449571607e-17,1.569439172744751,-0.04786989092826843,-2.596005562516268e-06,-1.5181455130562673,6.783736723800817e-17,-1.5181455130562673,0.0,-1.5181455130562673,6.783736723800817e-17,-1.5112979412078857,0.0223534032702446,-0.006847571848381584,0.23197235156476628,0.008504530036451102,0.07463767593624383,-0.049156397581100464,-0.28000012040138245,1.862645149230957e-08,0.038835640996694565,-0.2799999713897705,1.4901161193847656e-08,0.12682759761810303,-0.27999991178512573,-1.4901161193847656e-08,,120.0,332.53333333335956,,
1776999747.781369,332566684011,-0.005572682600468397,-8.230387967085631e-17,-0.005572682600468397,0.0,-0.005572682600468397,-8.230387967085631e-17,-0.004409036599099636,0.012695553712546825,-0.001163646001368761,0.0006413084175437688,1.0718230598315602e-16,0.0006413084175437688,0.0,0.0006413084175437688,1.0718230598315602e-16,0.002994137816131115,0.06719343364238739,-0.002352829398587346,-0.0006699909083545206,-4.416715052050822e-17,-0.0006699909083545206,0.0,-0.0006699909083545206,-4.416715052050822e-17,-7.937581540318206e-05,0.004477163776755333,-0.0005906150929513385,1.5694365767391885,-6.27622449571607e-17,1.5694365767391885,0.0,1.5694365767391885,-6.27622449571607e-17,1.5694522857666016,-0.029906298965215683,-1.5709027413102206e-05,-1.5181455130562673,6.783736723800817e-17,-1.5181455130562673,0.0,-1.5181455130562673,6.783736723800817e-17,-1.5113937854766846,-0.011914770118892193,-0.006751727579582756,0.2319754391426385,0.008497709013523785,0.07463855373840751,-0.049156397581100464,-0.28000012040138245,1.862645149230957e-08,0.038835640996694565,-0.2799999713897705,1.4901161193847656e-08,0.12682759761810303,-0.27999991178512573,-1.4901161193847656e-08,,120.0,332.5500000000262,,
1776999747.846731,332583350678,-0.005572682600468397,-8.230387967085631e-17,-0.005572682600468397,0.0,-0.005572682600468397,-8.230387967085631e-17,-0.004418940283358097,0.055756114423274994,-0.0011537423171103,0.0006413084175437688,1.0718230598315602e-16,0.0006413084175437688,0.0,0.0006413084175437688,1.0718230598315602e-16,0.0029874437022954226,0.06742657721042633,-0.0023461352847516537,-0.0006699909083545206,-4.416715052050822e-17,-0.0006699909083545206,0.0,-0.0006699909083545206,-4.416715052050822e-17,-7.81018752604723e-05,0.008730471134185791,-0.0005918890330940483,1.5694365767391885,-6.27622449571607e-17,1.5694365767391885,0.0,1.5694365767391885,-6.27622449571607e-17,1.5694549083709717,-0.042428672313690186,-1.8331631783219393e-05,-1.5181455130562673,6.783736723800817e-17,-1.5181455130562673,0.0,-1.5181455130562673,6.783736723800817e-17,-1.5113177299499512,0.018649417906999588,-0.006827783106316154,0.23197258517099614,0.008506299480992218,0.07464015350710718,-0.049156397581100464,-0.28000012040138245,1.862645149230957e-08,0.038835640996694565,-0.2799999713897705,1.4901161193847656e-08,0.12682759761810303,-0.27999991178512573,-1.4901161193847656e-08,,120.0,332.56666666669287,,
