inbarajaldrin/isaac-sim-mcp/.planning/saved_runs/2026-04-23-green2x2-postfix/20260423T200307_drop_sweep.csv
t_wall,t_sim_ns,ref_pos_shoulder_pan,ref_vel_shoulder_pan,fb_pos_shoulder_pan,err_pos_shoulder_pan,js_pos_shoulder_pan,js_vel_shoulder_pan,isaac_pos_shoulder_pan,isaac_vel_shoulder_pan,isaac_lag_shoulder_pan,ref_pos_shoulder_lift,ref_vel_shoulder_lift,fb_pos_shoulder_lift,err_pos_shoulder_lift,js_pos_shoulder_lift,js_vel_shoulder_lift,isaac_pos_shoulder_lift,isaac_vel_shoulder_lift,isaac_lag_shoulder_lift,ref_pos_elbow_flex,ref_vel_elbow_flex,fb_pos_elbow_flex,err_pos_elbow_flex,js_pos_elbow_flex,js_vel_elbow_flex,isaac_pos_elbow_flex,isaac_vel_elbow_flex,isaac_lag_elbow_flex,ref_pos_wrist_flex,ref_vel_wrist_flex,fb_pos_wrist_flex,err_pos_wrist_flex,js_pos_wrist_flex,js_vel_wrist_flex,isaac_pos_wrist_flex,isaac_vel_wrist_flex,isaac_lag_wrist_flex,ref_pos_wrist_roll,ref_vel_wrist_roll,fb_pos_wrist_roll,err_pos_wrist_roll,js_pos_wrist_roll,js_vel_wrist_roll,isaac_pos_wrist_roll,isaac_vel_wrist_roll,isaac_lag_wrist_roll,tcp_x,tcp_y,tcp_z,cup_red_x,cup_red_y,cup_red_z,cup_green_x,cup_green_y,cup_green_z,cup_blue_x,cup_blue_y,cup_blue_z,attached_lego_xyz,physics_rate_hz,sim_time_s,render_fps,app_dt_ms
1776999787.6935718,346033351380,1.5632490576711555,0.000553768898898001,1.5632450813132954,3.9763578600915395e-06,1.5632450813132954,0.0,1.5694159269332886,-0.002833552658557892,-0.006166869262133057,-0.0028670633099360876,-0.013612160767622521,-0.0027693206910043957,-9.774261893169198e-05,-0.0027693206910043957,0.0,0.0013073894660919905,0.07099585235118866,-0.004174452776028078,-0.005926995263804066,-6.70476715059658e-05,-0.0059265138255432245,-4.814382608417725e-07,-0.0059265138255432245,0.0,-0.00592805165797472,-0.1135452389717102,1.0563941706537294e-06,1.5739053954305255,-0.008704017170204038,1.5739678949445972,-6.249951407166776e-05,1.5739678949445972,0.0,1.5748096704483032,0.0705716460943222,-0.0009042750177776782,-1.5684290762408295,-0.0038696819426833192,-1.5684012898479145,-2.778639291500795e-05,-1.5684012898479145,0.0,-1.561465859413147,-0.05195767804980278,-0.006963216827682528,0.0467352747665616,-0.19355662703958942,0.07629238442622917,-0.049156397581100464,-0.28000012040138245,1.862645149230957e-08,0.038835640996694565,-0.2799999713897705,1.4901161193847656e-08,0.12682759761810303,-0.27999991178512573,-1.4901161193847656e-08,,120.0,346.000000000014,,
1776999787.7719133,346033351380,1.5634488224502778,0.004071506253514258,1.5633742389593546,7.458349092326344e-05,1.5633742389593546,0.003384899052221596,1.5694159269332886,-0.00361064076423645,-0.005967104483010743,-0.00777746960854435,-0.1000814559999992,-0.005944137200228237,-0.0018333324083161127,-0.005944137200228237,-0.0832040047248486,0.0013074009912088513,0.07122062891721725,-0.0090848705997532,-0.005951181821257386,-0.0004929583701132812,-0.005942151611346378,-9.030209911007996e-06,-0.005942151611346378,-0.0004098272766541169,-0.0059280493296682835,-0.1135968491435051,-2.313249158910225e-05,1.5707655367802058,-0.06399503549171849,1.5719378236076305,-0.0011722868274246512,1.5719378236076305,-0.05320309524095361,1.5748096704483032,0.0706109032034874,-0.004044133668097416,-1.569825012632513,-0.028451280416995104,-1.5693038306220644,-0.0005211820104487064,-1.5693038306220644,-0.023653337639658628,-1.5614657402038574,-0.05197007209062576,-0.00835927242865564,0.04673530118875088,-0.19355663698399664,0.07629238537223088,-0.049156397581100464,-0.28000012040138245,1.862645149230957e-08,0.038835640996694565,-0.2799999713897705,1.4901161193847656e-08,0.12682759761810303,-0.27999991178512573,-1.4901161193847656e-08,,120.0,346.01666666668063,,
1776999787.8485773,346050018047,1.5639041729353915,0.0073229933385823365,1.5637658451053131,0.00013832783007838856,1.5637658451053131,0.006509327669724097,1.5694159269332886,-0.0033740922808647156,-0.005511753997897051,-0.018970413129420608,-0.1800060690000111,-0.015570184865589467,-0.003400228263831141,-0.015570184865589467,-0.16000540100000343,0.001307463156990707,0.07097236067056656,-0.020277876286411315,-0.006006313465173729,-0.0008866327682596929,-0.005989565397650098,-1.6748067523630374e-05,-0.005989565397650098,-0.0007881180474260969,-0.00592803442850709,-0.11355481296777725,-7.827903666663902e-05,1.5636084384874387,-0.11510119091770495,1.5657826447502232,-0.0021742062627845282,1.5657826447502232,-0.10231217375435804,1.5748096704483032,0.070679672062397,-0.011201231960864533,-1.5730069564963598,-0.0511723485106017,-1.5720403353890884,-0.0009666211072714148,-1.5720403353890884,-0.04548653380987075,-1.561465859413147,-0.05194488912820816,-0.011541097083212826,0.04673530247514949,-0.1935566377110639,0.07629236889005227,-0.049156397581100464,-0.28000012040138245,1.862645149230957e-08,0.038835640996694565,-0.2799999713897705,1.4901161193847656e-08,0.12682759761810303,-0.27999991178512573,-1.4901161193847656e-08,,120.0,346.0333333333473,,
1776999787.9206831,346066684715,1.5642296323372997,0.008950243637907007,1.5640584344316801,0.00017119790561959114,1.5644167329092473,0.009763712609659922,1.5694159269332886,-0.0036542192101478577,-0.0051862945959888496,-0.026970511565654554,-0.22000541299999504,-0.022762305906202335,-0.004208205659452218,-0.03156961973178056,-0.2400012460000082,0.001307355472818017,0.07159019261598587,-0.02827786703847257,-0.006045718522249156,-0.0010836523981883148,-0.0060249907042707156,-2.072781797844009e-05,-0.006068371758484531,-0.0011821433038836174,-0.005928065627813339,-0.11364160478115082,-0.00011765289443581642,1.558492939534625,-0.14067795150087575,1.5611837903804922,-0.0026908508458671765,1.5555521340938903,-0.15346387702260678,1.5748096704483032,0.0706152617931366,-0.016316730913678246,-1.5752812344002787,-0.06254341162382626,-1.5740849204770535,-0.0011963139232251674,-1.576588674572837,-0.06822785182476573,-1.5614657402038574,-0.051981158554553986,-0.013815494196421252,0.04673533052594539,-0.19355663403399637,0.07629236953687996,-0.049156397581100464,-0.28000012040138245,1.862645149230957e-08,0.038835640996694565,-0.2799999713897705,1.4901161193847656e-08,0.12682759761810303,-0.27999991178512573,-1.4901161193847656e-08,,120.0,346.05000000001394,,
1776999787.9895918,346083351382,1.565329105715807,0.01302168374261435,1.5650767906388094,0.0002523150769975224,1.5650767906388094,0.012207985975716203,1.5696513652801514,0.5287357568740845,-0.0043222595643443995,-0.053996602084189244,-0.3200852430000104,-0.047794460001051406,-0.006202142083137838,-0.047794460001051406,-0.30008378600000346,-0.00016315016546286643,-0.29000523686408997,-0.05383345191872638,-0.0061788374642093025,-0.0015766027593223752,-0.006148288369754535,-3.05490944547673e-05,-0.006148288369754535,-0.0014780841522128289,-0.005909417290240526,-0.10622293502092361,-0.00026942017396877627,1.5412116599543597,-0.20467194728023602,1.5451774925730926,-0.003965832618732845,1.5451774925730926,-0.1918824256069939,1.5737229585647583,0.04246580973267555,-0.03251129861039859,-1.5829642449264043,-0.09099422979952912,-1.5812010922840865,-0.0017631526423178556,-1.5812010922840865,-0.08530819080089838,-1.5619479417800903,-0.07015648484230042,-0.021016303146313975,0.04666582657339222,-0.1937956622940679,0.07653711795305838,-0.049156397581100464,-0.28000012040138245,1.862645149230957e-08,0.038835640996694565,-0.2799999713897705,1.4901161193847656e-08,0.12682759761810303,-0.27999991178512573,-1.4901161193847656e-08,,120.0,346.0666666666806,,
1776999788.055798,346100018050,1.5658824814849088,0.014648857641268795,1.5655965944619086,0.00028588702300025304,1.5658824814849088,0.014648857641268795,1.5699621438980103,0.6376065611839294,-0.004079662413101426,-0.067599099351394,-0.3600827089999929,-0.060571727236053835,-0.007027372115340158,-0.067599099351394,-0.3600827089999929,-0.005197491962462664,-0.5544039607048035,-0.06240160738893133,-0.006245837537452761,-0.0017736131390277364,-0.006211223713447664,-3.461382400509697e-05,-0.006245837537452761,-0.0017736131390277364,-0.005957579705864191,-0.11379870772361755,-0.0002882578315885698,1.5325138219114078,-0.2302475070147852,1.5370073309580259,-0.004493509046618049,1.5325138219114078,-0.2302475070147852,1.570480227470398,-0.00874309241771698,-0.03796640555899011,-1.5868311797172077,-0.10236475903258753,-1.5848334296580147,-0.001997750059193004,-1.5868311797172077,-0.10236475903258753,-1.5634056329727173,-0.0981866717338562,-0.023425546744490378,0.04660343541375505,-0.1945212934780146,0.0773987026312052,-0.049156397581100464,-0.28000012040138245,1.862645149230957e-08,0.038835640996694565,-0.2799999713897705,1.4901161193847656e-08,0.12682759761810303,-0.27999991178512573,-1.4901161193847656e-08,,120.0,346.08333333334724,,
1776999788.1248753,346116684718,1.567183224489972,0.017900341236810023,1.5668333216386687,0.00034990285130320764,1.567183224489972,0.017900341236810023,1.5705535411834717,0.7122120261192322,-0.003370316693499742,-0.09957258673488577,-0.44000723622403354,-0.09097164530522178,-0.008600941429663986,-0.09957258673488577,-0.44000723622403354,-0.0168432779610157,-0.9421988725662231,-0.08272930877387007,-0.006403325236546621,-0.0021672871146783297,-0.006360960684330206,-4.236455221641542e-05,-0.006403325236546621,-0.0021672871146783297,-0.006047974806278944,-0.08700631558895111,-0.0003553504302676773,1.5120690308214322,-0.2813536075931065,1.5175687265098476,-0.005499695688415462,1.5120690308214322,-0.2813536075931065,1.5629950761795044,-0.14967459440231323,-0.050926045358072214,-1.5959206423590877,-0.12508580274169026,-1.593475556063925,-0.002445086295162602,-1.5959206423590877,-0.12508580274169026,-1.5667341947555542,-0.13052111864089966,-0.029186447603533505,0.046338131970239206,-0.19623262768429983,0.0794242397030708,-0.049156397581100464,-0.28000012040138245,1.862645149230957e-08,0.038835640996694565,-0.2799999713897705,1.4901161193847656e-08,0.12682759761810303,-0.27999991178512573,-1.4901161193847656e-08,,120.0,346.1000000000139,,
1776999788.193394,346133351385,1.5687452328442413,0.021154505477074797,1.5683293905269984,0.0004158423172428982,1.5683293905269984,0.02033908971250537,1.5704505443572998,0.3471062183380127,-0.0017053115130585272,-0.13796822231680086,-0.5199976562182588,-0.12774642674910353,-0.01022179556769734,-0.12774642674910353,-0.49995396921843177,-0.03165525943040848,-0.9011002779006958,-0.10631296288639239,-0.006592445685952598,-0.002561285649881839,-0.006542097500743496,-5.0348185209101934e-05,-0.006542097500743496,-0.0024625590358871184,-0.0062925806269049644,-0.14052018523216248,-0.0002998650590476338,1.4875177287121604,-0.3325018419526003,1.4940538463536126,-0.006536117641452233,1.4940538463536126,-0.3196853171716792,1.5542380809783936,-0.16384224593639374,-0.06672035226623318,-1.6068358012545558,-0.14782557852921266,-1.603929936535106,-0.0029058647194497578,-1.603929936535106,-0.142127534333941,-1.5707372426986694,-0.18145939707756042,-0.036098558555886395,0.04643748767690274,-0.19818627969359057,0.08204314768496158,-0.049156397581100464,-0.28000012040138245,1.862645149230957e-08,0.038835640996694565,-0.2799999713897705,1.4901161193847656e-08,0.12682759761810303,-0.27999991178512573,-1.4901161193847656e-08,,120.0,346.11666666668054,,
1776999788.261489,346150018053,1.5705679784773057,0.024409397842663046,1.5700878591149372,0.00048011936236846964,1.5700878591149372,0.02359564247017903,1.5718307495117188,0.7697392106056213,-0.0012627710344130794,-0.18277302562939526,-0.6000059742186029,-0.17097123979198312,-0.011801785837412149,-0.17097123979198312,-0.5800031012189008,-0.05353861302137375,0.023963570594787598,-0.12923441260802151,-0.006813134949448354,-0.0029553723429946474,-0.006755004409152891,-5.813054029546374e-05,-0.006755004409152891,-0.0028568467612773984,-0.0063382540829479694,-0.5987419486045837,-0.0004748808665003849,1.4588682156776083,-0.3836615208252274,1.4664146257091621,-0.007546410031553874,1.4664146257091621,-0.37087109371998234,1.539947271347046,-0.3411104679107666,-0.08107905566943763,-1.619572966300146,-0.17057044238411107,-1.6162179399875638,-0.00335502631258211,-1.6162179399875638,-0.16488400084335114,-1.5771280527114868,-0.1208692193031311,-0.042444913588659094,0.04596289567295048,-0.20127040085907463,0.08593792515398173,-0.049156397581100464,-0.28000012040138245,1.862645149230957e-08,0.038835640996694565,-0.2799999713897705,1.4901161193847656e-08,0.12682759761810303,-0.27999991178512573,-1.4901161193847656e-08,,120.0,346.1333333333472,,
1776999788.3283784,346166684720,1.571576934810108,0.026036721363980952,1.5710643329115155,0.0005126018985925906,1.571576934810108,0.026036721363980952,1.5719276666641235,0.7476427555084229,-0.0003507318540154625,-0.20757412196570804,-0.6400071180843051,-0.19497388481385655,-0.01260023715185149,-0.20757412196570804,-0.6400071180843051,-0.07769463211297989,-0.3818458318710327,-0.12987948985272815,-0.006935294523415496,-0.0031524008382905174,-0.006873231154059462,-6.206336935603383e-05,-0.006935294523415496,-0.0031524008382905174,-0.006720790173858404,-0.4898667335510254,-0.00021450434955709152,1.4430096630175044,-0.4092394322955965,1.4510666263748,-0.008056963357295555,1.4430096630175044,-0.4092394322955965,1.5255786180496216,-0.3606833815574646,-0.08256895503211714,-1.6266234527210601,-0.18194201716537955,-1.6230414416786954,-0.0035820110423647744,-1.6266234527210601,-0.18194201716537955,-1.5835716724395752,-0.12158964574337006,-0.04305178028148493,0.04605223163283909,-0.2042909234960169,0.09047999649364821,-0.049156397581100464,-0.28000012040138245,1.862645149230957e-08,0.038835640996694565,-0.2799999713897705,1.4901161193847656e-08,0.12682759761810303,-0.27999991178512573,-1.4901161193847656e-08,,120.0,346.15000000001385,,
1776999788.3983014,346183351388,1.573789707252168,0.029290792927290147,1.5732122217314668,0.0005774855207012486,1.5732122217314668,0.028477431977817907,1.5732251405715942,1.0199490785598755,0.0005645666805738081,-0.26196615135455914,-0.7199952599918905,-0.24777101369983826,-0.014195137654720885,-0.24777101369983826,-0.7000020822812112,-0.10284785181283951,-0.37387531995773315,-0.15911829954171963,-0.007203206354701022,-0.0035463881526152674,-0.007133287188838719,-6.991916586230294e-05,-0.007133287188838719,-0.003447910325737581,-0.006799133960157633,-0.5073674917221069,-0.0004040723945433894,1.4082297947949023,-0.46038620997929663,1.4173065845852477,-0.00907678979034543,1.4173065845852477,-0.4476019823279081,1.5093594789505005,-0.42781752347946167,-0.1011296841555982,-1.6420860862841817,-0.20468114533562237,-1.6380506749491157,-0.004035411335066019,-1.6380506749491157,-0.19899745998362947,-1.590851902961731,-0.13158616423606873,-0.05123418332245078,0.045660462126559685,-0.2075586006619075,0.09530225251156033,-0.049156397581100464,-0.28000012040138245,1.862645149230957e-08,0.038835640996694565,-0.2799999713897705,1.4901161193847656e-08,0.12682759761810303,-0.27999991178512573,-1.4901161193847656e-08,,120.0,346.1666666666805,,
1776999788.4683,346200018055,1.5756207027315225,0.03173211672569827,1.5749942079684018,0.0006264947631207107,1.5756207027315225,0.03173211672569827,1.5756093263626099,3.162872314453125,1.1376368912685564e-05,-0.30697374365407304,-0.7800052968418265,-0.29157391269095095,-0.015399830963122085,-0.30697374365407304,-0.7800052968418265,-0.13990306854248047,-2.5991156101226807,-0.16707067511159257,-0.00742489446985686,-0.0038419718814931485,-0.007349041500935214,-7.585296892164556e-05,-0.00742489446985686,-0.0038419718814931485,-0.006906894501298666,-0.32804200053215027,-0.0005179999685581936,1.3794506124995898,-0.49875839791064647,1.389297718731253,-0.009847106231663183,1.3794506124995898,-0.49875839791064647,1.4854086637496948,-0.545693039894104,-0.10595805125010505,-1.6548809004344422,-0.22174087302645434,-1.6505030173917912,-0.004377883042651076,-1.6548809004344422,-0.22174087302645434,-1.601633071899414,-0.22409170866012573,-0.053247828535028185,0.045007861427561725,-0.21206235164229537,0.10276685477985827,-0.049156397581100464,-0.28000012040138245,1.862645149230957e-08,0.038835640996694565,-0.2799999713897705,1.4901161193847656e-08,0.12682759761810303,-0.27999991178512573,-1.4901161193847656e-08,,120.0,346.18333333334715,,
1776999788.535908,346216684723,1.578279828925313,0.03503383575105833,1.5775910935334458,0.0006887353918672012,1.5775910935334458,0.03390319146011842,1.5752674341201782,1.4918138980865479,0.0030123948051348215,-0.3723375683891357,-0.8611646582159246,-0.35540780418766815,-0.016929764201467523,-0.35540780418766815,-0.8333723573301088,-0.17773976922035217,-1.9712231159210205,-0.1945977991687835,-0.007746848663906224,-0.004241728121074617,-0.007663459899386674,-8.338876451955031e-05,-0.007663459899386674,-0.0041048351551452155,-0.007527922745794058,-0.3011280596256256,-0.00021892591811216618,1.3376550546512433,-0.5506540878735919,1.3484804453304053,-0.010825390679161995,1.3484804453304053,-0.5328828707803519,1.4630141258239746,-0.5740752220153809,-0.12535907117273126,-1.6734626095840814,-0.24481295691886903,-1.6686497952232517,-0.004812814360829698,-1.6686497952232517,-0.2369121271594139,-1.6117050647735596,-0.22093215584754944,-0.06175754481052187,0.04526239352318083,-0.2159438690413343,0.11089406273462352,-0.049156397581100464,-0.28000012040138245,1.862645149230957e-08,0.038835640996694565,-0.2799999713897705,1.4901161193847656e-08,0.12682759761810303,-0.27999991178512573,-1.4901161193847656e-08,,120.0,346.2000000000138,,
1776999788.6049497,346233351390,1.580443672674912,0.035547611912125805,1.5797242034199381,0.0007194692549739035,1.580443672674912,0.035547611912125805,1.5789623260498047,4.2430853843688965,0.0014813466251073493,-0.4255268844633651,-0.8737937598445047,-0.40784165297860775,-0.01768523148475737,-0.4255268844633651,-0.8737937598445047,-0.2244754135608673,-3.0997512340545654,-0.2010514709024978,-0.008008836444733396,-0.004303933664475321,-0.007921726572073249,-8.710987266014741e-05,-0.008008836444733396,-0.004303933664475321,-0.007492024451494217,-0.4034632444381714,-0.0005168119932391791,1.3036442368035233,-0.5587295080288557,1.314952695550829,-0.011308458747305794,1.3036442368035233,-0.5587295080288557,1.4321231842041016,-0.7536516189575195,-0.1284789474005783,-1.688583334314706,-0.24840317359049133,-1.6835557547777704,-0.005027579536935667,-1.688583334314706,-0.24840317359049133,-1.6256264448165894,-0.3018098473548889,-0.06295688949811673,0.044048593241031705,-0.22084513833746788,0.12126119399371071,-0.049156397581100464,-0.28000012040138245,1.862645149230957e-08,0.038835640996694565,-0.2799999713897705,1.4901161193847656e-08,0.12682759761810303,-0.27999991178512573,-1.4901161193847656e-08,,120.0,346.21666666668045,,
1776999788.671505,346250018058,1.5831542627082695,0.0322968833415366,1.5825000749878433,0.000654187720426247,1.5825000749878433,0.03311066149587471,1.5787372589111328,2.3040075302124023,0.00441700379713672,-0.4921557388150812,-0.7938877918444007,-0.4760751888955115,-0.016080549919569698,-0.4760751888955115,-0.8138912248443682,-0.2715534567832947,-3.217151641845703,-0.2206022820317865,-0.008337021632644106,-0.003910351103609557,-0.008257815733812289,-7.920589883181686e-05,-0.008257815733812289,-0.004008879443648092,-0.008261541835963726,-0.26321348547935486,-7.547979668037948e-05,1.2610397816983674,-0.507635274765835,1.2713221597128244,-0.010282378014456972,1.2713221597128244,-0.5204260599517311,1.4040768146514893,-0.7109262943267822,-0.14303703295312187,-1.7075246676524607,-0.2256874059205759,-1.7029532689807518,-0.0045713986717088595,-1.7029532689807518,-0.23137400665895944,-1.6382851600646973,-0.3419727385044098,-0.06923950758776343,0.04438926680473205,-0.2245223730670714,0.13239962498632354,-0.049156397581100464,-0.28000012040138245,1.862645149230957e-08,0.038835640996694565,-0.2799999713897705,1.4901161193847656e-08,0.12682759761810303,-0.27999991178512573,-1.4901161193847656e-08,,120.0,346.2333333333471,,
1776999788.746599,346266684725,1.5856077875659926,0.029042390513178907,1.585018775962944,0.0005890116030486947,1.585018775962944,0.02985606635248505,1.5814357995986938,2.778834104537964,0.004171987967298785,-0.5524656891881456,-0.7138892948449123,-0.5379872295804575,-0.014478459607688121,-0.5379872295804575,-0.7338902128444323,-0.31660526990890503,-2.4926328659057617,-0.23586041927924062,-0.008634082607031994,-0.0035163127845386313,-0.008562767918625017,-7.131468840697666e-05,-0.008562767918625017,-0.0036148287367629038,-0.008261770009994507,-0.35809358954429626,-0.0003723125970374868,1.2224758202125539,-0.4564818757309119,1.2317337744179706,-0.009257954205416752,1.2317337744179706,-0.4692710527513329,1.3747704029083252,-0.8131258487701416,-0.15229458269577134,-1.7246696551314493,-0.20294533399191628,-1.7205537006802634,-0.004115954451185955,-1.7205537006802634,-0.20863121976284313,-1.6515345573425293,-0.3526389002799988,-0.07313509778892002,0.04349484695522069,-0.22788685456168195,0.14342328720664935,-0.049156397581100464,-0.28000012040138245,1.862645149230957e-08,0.038835640996694565,-0.2799999713897705,1.4901161193847656e-08,0.12682759761810303,-0.27999991178512573,-1.4901161193847656e-08,,120.0,346.25000000001376,,
1776999788.8219018,346283351393,1.587800934654034,0.025787934339180595,1.5872770476425921,0.0005238870114419036,1.5872770476425921,0.02660156050589157,1.585927963256836,2.876276731491089,0.0018729713971981088,-0.6063753089029553,-0.6338916988448172,-0.5934976730551962,-0.012877635847759139,-0.5934976730551962,-0.6538913958448354,-0.3740333020687103,-3.59110951423645,-0.232342006834245,-0.008899618294962436,-0.0031222789034054555,-0.008836188578488047,-6.342971647438876e-05,-0.008836188578488047,-0.0032207888415090222,-0.008217706345021725,-0.3944157361984253,-0.0006819119499407115,1.1880044189672094,-0.4053290528215357,1.1962387592342696,-0.008234340267060158,1.1962387592342696,-0.41811744909885845,1.334322214126587,-1.1199201345443726,-0.14631779515937748,-1.7399951486742276,-0.1802035182006453,-1.7363342783866031,-0.003660870287624407,-1.7363342783866031,-0.18588905686427415,-1.669784665107727,-0.4262657165527344,-0.0702104835665005,0.04213190956703126,-0.2315222713254339,0.15849611801972338,-0.049156397581100464,-0.28000012040138245,1.862645149230957e-08,0.038835640996694565,-0.2799999713897705,1.4901161193847656e-08,0.12682759761810303,-0.27999991178512573,-1.4901161193847656e-08,,120.0,346.2666666666804,,
1776999788.8908591,346300018060,1.5892749074186523,0.02334715099407649,1.5887998814574045,0.00047502596124782137,1.5887998814574045,0.024160699498976455,1.5869475603103638,2.9424140453338623,0.0023273471082885244,-0.6426069468281123,-0.5738949468448306,-0.6309303615843908,-0.011676585243721505,-0.6309303615843908,-0.5938927348444875,-0.44631028175354004,-4.702194690704346,-0.19629666507457222,-0.00907807981912451,-0.0028267606100062727,-0.009020565963308568,-5.7513855815942774e-05,-0.009020565963308568,-0.0029252611451921645,-0.009365576319396496,-0.43414831161499023,0.00028749650027198523,1.164836840800246,-0.36696535961520554,1.1723031938786228,-0.007466353078376731,1.1723031938786228,-0.3797525352213817,1.2908354997634888,-1.1605119705200195,-0.1259986589632427,-1.7502951236323818,-0.1631475671434952,-1.7469756894998285,-0.0033194341325533117,-1.7469756894998285,-0.16883256311415737,-1.6894878149032593,-0.46918126940727234,-0.060807308729122544,0.04191105256893742,-0.2331985931564105,0.17795346445303273,-0.049156397581100464,-0.28000012040138245,1.862645149230957e-08,0.038835640996694565,-0.2799999713897705,1.4901161193847656e-08,0.12682759761810303,-0.27999991178512573,-1.4901161193847656e-08,,120.0,346.28333333334706,,
1776999788.9615877,346316684728,1.5910139672248589,0.02008962069043881,1.5906025887917952,0.0004113784330637138,1.5906025887917952,0.020906080271888058,1.5860140323638916,1.040321946144104,0.004999934860967281,-0.6853546737475958,-0.49382178584434355,-0.6752426046545996,-0.010112069092996223,-0.6752426046545996,-0.5138911308445326,-0.5037134289741516,-2.3363354206085205,-0.18164124477344423,-0.009288636805708284,-0.002432354528058215,-0.0092388290860988,-4.980771960948378e-05,-0.0092388290860988,-0.0025312075223683055,-0.010461880825459957,-0.41146180033683777,0.0011732440197516729,1.137502683097717,-0.31576421821534023,1.1439686383941805,-0.006465955296463433,1.1439686383941805,-0.32859714947870816,1.257851004600525,-0.9902871251106262,-0.12034832150280783,-1.762447500450075,-0.1403842696401104,-1.7595728289089163,-0.0028746715411587243,-1.7595728289089163,-0.14608960792357778,-1.7044520378112793,-0.3875131905078888,-0.057995462638795736,0.04250713721898123,-0.23305133032133862,0.19363278774962034,-0.049156397581100464,-0.28000012040138245,1.862645149230957e-08,0.038835640996694565,-0.2799999713897705,1.4901161193847656e-08,0.12682759761810303,-0.27999991178512573,-1.4901161193847656e-08,,120.0,346.3000000000137,,
1776999789.0285518,346333351396,1.5917852486798056,0.01846181007898083,1.5914063104650131,0.00037893821479251244,1.5917852486798056,0.01846181007898083,1.5917104482650757,4.129216194152832,7.480041472995858e-05,-0.7043134978756971,-0.4538086688444975,-0.6949988398820547,-0.009314657993642395,-0.7043134978756971,-0.4538086688444975,-0.5580347776412964,-2.802971124649048,-0.1462787202344007,-0.009382019850030232,-0.002235267058233709,-0.009336139835827517,-4.588001420271527e-05,-0.009382019850030232,-0.002235267058233709,-0.009746060706675053,-0.549907922744751,0.00036404085664482055,1.125379851641717,-0.29017865076976074,1.1313359187566516,-0.005956067114934571,1.125379851641717,-0.29017865076976074,1.2217764854431152,-1.0768457651138306,-0.09639663380139818,-1.7678371384829699,-0.1290092911214118,-1.7651891559579604,-0.002647982525009418,-1.7678371384829699,-0.1290092911214118,-1.7209385633468628,-0.3800523281097412,-0.04689857513610707,0.04073856906798025,-0.2323807675939742,0.20888931761409538,-0.049156397581100464,-0.28000012040138245,1.862645149230957e-08,0.038835640996694565,-0.2799999713897705,1.4901161193847656e-08,0.12682759761810303,-0.27999991178512573,-1.4901161193847656e-08,,120.0,346.31666666668036,,
1776999789.0969648,346350018063,1.5931307959702552,0.015210507038923016,1.5928184329076034,0.00031236306265181035,1.5928184329076034,0.016024187516006018,1.591383457183838,0.5424455404281616,0.0017473387864173073,-0.7373883167658429,-0.37388857984435275,-0.7297101386754075,-0.007678178090435472,-0.7297101386754075,-0.3938896118444278,-0.6026452779769897,-1.6981770992279053,-0.1347430387888532,-0.009544932236235709,-0.0018416149433721361,-0.009507112820849699,-3.781941538601001e-05,-0.009507112820849699,-0.001940131457114127,-0.010511867702007294,-0.2846103310585022,0.0009669354657715849,1.1042308366957607,-0.23907538812273008,1.109140490282427,-0.004909653586666174,1.109140490282427,-0.2518646380384763,1.1945078372955322,-0.8962559700012207,-0.0902770005997715,-1.7772396890112605,-0.10628950911609218,-1.77505692702244,-0.002182761988820614,-1.77505692702244,-0.11197542729521509,-1.7333298921585083,-0.28925442695617676,-0.0439097968527522,0.04072012191530403,-0.23041033718974155,0.22179564597349893,-0.049156397581100464,-0.28000012040138245,1.862645149230957e-08,0.038835640996694565,-0.2799999713897705,1.4901161193847656e-08,0.12682759761810303,-0.27999991178512573,-1.4901161193847656e-08,,120.0,346.333333333347,,
1776999789.1651855,346366684731,1.5942174621099292,0.011955926744392742,1.5939701785478695,0.00024728356205971913,1.5939701785478695,0.012769656487228083,1.595668077468872,1.9895784854888916,-0.0014506153589428639,-0.7640995932990975,-0.2938879328443675,-0.7580211305890562,-0.00607846271004131,-0.7580211305890562,-0.31389017584470186,-0.6466606259346008,-2.248408317565918,-0.11743896736449666,-0.009676500539393468,-0.0014475660343202415,-0.009646560636537373,-2.9939902856095102e-05,-0.009646560636537373,-0.0015460885129304238,-0.009912514127790928,-0.37808462977409363,0.00023601358839745942,1.0871508584650809,-0.18792061431403567,1.0910376068439638,-0.0038867483788829205,1.0910376068439638,-0.2007106385790369,1.165260910987854,-0.9063279628753662,-0.07811005252277314,-1.7848332038272672,-0.08354682598269002,-1.7831052109105012,-0.0017279929167659525,-1.7831052109105012,-0.08923308842649386,-1.7467117309570312,-0.3082599341869354,-0.03812147287023593,0.03955678946471251,-0.22807414757563316,0.23442081442380097,-0.049156397581100464,-0.28000012040138245,1.862645149230957e-08,0.038835640996694565,-0.2799999713897705,1.4901161193847656e-08,0.12682759761810303,-0.27999991178512573,-1.4901161193847656e-08,,120.0,346.35000000001367,,
1776999789.2348454,346383351398,1.5946631341290793,0.01032872660589678,1.5944484353460402,0.0002146987830391467,1.5946631341290793,0.01032872660589678,1.5950098037719727,-0.2402881532907486,-0.0003466696428933158,-0.7750546310167785,-0.253889821844598,-0.7697771328453139,-0.005277498171464612,-0.7750546310167785,-0.253889821844598,-0.6821058988571167,-0.8390263915061951,-0.09294873215966182,-0.009730460361259342,-0.0012505524776224319,-0.009704465666529072,-2.599469473026951e-05,-0.009730460361259342,-0.0012505524776224319,-0.010592363774776459,-0.21219471096992493,0.000861903413517117,1.0801458841613885,-0.1623446421476022,1.083520472184872,-0.003374588023483449,1.0801458841613885,-0.1623446421476022,1.1436058282852173,-0.8058080077171326,-0.06345994412382883,-1.7879475155343678,-0.07217611338829129,-1.7864472218098588,-0.0015002937245089942,-1.7879475155343678,-0.07217611338829129,-1.7565574645996094,-0.20938527584075928,-0.03139005093475844,0.04007354309847007,-0.22520292612376414,0.24476712154409616,-0.049156397581100464,-0.28000012040138245,1.862645149230957e-08,0.038835640996694565,-0.2799999713897705,1.4901161193847656e-08,0.12682759761810303,-0.27999991178512573,-1.4901161193847656e-08,,120.0,346.3666666666803,,
1776999789.3044739,346400018066,1.5953590562674784,0.007044205838591657,1.5952096121741752,0.00014944409330319708,1.5953590562674784,0.007044205838591657,1.5987064838409424,0.9230206608772278,-0.003347427573463957,-0.7921659123506312,-0.17393195348376467,-0.7884875757354594,-0.0036783366151718067,-0.7921659123506312,-0.17393195348376467,-0.7157174348831177,-1.2430508136749268,-0.07644847746751349,-0.009808191225170602,0.000193113870272002,-0.009796625291297328,-1.156593387327369e-05,-0.009808191225170602,0.000193113870272002,-0.010023687034845352,-0.23733767867088318,0.00021549580967475043,1.0691850978503274,-0.11431419809159384,1.0715564630199708,-0.0023713651696433136,1.0691850978503274,-0.11431419809159384,1.1212267875671387,-0.806262195110321,-0.052041689716811224,-1.7928099159021589,-0.049122580859403166,-1.7917662497164246,-0.00104366618573426,-1.7928099159021589,-0.049122580859403166,-1.7668019533157349,-0.16684256494045258,-0.026007962586424016,0.03912936158493333,-0.22233372462270254,0.25440054623860153,-0.049156397581100464,-0.28000012040138245,1.862645149230957e-08,0.038835640996694565,-0.2799999713897705,1.4901161193847656e-08,0.12682759761810303,-0.27999991178512573,-1.4901161193847656e-08,,120.0,346.38333333334697,,
1776999789.3713963,346416684733,1.595763656402897,0.0029465211430991585,1.5956941734225418,6.948298035514e-05,1.5956941734225418,0.004013218862833976,1.5982334613800049,-0.8186691999435425,-0.0024698049771079145,-0.8028904042160968,-0.0941303198359737,-0.8008082280085888,-0.0020821762075080574,-0.8008082280085888,-0.11411178093888845,-0.7418290376663208,-0.11839163303375244,-0.06106136654977601,-0.008810788198935495,0.028793004226179905,-0.009305018974784158,0.0004942307758486631,-0.009305018974784158,0.020283793972790034,-0.010529069229960442,-0.09676378220319748,0.0017182810310249468,1.059229388110403,-0.14649634096309602,1.0620490204519097,-0.002819632341506839,1.0620490204519097,-0.13446138362826388,1.1052440404891968,-0.7008072137832642,-0.046014652378793874,-1.7955355543843483,-0.01775781375523352,-1.7950988509416488,-0.00043670344269952643,-1.7950988509416488,-0.026025995682183743,-1.7740775346755981,-0.1063055470585823,-0.021458019708750165,0.03949392792656546,-0.21945571007004572,0.26200553037934304,-0.049156397581100464,-0.28000012040138245,1.862645149230957e-08,0.038835640996694565,-0.2799999713897705,1.4901161193847656e-08,0.12682759761810303,-0.27999991178512573,-1.4901161193847656e-08,,120.0,346.4000000000136,,
1776999789.4393556,346433351401,1.5958503108886162,-2.4744103578766107e-05,1.5958411591369979,9.151751618308168e-06,1.5958411591369979,0.000943482886598254,1.6002579927444458,-1.4290719032287598,-0.004407681855829626,-0.8067392353891151,-0.03414978669067704,-0.8058564013751145,-0.0008828340140005775,-0.8058564013751145,-0.05414343390674363,-0.76084965467453,0.5631728768348694,-0.04588958071458504,-0.006512646917889604,0.04668925123835195,-0.007395183457127894,0.00088253653923829,-0.007395183457127894,0.04145950146066033,-0.010075274854898453,0.029522180557250977,0.0035626279370088486,1.0499329279193408,-0.16006511545765845,1.0531137342492478,-0.0031808063299070266,1.0531137342492478,-0.15771248200020951,1.092487096786499,-0.6870759725570679,-0.04255416886715824,-1.7959167811165044,0.004708933913063438,-1.7959386842685507,2.190315204630977e-05,-1.7959386842685507,-0.002553671193528525,-1.7799558639526367,-0.08192631602287292,-0.015960917163867716,0.03913641642527436,-0.21743552937514374,0.2673641125989766,-0.049156397581100464,-0.28000012040138245,1.862645149230957e-08,0.038835640996694565,-0.2799999713897705,1.4901161193847656e-08,0.12682759761810303,-0.27999991178512573,-1.4901161193847656e-08,,120.0,346.41666666668027,,
1776999789.5100825,346450018068,1.595699281953835,-0.003697307670815892,1.595764405644658,-6.51236908231212e-05,1.595764405644658,-0.0028092907441013425,1.6016125679016113,-1.0934431552886963,-0.005913285947776403,-0.8062714909900038,0.045842360679842986,-0.8069885610648667,0.00071707007486288,-0.8069885610648667,0.025838962682513313,-0.7802650928497314,0.31980085372924805,-0.02600639814027239,-0.0021361617828792065,0.06094571606699577,-0.0033310566196388443,0.0011948948367596379,-0.0033310566196388443,0.058387039417088636,-0.00989137589931488,-0.05813880264759064,0.0077552141164356735,1.0373282545675924,-0.14980979980479664,1.0403842397068648,-0.0030559851392724102,1.0403842397068648,-0.1553431649113782,1.0799072980880737,-0.6386175155639648,-0.04257904352048136,-1.7944379644310728,0.031714394318278494,-1.7950083718843015,0.0005704074532286718,-1.7950083718843015,0.02527086636840281,-1.7857229709625244,-0.10843385756015778,-0.008714993468548426,0.03891542474261171,-0.21505544177203073,0.2728881528637715,-0.049156397581100464,-0.28000012040138245,1.862645149230957e-08,0.038835640996694565,-0.2799999713897705,1.4901161193847656e-08,0.12682759761810303,-0.27999991178512573,-1.4901161193847656e-08,,120.0,346.4333333333469,,
1776999789.5832229,346466684736,1.5952692036145741,-0.006857289944351631,1.5954005220019938,-0.0001313183874196433,1.5954005220019938,-0.006227577601241825,1.6012609004974365,-0.09164537489414215,-0.005991696882862385,-0.7994251851286025,0.12320767740622522,-0.8017223549901038,0.0022971698615013025,-0.8017223549901038,0.10580571995528554,-0.7932978272438049,-0.4779945909976959,-0.0061273578847975685,0.0029198233869174913,0.0617447264925668,0.001653746759317701,0.0012660766275997904,0.001653746759317701,0.06425146534809699,-0.010145945474505424,-0.11720988899469376,0.013065768861422916,1.0268903903896414,-0.10157305603950947,1.0291230388154142,-0.002232648425772865,1.0291230388154142,-0.12034807617184333,1.0717597007751465,-0.25363704562187195,-0.04486931038550512,-1.7909464408701672,0.053836494670875756,-1.7919855475884614,0.0010391067182942137,-1.7919855475884614,0.0496870893084269,-1.789324164390564,-0.07275894284248352,-0.001622276479603224,0.039169223142345035,-0.21334307167294214,0.2766224702759061,-0.049156397581100464,-0.28000012040138245,1.862645149230957e-08,0.038835640996694565,-0.2799999713897705,1.4901161193847656e-08,0.12682759761810303,-0.27999991178512573,-1.4901161193847656e-08,,120.0,346.4500000000136,,
1776999789.6533945,346483351403,1.5948039267582725,-0.008916929940263968,1.5949730939512041,-0.00016916719293158522,1.5949730939512041,-0.008036852704861642,1.602535605430603,-0.045559946447610855,-0.007731678672330489,-0.790588272263309,0.1738458169784356,-0.7938735285069646,0.00328525624365561,-0.7938735285069646,0.15507997620182054,-0.8018450140953064,-0.38450944423675537,0.01125674183199743,0.006468463787944997,0.06198033040520894,0.005275342482512355,0.001193121305432642,0.005275342482512355,0.05802249544691988,-0.008314209058880806,-0.10155732929706573,0.014782672846825804,1.0222009456427723,-0.06915277323223684,1.0235722082353105,-0.0013712625925381694,1.0235722082353105,-0.06974933152070889,1.0614250898361206,-0.28676480054855347,-0.0392241441933483,-1.7873558208689986,0.06822771630842653,-1.7886518777128435,0.0012960568438449283,-1.7886518777128435,0.06170363486942164,-1.791599154472351,-0.04269512742757797,0.004243333603352495,0.03895650132449503,-0.21261042191447813,0.2792564034082651,-0.049156397581100464,-0.28000012040138245,1.862645149230957e-08,0.038835640996694565,-0.2799999713897705,1.4901161193847656e-08,0.12682759761810303,-0.27999991178512573,-1.4901161193847656e-08,,120.0,346.4666666666802,,
1776999789.722219,346500018071,1.5941769325146897,-0.011987903362918032,1.5944063858975666,-0.00022945338287683192,1.5941769325146897,-0.011987903362918032,1.6024194955825806,-0.6484914422035217,-0.00824256306789084,-0.7783515990454201,0.23397489113262143,-0.7828299743420318,0.00447837529661177,-0.7783515990454201,0.23397489113262143,-0.8055151104927063,0.183523029088974,0.027163511447286237,0.010809556600529388,0.08298115865154596,0.009221263219173952,0.0015882933813554361,0.010809556600529388,0.08298115865154596,-0.004978269804269075,-0.018956981599330902,0.015787826404798463,1.0173970860634498,-0.0917828716225477,1.0191538478379154,-0.0017567617744655983,1.0173970860634498,-0.0917828716225477,1.0491493940353394,-0.346155047416687,-0.03175230797188955,-1.7825600437743792,0.09169168217010837,-1.7843150601453563,0.0017550163709771915,-1.7825600437743792,0.09169168217010837,-1.7916483879089355,-0.00038028648123145103,0.009088344134556392,0.03904800693222613,-0.21272681006463007,0.28096526758987195,-0.049156397581100464,-0.28000012040138245,1.862645149230957e-08,0.038835640996694565,-0.2799999713897705,1.4901161193847656e-08,0.12682759761810303,-0.27999991178512573,-1.4901161193847656e-08,,120.0,346.4833333333469,,
1776999789.7906585,346516684738,1.5930538518684136,-0.016087068081953218,1.5933654139841227,-0.0003115621157090409,1.5933654139841227,-0.015062121927116423,1.6025755405426025,-0.7824304103851318,-0.0095216886741889,-0.7564317800420034,0.31398067611737107,-0.7625127192936145,0.006080939251611128,-0.7625127192936145,0.2939762051323328,-0.8038133382797241,0.7182861566543579,0.04738155823772072,0.018583604360657074,0.11135588170290953,0.016426948223984987,0.0021566561366720867,0.016426948223984987,0.10426112819105078,-0.0012304261326789856,0.08972354978322983,0.01981403049333606,1.0087984542878738,-0.12316726785741063,1.0111838643802702,-0.002385410092396345,1.0111838643802702,-0.11531998226446184,1.0395218133926392,-0.3301408886909485,-0.030723359104765313,-1.773969955036402,0.12304489692354789,-1.7763529951414982,0.002383040105096157,-1.7763529951414982,0.11520540787982109,-1.7902274131774902,0.046692855656147,0.016257458141088144,0.03906367024113857,-0.2136545778032422,0.2811571713117163,-0.049156397581100464,-0.28000012040138245,1.862645149230957e-08,0.038835640996694565,-0.2799999713897705,1.4901161193847656e-08,0.12682759761810303,-0.27999991178512573,-1.4901161193847656e-08,,120.0,346.50000000001353,,
1776999789.8613489,346533351406,1.5916031033122955,-0.02018549325239018,1.5919966393552982,-0.00039353604300274014,1.5919966393552982,-0.019160580354847457,1.602246642112732,-0.6637038588523865,-0.010643538800436447,-0.7281166756236099,0.3939720269013744,-0.7357975477520245,0.0076808721284146175,-0.7357975477520245,0.37396820501842337,-0.7962865233421326,0.7860411405563354,0.06816984771852264,0.02862579376227994,0.13972548554385836,0.02590170800425309,0.0027240857580268507,0.02590170800425309,0.13263096224149667,0.0035270999651402235,0.08529883623123169,0.025098693797139717,0.9976911017799546,-0.15454600189322182,1.0007041280799078,-0.0030130262999532587,1.0007041280799078,-0.14669897092785716,1.0304328203201294,-0.2357918918132782,-0.032741718540174825,-1.762873638066762,0.154392455103518,-1.7658836708210397,0.0030100327542776917,-1.7658836708210397,0.14655322043438773,-1.7867143154144287,0.06507761776447296,0.023840677347666706,0.03921628195554673,-0.21559915213767283,0.27990656916364426,-0.049156397581100464,-0.28000012040138245,1.862645149230957e-08,0.038835640996694565,-0.2799999713897705,1.4901161193847656e-08,0.12682759761810303,-0.27999991178512573,-1.4901161193847656e-08,,120.0,346.5166666666802,,
1776999789.9297836,346550018073,1.5902998031421784,-0.02325952562549998,1.5907547415477592,-0.0004549384055807515,1.5907547415477592,-0.02223481991979785,1.6024298667907715,-0.6805753707885742,-0.012130063648593037,-0.7026794072219114,0.4539697069009189,-0.7115587050186385,0.008879297796727137,-0.7115587050186385,0.4339699289017744,-0.7859480381011963,0.9172412157058716,0.08326863087928493,0.03764733446985424,0.16100416625469205,0.03449821699140273,0.0031491174784515144,0.03449821699140273,0.15391107714966767,0.007753018755465746,0.05764736980199814,0.029894315714388497,0.9877126569611976,-0.17808168700201907,0.9911957975915032,-0.0034831406303056367,0.9911957975915032,-0.17023624235755314,1.0252416133880615,-0.14139434695243835,-0.037528956426863935,-1.7529051071775095,0.1779047566964588,-1.756384787187319,0.0034796800098095826,-1.756384787187319,0.17006710677214487,-1.7827798128128052,0.10437969863414764,0.029874705635295706,0.0390293158281413,-0.21777471519532737,0.2776797368851076,-0.049156397581100464,-0.28000012040138245,1.862645149230957e-08,0.038835640996694565,-0.2799999713897705,1.4901161193847656e-08,0.12682759761810303,-0.27999991178512573,-1.4901161193847656e-08,,120.0,346.53333333334683,,
1776999789.9986238,346566684741,1.58881195846122,-0.026333770633152568,1.5893290268390512,-0.0005170683778312757,1.5893290268390512,-0.025307758458643866,1.6016405820846558,-0.6887011528015137,-0.012828623623435842,-0.6736402761319382,0.5139715370132169,-0.6837322007787171,0.010091924646778883,-0.6837322007787171,0.49394625990144486,-0.7728955745697021,1.0466980934143066,0.09925529843776393,0.04794630600656608,0.18228431883786142,0.04436712023940947,0.0035791857671566146,0.04436712023940947,0.17518218625854032,0.012462863698601723,0.13610002398490906,0.03548344230796436,0.9763212857420078,-0.20161900010282044,0.980280111493761,-0.003958825751753214,0.980280111493761,-0.1937635527535537,1.0198129415512085,-0.1609545797109604,-0.04349165580920067,-1.7415250536789968,0.20141868466385118,-1.7454799462006547,0.003954892521657927,-1.7454799462006547,0.193571041972922,-1.7776328325271606,0.1529873162508011,0.03610777884816385,0.03928118430643143,-0.22032739961550268,0.2748195667968148,-0.049156397581100464,-0.28000012040138245,1.862645149230957e-08,0.038835640996694565,-0.2799999713897705,1.4901161193847656e-08,0.12682759761810303,-0.27999991178512573,-1.4901161193847656e-08,,120.0,346.5500000000135,,
1776999790.0651767,346583351409,1.5865412000315418,-0.030432807183465166,1.5871394879906704,-0.0005982879591286405,1.5871394879906704,-0.029408301109792104,1.6001827716827393,-0.20346778631210327,-0.013641571651197504,-0.6293205614755817,0.5939748204542838,-0.6409976959890242,0.011677134513442544,-0.6409976959890242,0.5739789387903533,-0.7509123682975769,1.6039941310882568,0.12159180682199522,0.063664664739366,0.2106581546957638,0.059523270989956495,0.0041413937494095,0.059523270989956495,0.20356644745871888,0.02022649347782135,0.2709720730781555,0.043438171261544645,0.9589356993615173,-0.23300241504066896,0.9635163658286678,-0.004580666467150496,0.9635163658286678,-0.22515849883728867,1.0110218524932861,-0.22495122253894806,-0.052086153131768786,-1.724156740478939,0.23277091909522327,-1.7287328558957762,0.004576115416837112,-1.7287328558957762,0.22493479609336053,-1.7690680027008057,0.20337224006652832,0.04491126222186659,0.03958920602099487,-0.22466568119522282,0.2697915562235186,-0.049156397581100464,-0.28000012040138245,1.862645149230957e-08,0.038835640996694565,-0.2799999713897705,1.4901161193847656e-08,0.12682759761810303,-0.27999991178512573,-1.4901161193847656e-08,,120.0,346.56666666668013,,
1776999790.1385093,346600018076,1.5846229209501095,-0.03350708988616842,1.585282769790776,-0.0006598488406666103,1.585282769790776,-0.03248244618120173,1.600354552268982,-0.7430626749992371,-0.015731631318872452,-0.5918803915265514,0.6539773862823024,-0.6047590456151882,0.012878654088636865,-0.6047590456151882,0.6339788183876891,-0.7276406288146973,1.4700342416763306,0.1357602372881459,0.07694313520874764,0.2319385682066816,0.07237561245887361,0.004567522749874028,0.07237561245887361,0.2248459082753824,0.028510108590126038,0.20183171331882477,0.0484330266186216,0.9442487972955597,-0.25654001674549914,0.9493007917602921,-0.005051994464732479,0.9493007917602921,-0.2486950467967284,1.0022826194763184,-0.19328749179840088,-0.0580338221807587,-1.709484430357355,0.2562851353799861,-1.714531405491131,0.005046975133775833,-1.714531405491131,0.24844795967974762,-1.7603609561920166,0.1844552755355835,0.05087652583466151,0.03951603129945831,-0.22895161126549926,0.2643807864160602,-0.049156397581100464,-0.28000012040138245,1.862645149230957e-08,0.038835640996694565,-0.2799999713897705,1.4901161193847656e-08,0.12682759761810303,-0.27999991178512573,-1.4901161193847656e-08,,120.0,346.5833333333468,,
1776999790.2048156,346616684744,1.5817716630570653,-0.0378859541855238,1.5825187627361101,-0.0007470996790448492,1.5825187627361101,-0.03676891469414634,1.5975626707077026,-0.3070027232170105,-0.015791007650637345,-0.5362307307877333,0.739442230860465,-0.5508123102998316,0.014581579512098264,-0.5508123102998316,0.7176403205952553,-0.6952664852142334,2.1269989013671875,0.1590357544265001,0.09667975440031328,0.2622493925551429,0.09150827485810156,0.005171479542211713,0.09150827485810156,0.2545171621185058,0.03991488367319107,0.44795411825180054,0.056764870727122205,0.9224187383404984,-0.2900658742432588,0.9281387505774279,-0.005720012236929528,0.9281387505774279,-0.2815134953050183,0.989292323589325,-0.3423258662223816,-0.06687358524882658,-1.6876760603197083,0.2897776837805535,-1.693390389526955,0.005714329207246793,-1.693390389526955,0.28123380192613023,-1.7474840879440308,0.3438279926776886,0.05980802762432247,0.040094679885667804,-0.23473444558398784,0.25672540703530916,-0.049156397581100464,-0.28000012040138245,1.862645149230957e-08,0.038835640996694565,-0.2799999713897705,1.4901161193847656e-08,0.12682759761810303,-0.27999991178512573,-1.4901161193847656e-08,,120.0,346.60000000001344,,
1776999790.2738504,346633351411,1.5794826314478214,-0.03739306329666633,1.5802394694202349,-0.0007568379724134378,1.5802394694202349,-0.038223241374486364,1.5977097749710083,-0.9703767895698547,-0.018227143523186884,-0.4915543678443344,0.729822192345819,-0.5063260152992307,0.014771647454896342,-0.5063260152992307,0.7460252613481466,-0.6628242135047913,1.8817589282989502,0.1712698456604569,0.11252460144109622,0.25883756516480205,0.10728571270792606,0.005238888733170161,0.10728571270792606,0.2645841195622336,0.05138805881142616,0.32611262798309326,0.061136542629670054,0.9048932471873821,-0.2862921583726288,0.9106878186281161,-0.005794571440734031,0.9106878186281161,-0.29264824297189707,0.9770384430885315,-0.2679183781147003,-0.07214519590114943,-1.6701679813472474,0.28600771722696866,-1.6759567956811563,0.005788814333908876,-1.6759567956811563,0.2923574868366654,-1.7353135347366333,0.27870675921440125,0.06514555338938588,0.040053741222500355,-0.24014835229710746,0.24878330623843614,-0.049156397581100464,-0.28000012040138245,1.862645149230957e-08,0.038835640996694565,-0.2799999713897705,1.4901161193847656e-08,0.12682759761810303,-0.27999991178512573,-1.4901161193847656e-08,,120.0,346.6166666666801,,
1776999790.350272,346650018079,1.577331006285836,-0.034318515080911126,1.5780276491347094,-0.0006966428488734966,1.577331006285836,-0.034318515080911126,1.5937801599502563,-0.5708882808685303,-0.016449153664420457,-0.44955984655122583,0.6698144443443372,-0.4631566307251509,0.01359678417392507,-0.44955984655122583,0.6698144443443372,-0.6210243105888367,2.7206499576568604,0.17146446403761084,0.12741831083465638,0.2375553137525721,0.12259609722350541,0.004822213611150969,0.12741831083465638,0.2375553137525721,0.06649639457464218,0.6049065589904785,0.0609219162600142,0.8884197797224023,-0.2627525238224487,0.8937534798056619,-0.005333700083259618,0.8884197797224023,-0.2627525238224487,0.9597756862640381,-0.4748048186302185,-0.07135590654163582,-1.653710880841059,0.26249147011663454,-1.659039281709102,0.005328400868042982,-1.653710880841059,0.26249147011663454,-1.7182132005691528,0.5005812048912048,0.06450231972809384,0.04096518246074122,-0.24666828872008772,0.23840625614530733,-0.049156397581100464,-0.28000012040138245,1.862645149230957e-08,0.038835640996694565,-0.2799999713897705,1.4901161193847656e-08,0.12682759761810303,-0.27999991178512573,-1.4901161193847656e-08,,120.0,346.63333333334674,,
1776999790.4181175,346666684746,1.574749654029292,-0.030219942135241283,1.575364253363334,-0.0006145993340420652,1.575364253363334,-0.03124458266897182,1.593772053718567,-1.199716567993164,-0.019022399689274883,-0.3991780913004927,0.5898202093456482,-0.41117358441712565,0.01199549311663295,-0.41117358441712565,0.6098187153453826,-0.5786259174346924,2.4032504558563232,0.17944782613419968,0.14528662313674323,0.2091846870006964,0.1410323208370548,0.004254302299688428,0.1410323208370548,0.21627732498045746,0.08108893781900406,0.496901273727417,0.06419768531773917,0.8686561967502646,-0.23137265837669888,0.873361747843561,-0.004705551093296401,0.873361747843561,-0.23921760404557077,0.943989098072052,-0.34293222427368164,-0.07533290132178738,-1.6339669336710865,0.2311427816507647,-1.6386678096368783,0.004700875965791829,-1.6386678096368783,0.2389799330952226,-1.7025700807571411,0.3796705901622772,0.06860314708605464,0.04098036372560894,-0.25280663791834135,0.22730309833056192,-0.049156397581100464,-0.28000012040138245,1.862645149230957e-08,0.038835640996694565,-0.2799999713897705,1.4901161193847656e-08,0.12682759761810303,-0.27999991178512573,-1.4901161193847656e-08,,120.0,346.6500000000134,,
1776999790.487651,346683351414,1.5724959381889279,-0.026120926306826615,1.573028738691762,-0.0005328005028342186,1.573028738691762,-0.027145897824185125,1.589018702507019,-1.2500296831130981,-0.016522764318091188,-0.355191006784585,0.5098173303455064,-0.36558998447668944,0.01039897769210446,-0.36558998447668944,0.5298222963457412,-0.5272192358970642,3.121938705444336,0.17202822911247923,0.16088701179880924,0.18081099458116037,0.15719892709234692,0.0036880847064623135,0.15719892709234692,0.18790592365431136,0.09994623810052872,0.7255823016166687,0.06094077369828052,0.8514010933858396,-0.19998940209155322,0.8554803688580914,-0.004079275472251842,0.8554803688580914,-0.2078368818673725,0.9224090576171875,-0.5457126498222351,-0.07100796423134792,-1.616728973847712,0.19979070571448418,-1.6208041964189155,0.004075222571203518,-1.6208041964189155,0.20763038874815748,-1.6812105178833008,0.5810948014259338,0.06448154403558881,0.04220304885021419,-0.25932237939392144,0.2138740354725,-0.049156397581100464,-0.28000012040138245,1.862645149230957e-08,0.038835640996694565,-0.2799999713897705,1.4901161193847656e-08,0.12682759761810303,-0.27999991178512573,-1.4901161193847656e-08,,120.0,346.66666666668004,,
1776999790.5578003,346700018081,1.5710209590491937,-0.023046890449667456,1.5714921308136836,-0.00047117176448985276,1.5714921308136836,-0.024071579401307282,1.5888168811798096,-1.545074462890625,-0.01779592213061587,-0.326402979955002,0.4498195823459475,-0.33559911367112105,0.009196133716119048,-0.33559911367112105,0.4698190333459086,-0.4760701060295105,2.939164400100708,0.1496671260745085,0.1710969271023129,0.15953228975352815,0.1678354411061701,0.0032614859961427878,0.1678354411061701,0.16662526288555404,0.1166214570403099,0.4130820035934448,0.054475470062002984,0.8401082244887736,-0.17645369030800173,0.8437156524320218,-0.003607427943248198,0.8437156524320218,-0.18429900667834045,0.9041928648948669,-0.17575615644454956,-0.0640846404060933,-1.6054473248058645,0.17627837747329309,-1.609051168644878,0.0036038438390135763,-1.609051168644878,0.1841158992509169,-1.6632070541381836,0.4836410880088806,0.0577597293323191,0.04208389041877966,-0.26504749829539553,0.19988299229863885,-0.049156397581100464,-0.28000012040138245,1.862645149230957e-08,0.038835640996694565,-0.2799999713897705,1.4901161193847656e-08,0.12682759761810303,-0.27999991178512573,-1.4901161193847656e-08,,120.0,346.6833333333467,,
1776999790.6264222,346716684749,1.5697303613115043,-0.01997271651188192,1.570140026949001,-0.00040966563749655904,1.5697303613115043,-0.01997271651188192,1.5851821899414062,-1.7163112163543701,-0.01545182862990191,-0.30121363232428217,0.3898191393456953,-0.3092093151415637,0.007995682817281524,-0.30121363232428217,0.3898191393456953,-0.4242289960384369,2.791196584701538,0.12301536371415472,0.18003054062791526,0.1382526291212973,0.17719480461719864,0.0028357360107166274,0.18003054062791526,0.1382526291212973,0.13492552936077118,0.5881537795066833,0.045105011267144085,0.8302270331837822,-0.15291692133877585,0.8333635523461618,-0.0031365191623795585,0.8302270331837822,-0.15291692133877585,0.8836863040924072,-0.2543429732322693,-0.05345927090862501,-1.5955759508056533,0.152764993096871,-1.5987093537279342,0.0031334029222809257,-1.5955759508056533,0.152764993096871,-1.6428879499435425,0.5236262083053589,0.047311999137889194,0.0433976785578043,-0.26988551424632723,0.18542609085389544,-0.049156397581100464,-0.28000012040138245,1.862645149230957e-08,0.038835640996694565,-0.2799999713897705,1.4901161193847656e-08,0.12682759761810303,-0.27999991178512573,-1.4901161193847656e-08,,120.0,346.70000000001335,,
1776999790.7012534,346733351416,1.5679881295291933,-0.014845199169479526,1.5682961713678933,-0.000308041838700035,1.5686242381005264,-0.01689861148632648,1.5851422548294067,-0.7367664575576782,-0.01715412530021343,-0.2672094800339821,0.2897423973457213,-0.27322171198916384,0.006012231955181746,-0.2796247814608048,0.32982004134574167,-0.38505786657333374,2.4769515991210938,0.11784838653935165,0.19209039859965513,0.10275957272952184,0.18995811008225164,0.002132288517403491,0.18768720775973727,0.1169734455047024,0.14915645122528076,0.40402066707611084,0.042933947374374365,0.8168880003961787,-0.11365915859798988,0.8192464582248633,-0.0023584578286846014,0.8217582324603849,-0.12938067998167932,0.8683748841285706,-0.4050561487674713,-0.05148688373239185,-1.582250170807752,0.11354623429900573,-1.584606285427141,0.0023561146193888938,-1.587115564128222,0.1292521358083095,-1.627730369567871,0.379025399684906,0.045480198760118995,0.04246984031580358,-0.27311420267576814,0.1742126897051374,-0.049156397581100464,-0.28000012040138245,1.862645149230957e-08,0.038835640996694565,-0.2799999713897705,1.4901161193847656e-08,0.12682759761810303,-0.27999991178512573,-1.4901161193847656e-08,,120.0,346.71666666668,,
1776999790.7690961,346750018084,1.56743627420637,-0.012799624247527269,1.5677025037980148,-0.0002662295916446844,1.56743627420637,-0.012799624247527269,1.5800637006759644,-2.0048224925994873,-0.01262742646959425,-0.25643859832352406,0.2498177203457786,-0.26163475630340416,0.0051961579798801005,-0.25643859832352406,0.2498177203457786,-0.3461274802684784,2.124333620071411,0.08968888194495434,0.1959103821872356,0.08859995098460828,0.19406752115364498,0.0018428610335906315,0.1959103821872356,0.08859995098460828,0.16308318078517914,0.5323012471199036,0.03282720140205647,0.8126628356850975,-0.09799764258695637,0.8147011668004115,-0.0020383311153140404,0.8126628356850975,-0.09799764258695637,0.851879358291626,-0.2874842882156372,-0.039216522606528526,-1.5780292039437165,0.09790027854494135,-1.5800655099066787,0.002036305962962226,-1.5780292039437165,0.09790027854494135,-1.6114840507507324,0.3413257598876953,0.03345484680701594,0.04479186705767893,-0.2754877464924043,0.1632850929422791,-0.049156397581100464,-0.28000012040138245,1.862645149230957e-08,0.038835640996694565,-0.2799999713897705,1.4901161193847656e-08,0.12682759761810303,-0.27999991178512573,-1.4901161193847656e-08,,120.0,346.73333333334665,,
1776999790.8418064,346766684751,1.566576267447844,-0.008700805677130797,1.5667605093847885,-0.00018424193694444035,1.566576267447844,-0.008700805677130797,1.5801423788070679,-1.8338056802749634,-0.01356611135922381,-0.23965334558934068,0.16981869134575872,-0.24324930276663767,0.0035959571772969934,-0.23965334558934068,0.16981869134575872,-0.3149242103099823,2.5588488578796387,0.07527086472064162,0.20186341293082974,0.06022762399993287,0.20058807654071972,0.0012753363901100156,0.20186341293082974,0.06022762399993287,0.17409667372703552,0.4007815718650818,0.027766739203794216,0.8060783740388254,-0.06661589656669936,0.8074889838455714,-0.0014106098067460104,0.8060783740388254,-0.06661589656669936,0.8400475978851318,-0.41075122356414795,-0.03396922384630641,-1.5714512841874653,0.06654971137306935,-1.572860492504657,0.0014092083171917125,-1.5714512841874653,0.06654971137306935,-1.5997841358184814,0.3600524663925171,0.028332851631016176,0.04355859045958294,-0.27730038798900947,0.1542434207847403,-0.049156397581100464,-0.28000012040138245,1.862645149230957e-08,0.038835640996694565,-0.2799999713897705,1.4901161193847656e-08,0.12682759761810303,-0.27999991178512573,-1.4901161193847656e-08,,120.0,346.7500000000133,,
1776999790.9097667,346783351419,1.5660441579703939,-0.004601940072213418,1.5661464402009235,-0.00010228223052966001,1.5661464402009235,-0.005626623080474393,1.5768147706985474,-1.9131659269332886,-0.010770612728153495,-0.22926785504207364,0.08981874434570383,-0.23126415689974436,0.001996301857670718,-0.23126415689974436,0.1098180793457617,-0.2860570549964905,1.7089207172393799,0.056789199954416836,0.20554671430819157,0.03185497143883163,0.20483870910145405,0.0007080052067375275,0.20483870910145405,0.03894790343051528,0.1844041347503662,0.3484393358230591,0.021142579557825364,0.8020043892577121,-0.035233790436541915,0.8027874917360827,-0.0007831024783705454,0.8027874917360827,-0.04307906130283398,0.8278490900993347,-0.21311599016189575,-0.025844700841622603,-1.5673813470509161,0.03519878444904968,-1.568163671489932,0.0007823244390159356,-1.568163671489932,0.0430362607678144,-1.5877948999404907,0.25350457429885864,0.020413552889574582,0.04517237468843715,-0.27841794130057707,0.14602644868334105,-0.049156397581100464,-0.28000012040138245,1.862645149230957e-08,0.038835640996694565,-0.2799999713897705,1.4901161193847656e-08,0.12682759761810303,-0.27999991178512573,-1.4901161193847656e-08,,120.0,346.76666666667995,,
1776999790.981178,346800018087,1.5658399479125649,-0.0005020946324814393,1.5658602846437044,-2.033673113954748e-05,1.565901061133083,-0.002552346978368021,1.5764919519424438,-0.5599074959754944,-0.010652004029878981,-0.22528216842095616,0.009799673339879262,-0.2256790922457589,0.00039692382480274735,-0.22647495073531082,0.0498156423457861,-0.26384690403938293,1.81833016872406,0.03856473561842677,0.2069602715161521,0.0034755363885944053,0.20681949915071127,0.00014077236544082772,0.20653724125856732,0.01766753560954494,0.19227150082588196,0.09350338578224182,0.014688770690270136,0.800440897715082,-0.00384418240665751,0.8005966016381796,-0.0001557039230976054,0.8009087982898063,-0.019541510134211796,0.8195188045501709,-0.20705655217170715,-0.01907790683508892,-1.5658194088911246,0.0038403630786629493,-1.5659749581169966,0.00015554922587202036,-1.5662868445904694,0.019522094969103884,-1.5795257091522217,0.19884136319160461,0.013706300261097093,0.04450935157897385,-0.2792203927298594,0.1395334749894731,-0.049156397581100464,-0.28000012040138245,1.862645149230957e-08,0.038835640996694565,-0.2799999713897705,1.4901161193847656e-08,0.12682759761810303,-0.27999991178512573,-1.4901161193847656e-08,,120.0,346.7833333333466,,
1776999791.0474532,346816684754,1.5658374877309735,-3.940456510699611e-18,1.5658374877309735,0.0,1.5658374877309735,-3.940456510699611e-18,1.5745927095413208,-1.3903512954711914,-0.008755221810347269,-0.22523415162415072,7.690818445832952e-17,-0.22523415162415072,0.0,-0.22523415162415072,7.690818445832952e-17,-0.24544885754585266,1.382763385772705,0.020214705921701936,0.2069773010760949,2.7276133029683036e-17,0.2069773010760949,0.0,0.2069773010760949,2.7276133029683036e-17,0.19883163273334503,0.16872327029705048,0.008145668342749879,0.8004220618499358,-3.016928007399137e-17,0.8004220618499358,0.0,0.8004220618499358,-3.016928007399137e-17,0.8115928173065186,-0.16433583199977875,-0.011170755456582748,-1.5658005917400608,3.013930585242427e-17,-1.5658005917400608,0.0,-1.5658005917400608,3.013930585242427e-17,-1.571781039237976,0.18062740564346313,0.005980447497915264,0.04532315280086952,-0.2796760001814532,0.13431011243744873,-0.049156397581100464,-0.28000012040138245,1.862645149230957e-08,0.038835640996694565,-0.2799999713897705,1.4901161193847656e-08,0.12682759761810303,-0.27999991178512573,-1.4901161193847656e-08,,120.0,346.80000000001326,,
1776999791.1168075,346833351422,1.5658374877309735,-3.940456510699611e-18,1.5658374877309735,0.0,1.5658374877309735,-3.940456510699611e-18,1.573932409286499,0.18315477669239044,-0.008094921555525492,-0.22523415162415072,7.690818445832952e-17,-0.22523415162415072,0.0,-0.22523415162415072,7.690818445832952e-17,-0.23254626989364624,0.7943048477172852,0.007312118269495516,0.2069773010760949,2.7276133029683036e-17,0.2069773010760949,0.0,0.2069773010760949,2.7276133029683036e-17,0.20344461500644684,-0.005684211850166321,0.003532686069648072,0.8004220618499358,-3.016928007399137e-17,0.8004220618499358,0.0,0.8004220618499358,-3.016928007399137e-17,0.8067735433578491,-0.07921113073825836,-0.006351481507913315,-1.5658005917400608,3.013930585242427e-17,-1.5658005917400608,0.0,-1.5658005917400608,3.013930585242427e-17,-1.5669760704040527,0.1494746208190918,0.0011754786639919246,0.04512735729241425,-0.27993598740887526,0.13057064853257583,-0.049156397581100464,-0.28000012040138245,1.862645149230957e-08,0.038835640996694565,-0.2799999713897705,1.4901161193847656e-08,0.12682759761810303,-0.27999991178512573,-1.4901161193847656e-08,,120.0,346.8166666666799,,
1776999791.1844196,346850018089,1.5658374877309735,-3.940456510699611e-18,1.5658374877309735,0.0,1.5658374877309735,-3.940456510699611e-18,1.5731617212295532,-1.3516384363174438,-0.007324233498579691,-0.22523415162415072,7.690818445832952e-17,-0.22523415162415072,0.0,-0.22523415162415072,7.690818445832952e-17,-0.22437362372875214,0.8102167844772339,-0.0008605278953985884,0.2069773010760949,2.7276133029683036e-17,0.2069773010760949,0.0,0.2069773010760949,2.7276133029683036e-17,0.20636621117591858,0.029983587563037872,0.0006110899001763315,0.8004220618499358,-3.016928007399137e-17,0.8004220618499358,0.0,0.8004220618499358,-3.016928007399137e-17,0.8031322956085205,-0.06876806914806366,-0.0027102337585847014,-1.5658005917400608,3.013930585242427e-17,-1.5658005917400608,0.0,-1.5658005917400608,3.013930585242427e-17,-1.5634466409683228,0.11334681510925293,-0.002353950771738056,0.04539539663282004,-0.28007838909031596,0.12829785790525886,-0.049156397581100464,-0.28000012040138245,1.862645149230957e-08,0.038835640996694565,-0.2799999713897705,1.4901161193847656e-08,0.12682759761810303,-0.27999991178512573,-1.4901161193847656e-08,,120.0,346.83333333334656,,
1776999791.2542658,346866684757,1.5658374877309735,-3.940456510699611e-18,1.5658374877309735,0.0,1.5658374877309735,-3.940456510699611e-18,1.57284677028656,-0.011813778430223465,-0.007009282555586527,-0.22523415162415072,7.690818445832952e-17,-0.22523415162415072,0.0,-0.22523415162415072,7.690818445832952e-17,-0.22092406451702118,0.06362749636173248,-0.0043100871071295455,0.2069773010760949,2.7276133029683036e-17,0.2069773010760949,0.0,0.2069773010760949,2.7276133029683036e-17,0.2076002061367035,-0.08658358454704285,-0.0006229050606085806,0.8004220618499358,-3.016928007399137e-17,0.8004220618499358,0.0,0.8004220618499358,-3.016928007399137e-17,0.8017981648445129,0.035163234919309616,-0.001376102994577133,-1.5658005917400608,3.013930585242427e-17,-1.5658005917400608,0.0,-1.5658005917400608,3.013930585242427e-17,-1.562085747718811,0.06249495595693588,-0.0037148440212497746,0.045379570240369996,-0.28011898918124256,0.12733256399205906,-0.049156397581100464,-0.28000012040138245,1.862645149230957e-08,0.038835640996694565,-0.2799999713897705,1.4901161193847656e-08,0.12682759761810303,-0.27999991178512573,-1.4901161193847656e-08,,120.0,346.8500000000132,,
1776999791.325707,346883351424,1.5658374877309735,-3.940456510699611e-18,1.5658374877309735,0.0,1.5658374877309735,-3.940456510699611e-18,1.572446346282959,-0.648179829120636,-0.006608858551985453,-0.22523415162415072,7.690818445832952e-17,-0.22523415162415072,0.0,-0.22523415162415072,7.690818445832952e-17,-0.22106511890888214,-0.06467258185148239,-0.0041690327152685835,0.2069773010760949,2.7276133029683036e-17,0.2069773010760949,0.0,0.2069773010760949,2.7276133029683036e-17,0.2075904905796051,-0.0726008415222168,-0.000613189503510192,0.8004220618499358,-3.016928007399137e-17,0.8004220618499358,0.0,0.8004220618499358,-3.016928007399137e-17,0.8014885783195496,0.05780026689171791,-0.0010665164696137541,-1.5658005917400608,3.013930585242427e-17,-1.5658005917400608,0.0,-1.5658005917400608,3.013930585242427e-17,-1.5618903636932373,0.038162849843502045,-0.003910228046823505,0.04544865123390673,-0.280127586037462,0.1274797278984976,-0.049156397581100464,-0.28000012040138245,1.862645149230957e-08,0.038835640996694565,-0.2799999713897705,1.4901161193847656e-08,0.12682759761810303,-0.27999991178512573,-1.4901161193847656e-08,,120.0,346.86666666667986,,
1776999791.4046988,346900018092,1.5658374877309735,-3.940456510699611e-18,1.5658374877309735,0.0,1.5658374877309735,-3.940456510699611e-18,1.571891188621521,-0.4523421823978424,-0.006053700890547464,-0.22523415162415072,7.690818445832952e-17,-0.22523415162415072,0.0,-0.22523415162415072,7.690818445832952e-17,-0.2215220034122467,-0.0594882108271122,-0.0037121482119040206,0.2069773010760949,2.7276133029683036e-17,0.2069773010760949,0.0,0.2069773010760949,2.7276133029683036e-17,0.20746725797653198,-0.08014015853404999,-0.0004899569004370719,0.8004220618499358,-3.016928007399137e-17,0.8004220618499358,0.0,0.8004220618499358,-3.016928007399137e-17,0.8014095425605774,0.07642754912376404,-0.0009874807106415862,-1.5658005917400608,3.013930585242427e-17,-1.5658005917400608,0.0,-1.5658005917400608,3.013930585242427e-17,-1.5618460178375244,0.024197468534111977,-0.003954573902536396,0.04566066510280725,-0.28012725686088136,0.12763843550154433,-0.049156397581100464,-0.28000012040138245,1.862645149230957e-08,0.038835640996694565,-0.2799999713897705,1.4901161193847656e-08,0.12682759761810303,-0.27999991178512573,-1.4901161193847656e-08,,120.0,346.8833333333465,,
1776999791.475144,346916684759,1.5658374877309735,-3.940456510699611e-18,1.5658374877309735,0.0,1.5658374877309735,-3.940456510699611e-18,1.5719918012619019,-0.3155192732810974,-0.006154313530928324,-0.22523415162415072,7.690818445832952e-17,-0.22523415162415072,0.0,-0.22523415162415072,7.690818445832952e-17,-0.22146302461624146,-0.02160681039094925,-0.0037711270079092696,0.2069773010760949,2.7276133029683036e-17,0.2069773010760949,0.0,0.2069773010760949,2.7276133029683036e-17,0.20748190581798553,-0.09155559539794922,-0.0005046047418906241,0.8004220618499358,-3.016928007399137e-17,0.8004220618499358,0.0,0.8004220618499358,-3.016928007399137e-17,0.8013995289802551,0.08161353319883347,-0.0009774671303193205,-1.5658005917400608,3.013930585242427e-17,-1.5658005917400608,0.0,-1.5658005917400608,3.013930585242427e-17,-1.561842441558838,0.019863471388816833,-0.003958150181222919,0.04558471950768762,-0.28014286010553274,0.1276077250874499,-0.049156397581100464,-0.28000012040138245,1.862645149230957e-08,0.038835640996694565,-0.2799999713897705,1.4901161193847656e-08,0.12682759761810303,-0.27999991178512573,-1.4901161193847656e-08,,120.0,346.90000000001316,,
1776999791.544884,346933351427,1.5658374877309735,-3.940456510699611e-18,1.5658374877309735,0.0,1.5658374877309735,-3.940456510699611e-18,1.5720325708389282,-0.4084378182888031,-0.006195083107954691,-0.22523415162415072,7.690818445832952e-17,-0.22523415162415072,0.0,-0.22523415162415072,7.690818445832952e-17,-0.2213822603225708,-0.01778488978743553,-0.003851891301579924,0.2069773010760949,2.7276133029683036e-17,0.2069773010760949,0.0,0.2069773010760949,2.7276133029683036e-17,0.20750883221626282,-0.08599014580249786,-0.0005315311401679068,0.8004220618499358,-3.016928007399137e-17,0.8004220618499358,0.0,0.8004220618499358,-3.016928007399137e-17,0.8014014363288879,0.07924491167068481,-0.000979374478952133,-1.5658005917400608,3.013930585242427e-17,-1.5658005917400608,0.0,-1.5658005917400608,3.013930585242427e-17,-1.5618406534194946,0.02206781506538391,-0.003959938320566181,0.04559506145989479,-0.2801374350163385,0.12757918792790618,-0.049156397581100464,-0.28000012040138245,1.862645149230957e-08,0.038835640996694565,-0.2799999713897705,1.4901161193847656e-08,0.12682759761810303,-0.27999991178512573,-1.4901161193847656e-08,,120.0,346.9166666666798,,
