inbarajaldrin/isaac-sim-mcp/.planning/saved_runs/2026-04-23-green2x2-postfix/20260423T200215_grasp_move.csv
t_wall,t_sim_ns,ref_pos_shoulder_pan,ref_vel_shoulder_pan,fb_pos_shoulder_pan,err_pos_shoulder_pan,js_pos_shoulder_pan,js_vel_shoulder_pan,isaac_pos_shoulder_pan,isaac_vel_shoulder_pan,isaac_lag_shoulder_pan,ref_pos_shoulder_lift,ref_vel_shoulder_lift,fb_pos_shoulder_lift,err_pos_shoulder_lift,js_pos_shoulder_lift,js_vel_shoulder_lift,isaac_pos_shoulder_lift,isaac_vel_shoulder_lift,isaac_lag_shoulder_lift,ref_pos_elbow_flex,ref_vel_elbow_flex,fb_pos_elbow_flex,err_pos_elbow_flex,js_pos_elbow_flex,js_vel_elbow_flex,isaac_pos_elbow_flex,isaac_vel_elbow_flex,isaac_lag_elbow_flex,ref_pos_wrist_flex,ref_vel_wrist_flex,fb_pos_wrist_flex,err_pos_wrist_flex,js_pos_wrist_flex,js_vel_wrist_flex,isaac_pos_wrist_flex,isaac_vel_wrist_flex,isaac_lag_wrist_flex,ref_pos_wrist_roll,ref_vel_wrist_roll,fb_pos_wrist_roll,err_pos_wrist_roll,js_pos_wrist_roll,js_vel_wrist_roll,isaac_pos_wrist_roll,isaac_vel_wrist_roll,isaac_lag_wrist_roll,tcp_x,tcp_y,tcp_z,cup_red_x,cup_red_y,cup_red_z,cup_green_x,cup_green_y,cup_green_z,cup_blue_x,cup_blue_y,cup_blue_z,attached_lego_xyz,physics_rate_hz,sim_time_s,render_fps,app_dt_ms
1776999735.806908,328566683802,0.002592895439363344,-0.03370465522874733,0.0030390711924945645,-0.0004461757531312206,0.0030390711924945645,-0.01146159443693331,0.0031289528124034405,0.14461414515972137,-0.0005360573730400966,-0.0004472362745887772,0.03999510124108785,-0.0009766837439870572,0.00052944746939828,-0.0009766837439870572,0.01360072152580434,0.001267597428523004,0.0029481202363967896,-0.0017148337031117813,0.004191154779589609,-0.02727852217316492,0.004552262617433258,-0.0003611078378436489,0.004552262617433258,-0.009276325654891731,0.005129869095981121,-0.00726013258099556,-0.0009387143163915122,1.5716585897933357,-0.013218598601045174,1.5718335750630599,-0.0001749852697241483,1.5718335750630599,-0.004495112475163624,1.5718967914581299,-0.02445438876748085,-0.0002382016647941576,-1.5148651952807928,0.028383399756389774,-1.5152409292758977,0.0003757339951049321,-1.5152409292758977,0.00965204997770155,-1.5153110027313232,0.004384263418614864,0.00044580745053046655,0.23093257968195322,0.007145358276297849,0.07423383178100734,-0.049156397581100464,-0.28000012040138245,1.862645149230957e-08,0.038835640996694565,-0.2799999713897705,1.4901161193847656e-08,0.12682759761810303,-0.27999991178512573,-1.4901161193847656e-08,,120.0,328.5333333333632,,
1776999735.8269875,328583350470,0.0017005116321878139,-0.054624926837384735,0.002592895439363344,-0.00089238380717553,0.002592895439363344,-0.03370465522874733,0.003128961194306612,0.1441522091627121,-0.0014284495621187982,0.0006116969935803986,0.06481981388982788,-0.0004472362745887772,0.0010589332681691759,-0.0004472362745887772,0.03999510124108785,0.0012673231540247798,0.003141738474369049,-0.0006556261604443812,0.0034689129614846577,-0.04421013263088316,0.004191154779589609,-0.0007222418181049512,0.004191154779589609,-0.02727852217316492,0.0051298136822879314,-0.006757728755474091,-0.0016609007208032737,1.5713086065858213,-0.021423301219786296,1.5716585897933357,-0.0003499832075144482,1.5716585897933357,-0.013218598601045174,1.571897029876709,-0.02473326586186886,-0.0005884232908877074,-1.5141137000893041,0.0460008009150856,-1.5148651952807928,0.0007514951914886492,-1.5148651952807928,0.028383399756389774,-1.5153110027313232,0.0044093350879848,0.0011973026420191157,0.23093256351843142,0.007145317177039202,0.07423383178098239,-0.049156397581100464,-0.28000012040138245,1.862645149230957e-08,0.038835640996694565,-0.2799999713897705,1.4901161193847656e-08,0.12682759761810303,-0.27999991178512573,-1.4901161193847656e-08,,120.0,328.55000000002985,,
1776999735.8759089,328583350470,-0.001092233527203652,-0.08427159219146671,0.0004459919240045161,-0.001538225451208168,0.0004459919240045161,-0.07011625782045058,0.0031289684120565653,0.14450326561927795,-0.004221201939260217,0.003925664296683141,0.09999956500283838,0.0021003531568671843,0.001825311139815957,0.0021003531568671843,0.08320235917391279,0.0012675697216764092,0.0028659403324127197,0.002658094575006732,0.0012086328833344458,-0.06820436169903737,0.0024535801107524458,-0.001244947227418,0.0024535801107524458,-0.05674788484479597,0.005129863508045673,-0.007116587832570076,-0.003921230624711228,1.570213322358571,-0.033050400399789126,1.5708165976230528,-0.000603275264481784,1.5708165976230528,-0.027498832468226708,1.5718969106674194,-0.024525608867406845,-0.001683588308848405,-1.5117618705945715,0.07096688196468745,-1.5130572426314846,0.0012953720369131005,-1.5130572426314846,0.059046376876837434,-1.5153110027313232,0.004389756824821234,0.003549132136751787,0.23093255873759727,0.007145281608324643,0.07423383034504338,-0.049156397581100464,-0.28000012040138245,1.862645149230957e-08,0.038835640996694565,-0.2799999713897705,1.4901161193847656e-08,0.12682759761810303,-0.27999991178512573,-1.4901161193847656e-08,,120.0,328.5666666666965,,
1776999735.9193108,328600017137,-0.005141022254814829,-0.11800715395554137,-0.002947051393814363,-0.002193970861000466,-0.002947051393814363,-0.10113300126950935,0.0031289856415241957,0.14443854987621307,-0.008270007896339025,0.008730096027718019,0.14003134100001083,0.00612665486773047,0.002603441159987548,0.00612665486773047,0.12000789200001036,0.0012672529555857182,0.0032589808106422424,0.0074628430721323,-0.0020682133662720714,-0.09550789776430406,-0.0002925452167865027,-0.0017756681494855687,-0.0002925452167865027,-0.08185097277648544,0.005129802040755749,-0.006950732320547104,-0.00719801540702782,1.5686254315272419,-0.046281120207407746,1.569485882997733,-0.0008604514704910748,1.569485882997733,-0.039663261351539844,1.571897029876709,-0.024647962301969528,-0.0032715983494671086,-1.508352300367403,0.09937630876512224,-1.5101998894193904,0.0018475890519873417,-1.5101998894193904,0.08516622953459718,-1.5153110027313232,0.004405559506267309,0.006958702363920155,0.2309325765364135,0.0071452654036486965,0.07423383015940269,-0.049156397581100464,-0.28000012040138245,1.862645149230957e-08,0.038835640996694565,-0.2799999713897705,1.4901161193847656e-08,0.12682759761810303,-0.27999991178512573,-1.4901161193847656e-08,,120.0,328.58333333336316,,
1776999735.9853678,328616683805,-0.017272365760945662,-0.1853977615309119,-0.013746100527912817,-0.0035262652330328454,-0.013746100527912817,-0.16860908757807033,0.0031289777252823114,0.1442207396030426,-0.020401343486227973,0.023125564796800228,0.2199993500000406,0.018941177386784927,0.004184387410015301,0.018941177386784927,0.20007733300000277,0.0012675859034061432,0.0029276832938194275,0.021857978893394085,-0.011886593663484461,-0.1500498051219519,-0.009032646524879598,-0.0028539471386048627,-0.009032646524879598,-0.13646206148320328,0.005129869561642408,-0.007167000323534012,-0.01701646322512687,1.5638676507634068,-0.0727109823428904,1.5652506135725488,-0.0013829628091419632,1.5652506135725488,-0.06612664731497218,1.5718969106674194,-0.024504510685801506,-0.008029259904012598,-1.49813624059822,0.15612735818710524,-1.5011057827898535,0.0029695421916335896,-1.5011057827898535,0.1419892623973964,-1.5153110027313232,0.004378768149763346,0.017174762133103316,0.23093256080382538,0.007145319070494175,0.07423381558663776,-0.049156397581100464,-0.28000012040138245,1.862645149230957e-08,0.038835640996694565,-0.2799999713897705,1.4901161193847656e-08,0.12682759761810303,-0.27999991178512573,-1.4901161193847656e-08,,120.0,328.6000000000298,,
1776999736.0228608,328633350472,-0.025356481113724866,-0.21908357924549846,-0.02114861674635037,-0.0042078643673744975,-0.02114861674635037,-0.2022511192683892,0.0030082524754107,0.060717061161994934,-0.028364733589135566,0.03271845366585078,0.2599720979999843,0.027725257318351345,0.004993196347499434,0.027725257318351345,0.2399981230000314,0.0014145541936159134,0.019817836582660675,0.031303899472234865,-0.01842939074609998,-0.1773130813433561,-0.01502379823467759,-0.0034055925114223912,-0.01502379823467759,-0.16368989992826033,0.005026113707572222,-0.01356562227010727,-0.023455504453672203,1.5606971487906751,-0.08592219307611343,1.5623474273549418,-0.001650278564266694,1.5623474273549418,-0.07932068564647683,1.5718474388122559,-0.02664773538708687,-0.011150290021580744,-1.4913284368637676,0.1844948944762311,-1.4948719680362208,0.003543531172453207,-1.4948719680362208,0.17031992555365108,-1.5152044296264648,0.007848592475056648,0.02387599276269725,0.23094950229894612,0.007170648112790462,0.07422253900695297,-0.049156397581100464,-0.28000012040138245,1.862645149230957e-08,0.038835640996694565,-0.2799999713897705,1.4901161193847656e-08,0.12682759761810303,-0.27999991178512573,-1.4901161193847656e-08,,120.0,328.61666666669646,,
1776999736.090618,328650017140,-0.04002519093497623,-0.26966798605710046,-0.03480094751167044,-0.00522424342330579,-0.03480094751167044,-0.2528155223740682,0.0017117105890065432,-0.7578818202018738,-0.041736901523982774,0.05012484843225385,0.319997292084297,0.043925581796676716,0.0061992666355771345,0.043925581796676716,0.2999995800000087,0.00298156775534153,0.12289439886808395,0.04714328067691232,-0.030301362834081438,-0.21825305991491437,-0.02607317420276415,-0.004228188631317287,-0.02607317420276415,-0.20461368870253732,0.003928994294255972,0.04046790301799774,-0.03423035712833741,1.5549442406002052,-0.10576084635936352,1.5569931319577386,-0.002048891357533389,1.5569931319577386,-0.09915149369426118,1.5713191032409668,-0.08529820293188095,-0.0163748626407616,-1.4789756075011358,0.227093088412033,-1.483375052874542,0.004399445373406197,-1.483375052874542,0.21290127394759098,-1.5140836238861084,0.025975603610277176,0.03510801638497263,0.23112227130620727,0.007443176219834625,0.07410002148502354,-0.049156397581100464,-0.28000012040138245,1.862645149230957e-08,0.038835640996694565,-0.2799999713897705,1.4901161193847656e-08,0.12682759761810303,-0.27999991178512573,-1.4901161193847656e-08,,120.0,328.6333333333631,,
1776999736.1286077,328666683807,-0.05148827618289361,-0.30338280602857687,-0.04558928301968677,-0.005898993163206842,-0.04558928301968677,-0.2865287836802363,-0.002538406988605857,-0.8353517651557922,-0.04894986919428775,0.06372733900556314,0.36000445515814206,0.056727391159138864,0.006999947846424277,0.056727391159138864,0.34000489350808,0.008052131161093712,0.25483226776123047,0.05567520784446943,-0.039578895061780604,-0.2455398088199067,-0.034804604545833194,-0.00477429051594741,-0.034804604545833194,-0.23189917611751112,0.0004449223924893886,0.017233043909072876,-0.04002381745426999,1.5504485434452133,-0.1189834314617752,1.5527620642999904,-0.002313520854777096,1.5527620642999904,-0.1123734675050538,1.5696353912353516,-0.13520976901054382,-0.01918684779013824,-1.469322302080118,0.2554850481122719,-1.4742899684150845,0.004967666334966481,-1.4742899684150845,0.24129192106292494,-1.5105000734329224,0.09856060147285461,0.041177771352804315,0.2316533840473971,0.008338019472606727,0.07370624121652113,-0.049156397581100464,-0.28000012040138245,1.862645149230957e-08,0.038835640996694565,-0.2799999713897705,1.4901161193847656e-08,0.12682759761810303,-0.27999991178512573,-1.4901161193847656e-08,,120.0,328.65000000002976,,
1776999736.1954157,328683350475,-0.06429630959954591,-0.3370879593676118,-0.05772451654522048,-0.0065717930543254255,-0.06429630959954591,-0.3370879593676118,-0.0074965800158679485,-1.1057593822479248,-0.05679972958367796,0.0789257912585721,0.40000014747400214,0.07112747595881956,0.007798315299752542,0.0789257912585721,0.40000014747400214,0.013907118700444698,0.2693355679512024,0.0650186725581274,-0.04994494750111219,-0.2728187341336007,-0.04462613319094635,-0.0053188143101658425,-0.04994494750111219,-0.2728187341336007,-0.0034302554558962584,0.024325743317604065,-0.04651469204521593,1.545425372270355,-0.1322022254162586,1.5480027579129236,-0.002577385642568597,1.545425372270355,-0.1322022254162586,1.5677459239959717,-0.15647917985916138,-0.022320551725616644,-1.458536387490849,0.2838688673378237,-1.4640706327786657,0.005534245287816653,-1.458536387490849,0.2838688673378237,-1.5064456462860107,0.11573426425457001,0.047909258795161724,0.2322284799503456,0.009299709165316927,0.073267528063682,-0.049156397581100464,-0.28000012040138245,1.862645149230957e-08,0.038835640996694565,-0.2799999713897705,1.4901161193847656e-08,0.12682759761810303,-0.27999991178512573,-1.4901161193847656e-08,,120.0,328.6666666666964,,
1776999736.246882,328700017143,-0.08603906662327165,-0.38765232631736113,-0.07845290345783482,-0.007586163165436838,-0.08603906662327165,-0.38765232631736113,-0.019329776987433434,-1.4224900007247925,-0.06670928963583822,0.1047264933432676,0.4600015615701126,0.09572449163834364,0.009002001704923962,0.1047264933432676,0.4600015615701126,0.028245965018868446,0.700527012348175,0.07648052832439915,-0.0675422282195206,-0.31374249364544216,-0.061402443708652416,-0.00613978451086819,-0.0675422282195206,-0.31374249364544216,-0.01340411975979805,-0.18877354264259338,-0.054138108459722556,1.5368980998319857,-0.15203301928403154,1.53987331038155,-0.0029752105495644,1.5368980998319857,-0.15203301928403154,1.562939167022705,-0.20467689633369446,-0.026041067190719414,-1.4402263540482259,0.32645018528405917,-1.4466148217622683,0.006388467714042445,-1.4402263540482259,0.32645018528405917,-1.4962096214294434,0.2622606158256531,0.055983267381217505,0.2337158390011263,0.01175045123765386,0.07215265078957592,-0.049156397581100464,-0.28000012040138245,1.862645149230957e-08,0.038835640996694565,-0.2799999713897705,1.4901161193847656e-08,0.12682759761810303,-0.27999991178512573,-1.4901161193847656e-08,,120.0,328.68333333336307,,
1776999736.3014996,328716683810,-0.11974689589742507,-0.45506786079740214,-0.11081322588783579,-0.008933670009589278,-0.11081322588783579,-0.43821182198733505,-0.029708536341786385,-1.5453282594680786,-0.09003835955563869,0.14472536101562428,0.5399991496911628,0.13412436141889075,0.010600999596733524,0.13412436141889075,0.5199971952383743,0.040109697729349136,0.49287599325180054,0.10461566328627514,-0.09482331927426582,-0.36830457534153543,-0.08759294371366773,-0.007230375560598093,-0.08759294371366773,-0.35466231063621445,-0.021073101088404655,-0.1131906658411026,-0.07375021818586117,1.5236782564049038,-0.1784726574799552,1.527181944458959,-0.0035036880540550985,1.527181944458959,-0.17186190268890822,1.5591799020767212,-0.1987200379371643,-0.03550164567181735,-1.4118402813613764,0.3832222261772588,-1.4193635129581077,0.007523231596731295,-1.4193635129581077,0.36902740102303966,-1.4880976676940918,0.23348428308963776,0.0762573863327154,0.23477173907228616,0.01382334767573794,0.07125075603520112,-0.049156397581100464,-0.28000012040138245,1.862645149230957e-08,0.038835640996694565,-0.2799999713897705,1.4901161193847656e-08,0.12682759761810303,-0.27999991178512573,-1.4901161193847656e-08,,120.0,328.7000000000297,,
1776999736.3674567,328733350478,-0.14856730146524316,-0.5056300979801615,-0.13862418040347502,-0.009943121061768145,-0.13862418040347502,-0.48877732231493426,-0.0436972975730896,-1.465437889099121,-0.10487000389215356,0.178924643894239,0.5999980365326514,0.16712579501657315,0.011798848877665857,0.16712579501657315,0.5799999542395692,0.05736628174781799,0.8245338201522827,0.12155836214642102,-0.11814882333255358,-0.409226611147988,-0.1101014587619002,-0.008047364570653387,-0.1101014587619002,-0.39558698743597065,-0.033155087381601334,-0.24767076969146729,-0.08499373595095225,1.512375207311686,-0.19830261607630137,1.5162747910714118,-0.0038995837597257665,1.5162747910714118,-0.19169314105510965,1.5533652305603027,-0.24122999608516693,-0.04099002324861667,-1.387570011073166,0.4258017506018801,-1.3959433226530344,0.008373311579868536,-1.3959433226530344,0.41160967341062094,-1.4756860733032227,0.33807289600372314,0.08811606223005675,0.23650888276738857,0.016588790238205045,0.06990227193912546,-0.049156397581100464,-0.28000012040138245,1.862645149230957e-08,0.038835640996694565,-0.2799999713897705,1.4901161193847656e-08,0.12682759761810303,-0.27999991178512573,-1.4901161193847656e-08,,120.0,328.71666666669637,,
1776999736.4250903,328750017145,-0.18024388260569657,-0.5358693132517043,-0.16949133701729133,-0.010752545588405243,-0.16949133701729133,-0.5368132137230677,-0.0625319555401802,-2.249805450439453,-0.11771192706551636,0.2165131627823771,0.6358809277246156,0.20375382296747574,0.01275933981490135,0.20375382296747574,0.6370009924354821,0.07922413945198059,1.0246384143829346,0.1372890233303965,-0.14378594423307864,-0.4337004145049852,-0.13508348009984203,-0.00870246413323661,-0.13508348009984203,-0.4344643508147482,-0.0479419119656086,-0.3998883068561554,-0.09584403226747004,1.499951997274155,-0.21016210687873488,1.5041690285153293,-0.0042170312411742295,1.5041690285153293,-0.2105322943607362,1.5461944341659546,-0.24056674540042877,-0.04624243689179952,-1.360894495203823,0.45126683041195464,-1.3699494402184869,0.009054945014663751,-1.3699494402184869,0.45206170887094954,-1.4603222608566284,0.4048110246658325,0.09942776565280531,0.2384364175633579,0.020757143934979027,0.06811806549312314,-0.049156397581100464,-0.28000012040138245,1.862645149230957e-08,0.038835640996694565,-0.2799999713897705,1.4901161193847656e-08,0.12682759761810303,-0.27999991178512573,-1.4901161193847656e-08,,120.0,328.733333333363,,
1776999736.476765,328766683813,-0.1908380167844237,-0.5216206369739568,-0.18024388260569657,-0.010594134178727121,-0.1908380167844237,-0.5216206369739568,-0.08372945338487625,-2.1290781497955322,-0.10710856339954744,0.22908452617904135,0.6189729591840009,0.2165131627823771,0.012571363396664259,0.22908452617904135,0.6189729591840009,0.10468294471502304,1.2490262985229492,0.12440158146401831,-0.15236019969240777,-0.42216839232161807,-0.14378594423307864,-0.008574255459329133,-0.15236019969240777,-0.42216839232161807,-0.06524957716464996,-0.4552808701992035,-0.08711062252775781,1.495797093262118,-0.20457393126812679,1.499951997274155,-0.004154904012036997,1.495797093262118,-0.20457393126812679,1.5378128290176392,-0.28944697976112366,-0.04201573575552109,-1.3519729517723045,0.43926772013930704,-1.360894495203823,0.00892154343151863,-1.3519729517723045,0.43926772013930704,-1.4423635005950928,0.483735591173172,0.0903905488227883,0.2406509704164942,0.02507517576966628,0.06599961258074574,-0.049156397581100464,-0.28000012040138245,1.862645149230957e-08,0.038835640996694565,-0.2799999713897705,1.4901161193847656e-08,0.12682759761810303,-0.27999991178512573,-1.4901161193847656e-08,,120.0,328.7500000000297,,
1776999736.5393984,328783350480,-0.22970119181561185,-0.4518781219525269,-0.22049824985301525,-0.009202941962596606,-0.22049824985301525,-0.4687268245068192,-0.10824160277843475,-2.7905478477478027,-0.1214595890371771,0.2752009041503775,0.5362140960489395,0.2642803772079754,0.010920526942402087,0.2642803772079754,0.5562073450487144,0.13373632729053497,1.4277859926223755,0.14146457685984254,-0.18381371774838373,-0.36572299243507644,-0.17636540965321826,-0.007448308095165473,-0.17636540965321826,-0.3793593196159091,-0.08503976464271545,-0.550451934337616,-0.09877395310566828,1.4805553793916382,-0.17722167665413077,1.4841646729722053,-0.0036092935805671633,1.4841646729722053,-0.18382955424557537,1.5282325744628906,-0.30950048565864563,-0.047677195071252454,-1.3192454538873268,0.38053607994201755,-1.3269954450647006,0.0077499911773737384,-1.3269954450647006,0.3947247270808034,-1.4218302965164185,0.5408574938774109,0.10258484262909162,0.24296186811282564,0.030494813993153805,0.06350489779970973,-0.049156397581100464,-0.28000012040138245,1.862645149230957e-08,0.038835640996694565,-0.2799999713897705,1.4901161193847656e-08,0.12682759761810303,-0.27999991178512573,-1.4901161193847656e-08,,120.0,328.7666666666963,,
1776999736.5839994,328800017148,-0.24710471274903345,-0.4181641557181284,-0.23857465449557155,-0.008530058253461897,-0.24710471274903345,-0.4181641557181284,-0.13577744364738464,-2.9582090377807617,-0.11132726910164881,0.29585251969011767,0.4962079460488231,0.2857304596623801,0.010122060027737578,0.29585251969011767,0.4962079460488231,0.1664024442434311,1.6182950735092163,0.12945007544668657,-0.19789908157873545,-0.3384369344935567,-0.190995365115053,-0.006903716463682458,-0.19789908157873545,-0.3384369344935567,-0.1072879210114479,-0.6188899278640747,-0.09061116056728755,1.4737299080760993,-0.163999426378154,1.4770753039963624,-0.0033453959202631722,1.4737299080760993,-0.163999426378154,1.517462968826294,-0.34419524669647217,-0.043733060750194674,-1.3045895825108216,0.3521448391917139,-1.3117729241504292,0.007183341639607654,-1.3045895825108216,0.3521448391917139,-1.3987380266189575,0.6140711903572083,0.09414844410813594,0.24536304114787602,0.03656001517622014,0.060593371549935174,-0.049156397581100464,-0.28000012040138245,1.862645149230957e-08,0.038835640996694565,-0.2799999713897705,1.4901161193847656e-08,0.12682759761810303,-0.27999991178512573,-1.4901161193847656e-08,,120.0,328.783333333363,,
1776999736.6444173,328816683815,-0.270700421558172,-0.36754881189893807,-0.26315746354189345,-0.007542958016278523,-0.270700421558172,-0.36754881189893807,-0.15812994539737701,-2.238483190536499,-0.11257047616079496,0.32385199798983383,0.4361460410490002,0.31490126499847465,0.008950732991359178,0.32385199798983383,0.4361460410490002,0.19284413754940033,1.1798831224441528,0.1310078604404335,-0.2169960301033015,-0.29747191736748946,-0.21089121324337978,-0.00610481685992173,-0.2169960301033015,-0.29747191736748946,-0.1247778981924057,-0.4475690722465515,-0.09221813191089581,1.4644759281336126,-0.14414863993747268,1.4674341940943554,-0.0029582659607427786,1.4644759281336126,-0.14414863993747268,1.5089420080184937,-0.3246535062789917,-0.04446607988488105,-1.2847191393592792,0.30952059255053677,-1.2910712231076125,0.006352083748333293,-1.2847191393592792,0.30952059255053677,-1.3803573846817017,0.5428186058998108,0.09563824532242249,0.24703779666597125,0.04149159057942395,0.058176815446205565,-0.049156397581100464,-0.28000012040138245,1.862645149230957e-08,0.038835640996694565,-0.2799999713897705,1.4901161193847656e-08,0.12682759761810303,-0.27999991178512573,-1.4901161193847656e-08,,120.0,328.8000000000296,,
1776999736.712744,328833350483,-0.29738739096801653,-0.3001880500804131,-0.29121722289577934,-0.006170168072237192,-0.29121722289577934,-0.31703676190493435,-0.18699389696121216,-2.924393653869629,-0.11039349400680437,0.3555196722657061,0.3562134480488797,0.3481979389606529,0.007321733305053202,0.3481979389606529,0.37620670804902767,0.2275891751050949,1.7691200971603394,0.12793049716061117,-0.23859485916238377,-0.2429541653715957,-0.2336010959736382,-0.004993763188745559,-0.2336010959736382,-0.2565905000551931,-0.14932583272457123,-0.6432911157608032,-0.08926902643781254,1.4540095894598257,-0.1177304829826947,1.456429462159736,-0.002419872699910286,1.456429462159736,-0.1243383642098267,1.4971383810043335,-0.39157211780548096,-0.04312879154450777,-1.2622454805751928,0.25279467686873885,-1.2674415090101327,0.005196028434939937,-1.2674415090101327,0.2669833318141723,-1.3551297187805176,0.6726124286651611,0.09288423820532477,0.249340802017654,0.048030793949260756,0.054935921244458535,-0.049156397581100464,-0.28000012040138245,1.862645149230957e-08,0.038835640996694565,-0.2799999713897705,1.4901161193847656e-08,0.12682759761810303,-0.27999991178512573,-1.4901161193847656e-08,,120.0,328.8166666666963,,
1776999736.76564,328850017150,-0.31388272628489056,-0.2496216758535758,-0.308721657182459,-0.005161069102431581,-0.308721657182459,-0.26647635750341664,-0.22465726733207703,-4.650546073913574,-0.08922545895281353,0.37509360356767507,0.29620965204883465,0.3689693017505204,0.006124301817154676,0.3689693017505204,0.31620999604870415,0.2716689705848694,2.183330535888672,0.10342463298280569,-0.2519451921398696,-0.20202878129031646,-0.24776813300686784,-0.004177059133001759,-0.24776813300686784,-0.2156699475917243,-0.1792711466550827,-0.8549923896789551,-0.0726740454847869,1.4475402986492918,-0.09789890188276298,1.4495644137264032,-0.0020241150771114214,1.4495644137264032,-0.10450912441034098,1.4826550483703613,-0.3688902258872986,-0.03511474972106954,-1.2483544114265248,0.21021166855221468,-1.2527006563743066,0.004346244947781797,-1.2527006563743066,0.22440535081323731,-1.324117660522461,0.7712141871452332,0.07576324909593612,0.25134496917917415,0.05737258647889434,0.05047415983740933,-0.049156397581100464,-0.28000012040138245,1.862645149230957e-08,0.038835640996694565,-0.2799999713897705,1.4901161193847656e-08,0.12682759761810303,-0.27999991178512573,-1.4901161193847656e-08,,120.0,328.83333333336293,,
1776999736.8266518,328866683818,-0.32734259770028373,-0.19906076076420634,-0.3231927837249774,-0.004149813975306338,-0.3231927837249774,-0.21591536656959076,-0.247314453125,-2.1749091148376465,-0.08002814457528373,0.3910655491727303,0.23621233404879732,0.38614123741378686,0.004924311758943423,0.38614123741378686,0.2562125880490231,0.2984517216682434,1.1058990955352783,0.09261382750448688,-0.262838803077613,-0.1611078155068011,-0.2594801930644967,-0.00335861001311627,-0.2594801930644967,-0.17474892042426213,-0.19567349553108215,-0.48554033041000366,-0.06716530754653083,1.4422614837124739,-0.07806946179700151,1.443888995545374,-0.0016275118329001081,1.443888995545374,-0.08467965457922824,1.4745368957519531,-0.2688327729701996,-0.032275412039479257,-1.2370195703352909,0.16763325749028038,-1.2405142160504412,0.0034946457151503463,-1.2405142160504412,0.18182687588108012,-1.3064237833023071,0.5070906281471252,0.06940421296701627,0.2521219211249678,0.062360819068065974,0.04767663212248546,-0.049156397581100464,-0.28000012040138245,1.862645149230957e-08,0.038835640996694565,-0.2799999713897705,1.4901161193847656e-08,0.12682759761810303,-0.27999991178512573,-1.4901161193847656e-08,,120.0,328.8500000000296,,
1776999736.884384,328883350485,-0.3377702075781471,-0.1484927078402051,-0.3346322661892736,-0.0031379413888734664,-0.3346322661892736,-0.16534477200295905,-0.2676395773887634,-1.4161359071731567,-0.07013063018938365,0.4034393091158967,0.1762065460490686,0.39971572011358153,0.003723589002315175,0.39971572011358153,0.19620378404887517,0.3238421678543091,1.3019424676895142,0.07959714126158762,-0.27127828377652236,-0.12018107278894297,-0.2687386226177437,-0.0025396611587786277,-0.2687386226177437,-0.13382012065361917,-0.2143566757440567,-0.4717656075954437,-0.056921608032465654,1.438171888717113,-0.05823722233030817,1.439402555144989,-0.0012306664278758372,1.439402555144989,-0.06484641830797873,1.465583086013794,-0.31176286935806274,-0.027411197296680845,-1.2282382605233864,0.12504883550751675,-1.2308807870304233,0.002642526507036891,-1.2308807870304233,0.13924031352755714,-1.2872858047485352,0.5221664309501648,0.059047544225148796,0.25359993871186465,0.06662734007159374,0.04525564211432301,-0.049156397581100464,-0.28000012040138245,1.862645149230957e-08,0.038835640996694565,-0.2799999713897705,1.4901161193847656e-08,0.12682759761810303,-0.27999991178512573,-1.4901161193847656e-08,,120.0,328.86666666669623,,
1776999736.9292774,328900017153,-0.3405713801232648,-0.13163919757021936,-0.3377702075781471,-0.002801172545117747,-0.3405713801232648,-0.13163919757021936,-0.28960391879081726,-3.1282994747161865,-0.05096746133244756,0.4067632766442809,0.15620759204876242,0.4034393091158967,0.0033239675283842085,0.4067632766442809,0.15620759204876242,0.3486126959323883,1.2605940103530884,0.05815058071189261,-0.2735453844741637,-0.10654085453198837,-0.27127828377652236,-0.0022671006976413555,-0.2735453844741637,-0.10654085453198837,-0.2310909479856491,-0.46803173422813416,-0.0424544364885146,1.437073299360987,-0.05162745920513689,1.438171888717113,-0.0010985893561261673,1.437073299360987,-0.05162745920513689,1.4574755430221558,-0.26164382696151733,-0.02040224366116883,-1.2258793341497116,0.1108561396901292,-1.2282382605233864,0.0023589263736747412,-1.2258793341497116,0.1108561396901292,-1.269821047782898,0.4318101406097412,0.04394171363318633,0.25394876612673595,0.07273702885555662,0.04255681518730209,-0.049156397581100464,-0.28000012040138245,1.862645149230957e-08,0.038835640996694565,-0.2799999713897705,1.4901161193847656e-08,0.12682759761810303,-0.27999991178512573,-1.4901161193847656e-08,,120.0,328.8833333333629,,
1776999736.9961486,328916683821,-0.3484056885924964,-0.06422326628334749,-0.3469523088968164,-0.0014533796956799905,-0.3469523088968164,-0.08108150841151526,-0.30349913239479065,-0.9162724018096924,-0.04490655619770573,0.4160597360874734,0.07620953306310643,0.41433510583459016,0.0017246302528832191,0.41433510583459016,0.0962141020487896,0.36535781621932983,0.8655970096588135,0.05070191986814354,-0.279886002879513,-0.05197845168429817,-0.2787097247070892,-0.0011762781724237725,-0.2787097247070892,-0.06562249962285674,-0.24176186323165894,-0.3445098102092743,-0.03812413964785405,1.4340007689265781,-0.025187665385875392,1.4345707686100546,-0.0005699996834764853,1.4345707686100546,-0.03179928429432272,1.4522303342819214,-0.18289077281951904,-0.018229565355343258,-1.21928189805111,0.05408376463755002,-1.2205058196910243,0.0012239216399143604,-1.2205058196910243,0.06828044525233352,-1.2584433555603027,0.3420136868953705,0.039161457509192754,0.25434964078660594,0.07554683287690055,0.040718853353054724,-0.049156397581100464,-0.28000012040138245,1.862645149230957e-08,0.038835640996694565,-0.2799999713897705,1.4901161193847656e-08,0.12682759761810303,-0.27999991178512573,-1.4901161193847656e-08,,120.0,328.90000000002954,,
1776999737.0568283,328933350488,-0.35030071978692506,-0.03050685362808472,-0.3495220251091922,-0.0007786946777328385,-0.35030071978692506,-0.03050685362808472,-0.32019373774528503,-1.5121541023254395,-0.03010698204164003,0.4183084451741501,0.03620048005599073,0.4173844193308222,0.0009240258433279025,0.4183084451741501,0.03620048005599073,0.3859573006629944,1.15231192111969,0.03235114451115573,-0.2814197272302066,-0.024690413756775026,-0.2807894985603538,-0.0006302286698527948,-0.2814197272302066,-0.024690413756775026,-0.25686973333358765,-0.39383310079574585,-0.024549993896618938,1.433257558336658,-0.011964455650231179,1.4335629539061383,-0.00030539556948028235,1.433257558336658,-0.011964455650231179,1.4449940919876099,-0.23800450563430786,-0.011736533650951841,-1.2176860523859558,0.0256904637047728,-1.2183418075680297,0.0006557551820738361,-1.2176860523859558,0.0256904637047728,-1.2430250644683838,0.38447582721710205,0.025339012082427947,0.25507047063919086,0.07954329903084065,0.03856096615056129,-0.049156397581100464,-0.28000012040138245,1.862645149230957e-08,0.038835640996694565,-0.2799999713897705,1.4901161193847656e-08,0.12682759761810303,-0.27999991178512573,-1.4901161193847656e-08,,120.0,328.9166666666962,,
1776999737.105889,328950017156,-0.3508529011591079,-8.601643855562412e-17,-0.3508529011591079,0.0,-0.3508529011591079,-8.601643855562412e-17,-0.3344980478286743,-2.5356032848358154,-0.016354853330433572,0.41896368255112404,1.0207005961288562e-16,0.41896368255112404,0.0,0.41896368255112404,1.0207005961288562e-16,0.4017825722694397,0.8222527503967285,0.017181110281684342,-0.281866629644798,-6.961653547474873e-17,-0.281866629644798,0.0,-0.281866629644798,-6.961653547474873e-17,-0.26679959893226624,-0.24925597012043,-0.015067030712531737,1.4330409988179702,-3.3734710135502364e-17,1.4330409988179702,0.0,1.4330409988179702,-3.3734710135502364e-17,1.4401218891143799,-0.1920558363199234,-0.007080890296409681,-1.2172210488272985,7.243625382237434e-17,-1.2172210488272985,0.0,-1.2172210488272985,7.243625382237434e-17,-1.232442855834961,0.2356271892786026,0.015221807007662402,0.2548037431706995,0.0835780451034661,0.036672160225889525,-0.049156397581100464,-0.28000012040138245,1.862645149230957e-08,0.038835640996694565,-0.2799999713897705,1.4901161193847656e-08,0.12682759761810303,-0.27999991178512573,-1.4901161193847656e-08,,120.0,328.93333333336284,,
1776999737.1487532,328966683823,-0.3508529011591079,-8.601643855562412e-17,-0.3508529011591079,0.0,-0.3508529011591079,-8.601643855562412e-17,-0.34099990129470825,0.10002957284450531,-0.009852999864399636,0.41896368255112404,1.0207005961288562e-16,0.41896368255112404,0.0,0.41896368255112404,1.0207005961288562e-16,0.4102126657962799,0.4891151785850525,0.008751016754844132,-0.281866629644798,-6.961653547474873e-17,-0.281866629644798,0.0,-0.281866629644798,-6.961653547474873e-17,-0.2723262310028076,-0.1617262363433838,-0.009540398641990355,1.4330409988179702,-3.3734710135502364e-17,1.4330409988179702,0.0,1.4330409988179702,-3.3734710135502364e-17,1.4374029636383057,-0.11899277567863464,-0.004361964820335462,-1.2172210488272985,7.243625382237434e-17,-1.2172210488272985,0.0,-1.2172210488272985,7.243625382237434e-17,-1.2265452146530151,0.1874098777770996,0.009324165825716602,0.2551393924973281,0.08449267822861146,0.0357870534925802,-0.049156397581100464,-0.28000012040138245,1.862645149230957e-08,0.038835640996694565,-0.2799999713897705,1.4901161193847656e-08,0.12682759761810303,-0.27999991178512573,-1.4901161193847656e-08,,120.0,328.9500000000295,,
1776999737.184366,328983350491,-0.3508529011591079,-8.601643855562412e-17,-0.3508529011591079,0.0,-0.3508529011591079,-8.601643855562412e-17,-0.3451901376247406,-0.9222614765167236,-0.005662763534367288,0.41896368255112404,1.0207005961288562e-16,0.41896368255112404,0.0,0.41896368255112404,1.0207005961288562e-16,0.41535425186157227,0.3718753457069397,0.0036094306895517736,-0.281866629644798,-6.961653547474873e-17,-0.281866629644798,0.0,-0.281866629644798,-6.961653547474873e-17,-0.27633270621299744,-0.057712122797966,-0.005533923431800536,1.4330409988179702,-3.3734710135502364e-17,1.4330409988179702,0.0,1.4330409988179702,-3.3734710135502364e-17,1.4354898929595947,-0.12816785275936127,-0.0024488941416245247,-1.2172210488272985,7.243625382237434e-17,-1.2172210488272985,0.0,-1.2172210488272985,7.243625382237434e-17,-1.2224544286727905,0.09177199006080627,0.005233379845491992,0.25528125835845455,0.08562240835793092,0.03530387898667933,-0.049156397581100464,-0.28000012040138245,1.862645149230957e-08,0.038835640996694565,-0.2799999713897705,1.4901161193847656e-08,0.12682759761810303,-0.27999991178512573,-1.4901161193847656e-08,,120.0,328.96666666669614,,
1776999737.221576,329000017158,-0.3508529011591079,-8.601643855562412e-17,-0.3508529011591079,0.0,-0.3508529011591079,-8.601643855562412e-17,-0.3489237427711487,-0.9107783436775208,-0.0019291583879592067,0.41896368255112404,1.0207005961288562e-16,0.41896368255112404,0.0,0.41896368255112404,1.0207005961288562e-16,0.4192317724227905,0.23319262266159058,-0.0002680898716664881,-0.281866629644798,-6.961653547474873e-17,-0.281866629644798,0.0,-0.281866629644798,-6.961653547474873e-17,-0.27905547618865967,-0.08565882593393326,-0.0028111534561383045,1.4330409988179702,-3.3734710135502364e-17,1.4330409988179702,0.0,1.4330409988179702,-3.3734710135502364e-17,1.4341747760772705,-0.06496784836053848,-0.001133777259300306,-1.2172210488272985,7.243625382237434e-17,-1.2172210488272985,0.0,-1.2172210488272985,7.243625382237434e-17,-1.2195966243743896,0.05577024817466736,0.0023755755470911133,0.25524432480080633,0.08666604160964743,0.034875606845349336,-0.049156397581100464,-0.28000012040138245,1.862645149230957e-08,0.038835640996694565,-0.2799999713897705,1.4901161193847656e-08,0.12682759761810303,-0.27999991178512573,-1.4901161193847656e-08,,120.0,328.9833333333628,,
1776999737.2583048,329016683826,-0.3508529011591079,-8.601643855562412e-17,-0.3508529011591079,0.0,-0.3508529011591079,-8.601643855562412e-17,-0.35077106952667236,0.060048315674066544,-8.183163243552505e-05,0.41896368255112404,1.0207005961288562e-16,0.41896368255112404,0.0,0.41896368255112404,1.0207005961288562e-16,0.42168930172920227,0.1969950795173645,-0.0027256191780782313,-0.281866629644798,-6.961653547474873e-17,-0.281866629644798,0.0,-0.281866629644798,-6.961653547474873e-17,-0.2806306779384613,-0.06277638673782349,-0.0012359517063366687,1.4330409988179702,-3.3734710135502364e-17,1.4330409988179702,0.0,1.4330409988179702,-3.3734710135502364e-17,1.4333977699279785,-0.03915906697511673,-0.00035677111000831374,-1.2172210488272985,7.243625382237434e-17,-1.2172210488272985,0.0,-1.2172210488272985,7.243625382237434e-17,-1.2179155349731445,0.0524076446890831,0.0006944861458459961,0.255319753087162,0.08694605159509215,0.03459665266907107,-0.049156397581100464,-0.28000012040138245,1.862645149230957e-08,0.038835640996694565,-0.2799999713897705,1.4901161193847656e-08,0.12682759761810303,-0.27999991178512573,-1.4901161193847656e-08,,120.0,329.00000000002944,,
1776999737.297352,329033350493,-0.3508529011591079,-8.601643855562412e-17,-0.3508529011591079,0.0,-0.3508529011591079,-8.601643855562412e-17,-0.3513595461845398,-0.2603742182254791,0.0005066450254319066,0.41896368255112404,1.0207005961288562e-16,0.41896368255112404,0.0,0.41896368255112404,1.0207005961288562e-16,0.42243972420692444,0.1725187748670578,-0.0034760416558003993,-0.281866629644798,-6.961653547474873e-17,-0.281866629644798,0.0,-0.281866629644798,-6.961653547474873e-17,-0.28115206956863403,-0.07633611559867859,-0.0007145600761639392,1.4330409988179702,-3.3734710135502364e-17,1.4330409988179702,0.0,1.4330409988179702,-3.3734710135502364e-17,1.433140754699707,-0.010963634587824345,-9.975588173682937e-05,-1.2172210488272985,7.243625382237434e-17,-1.2172210488272985,0.0,-1.2172210488272985,7.243625382237434e-17,-1.2173539400100708,5.241483449935913e-05,0.00013289118277226564,0.25532215981539114,0.08711469520191578,0.0345259014160038,-0.049156397581100464,-0.28000012040138245,1.862645149230957e-08,0.038835640996694565,-0.2799999713897705,1.4901161193847656e-08,0.12682759761810303,-0.27999991178512573,-1.4901161193847656e-08,,120.0,329.0166666666961,,
1776999737.3334537,329050017161,-0.3508529011591079,-8.601643855562412e-17,-0.3508529011591079,0.0,-0.3508529011591079,-8.601643855562412e-17,-0.35147252678871155,-0.01345587894320488,0.0006196256296036595,0.41896368255112404,1.0207005961288562e-16,0.41896368255112404,0.0,0.41896368255112404,1.0207005961288562e-16,0.4224681556224823,0.09963631629943848,-0.0035044730713582606,-0.281866629644798,-6.961653547474873e-17,-0.281866629644798,0.0,-0.281866629644798,-6.961653547474873e-17,-0.28126293420791626,-0.04768352955579758,-0.0006036954368817127,1.4330409988179702,-3.3734710135502364e-17,1.4330409988179702,0.0,1.4330409988179702,-3.3734710135502364e-17,1.4330922365188599,-0.005778945051133633,-5.12377008896614e-05,-1.2172210488272985,7.243625382237434e-17,-1.2172210488272985,0.0,-1.2172210488272985,7.243625382237434e-17,-1.21724534034729,0.000956418109126389,2.4291519991503918e-05,0.25533770601196737,0.08713906212177232,0.03454376063412663,-0.049156397581100464,-0.28000012040138245,1.862645149230957e-08,0.038835640996694565,-0.2799999713897705,1.4901161193847656e-08,0.12682759761810303,-0.27999991178512573,-1.4901161193847656e-08,,120.0,329.03333333336275,,
1776999737.3713496,329066683828,-0.3508529011591079,-8.601643855562412e-17,-0.3508529011591079,0.0,-0.3508529011591079,-8.601643855562412e-17,-0.3514192998409271,0.04428338259458542,0.0005663986818192357,0.41896368255112404,1.0207005961288562e-16,0.41896368255112404,0.0,0.41896368255112404,1.0207005961288562e-16,0.42243173718452454,0.16001290082931519,-0.003468054633400497,-0.281866629644798,-6.961653547474873e-17,-0.281866629644798,0.0,-0.281866629644798,-6.961653547474873e-17,-0.2812894284725189,-0.053819239139556885,-0.0005772011722790515,1.4330409988179702,-3.3734710135502364e-17,1.4330409988179702,0.0,1.4330409988179702,-3.3734710135502364e-17,1.4330823421478271,-0.007155954837799072,-4.1343329856946553e-05,-1.2172210488272985,7.243625382237434e-17,-1.2172210488272985,0.0,-1.2172210488272985,7.243625382237434e-17,-1.2172271013259888,-0.0009935181587934494,6.052498690234387e-06,0.2553608881544527,0.08709725281641893,0.03455436856132332,-0.049156397581100464,-0.28000012040138245,1.862645149230957e-08,0.038835640996694565,-0.2799999713897705,1.4901161193847656e-08,0.12682759761810303,-0.27999991178512573,-1.4901161193847656e-08,,120.0,329.0500000000294,,
1776999737.4081178,329083350496,-0.3508529011591079,-8.601643855562412e-17,-0.3508529011591079,0.0,-0.3508529011591079,-8.601643855562412e-17,-0.3514266014099121,-0.06379087269306183,0.000573700250804221,0.41896368255112404,1.0207005961288562e-16,0.41896368255112404,0.0,0.41896368255112404,1.0207005961288562e-16,0.42244836688041687,0.15280325710773468,-0.003484684329292831,-0.281866629644798,-6.961653547474873e-17,-0.281866629644798,0.0,-0.281866629644798,-6.961653547474873e-17,-0.28128954768180847,-0.05684767663478851,-0.0005770819629895008,1.4330409988179702,-3.3734710135502364e-17,1.4330409988179702,0.0,1.4330409988179702,-3.3734710135502364e-17,1.4330813884735107,-0.00489899143576622,-4.0389655540540303e-05,-1.2172210488272985,7.243625382237434e-17,-1.2172210488272985,0.0,-1.2172210488272985,7.243625382237434e-17,-1.217223048210144,-0.00640465971082449,1.9993828455078244e-06,0.2553523799661584,0.08712602850756264,0.034548694899788984,-0.049156397581100464,-0.28000012040138245,1.862645149230957e-08,0.038835640996694565,-0.2799999713897705,1.4901161193847656e-08,0.12682759761810303,-0.27999991178512573,-1.4901161193847656e-08,,120.0,329.06666666669605,,
1776999737.4528518,329100017163,-0.3508529011591079,-8.601643855562412e-17,-0.3508529011591079,0.0,-0.3508529011591079,-8.601643855562412e-17,-0.35145244002342224,-0.05055813491344452,0.0005995388643143529,0.41896368255112404,1.0207005961288562e-16,0.41896368255112404,0.0,0.41896368255112404,1.0207005961288562e-16,0.4224647283554077,0.1274113804101944,-0.0035010458042836756,-0.281866629644798,-6.961653547474873e-17,-0.281866629644798,0.0,-0.281866629644798,-6.961653547474873e-17,-0.2812865972518921,-0.054352350533008575,-0.0005800323929058826,1.4330409988179702,-3.3734710135502364e-17,1.4330409988179702,0.0,1.4330409988179702,-3.3734710135502364e-17,1.4330811500549316,-0.0028856261633336544,-4.015123696143874e-05,-1.2172210488272985,7.243625382237434e-17,-1.2172210488272985,0.0,-1.2172210488272985,7.243625382237434e-17,-1.217221975326538,-0.003991981968283653,9.264992395507932e-07,0.2553484285748365,0.08712893947516602,0.03454611552987717,-0.049156397581100464,-0.28000012040138245,1.862645149230957e-08,0.038835640996694565,-0.2799999713897705,1.4901161193847656e-08,0.12682759761810303,-0.27999991178512573,-1.4901161193847656e-08,,120.0,329.0833333333627,,
1776999737.4828475,329116683831,-0.3508529011591079,-8.601643855562412e-17,-0.3508529011591079,0.0,-0.3508529011591079,-8.601643855562412e-17,-0.35143229365348816,-0.002757130190730095,0.0005793924943802709,0.41896368255112404,1.0207005961288562e-16,0.41896368255112404,0.0,0.41896368255112404,1.0207005961288562e-16,0.42245933413505554,0.15340138971805573,-0.0034956515839315028,-0.281866629644798,-6.961653547474873e-17,-0.281866629644798,0.0,-0.281866629644798,-6.961653547474873e-17,-0.2812870740890503,-0.056708723306655884,-0.0005795555557476795,1.4330409988179702,-3.3734710135502364e-17,1.4330409988179702,0.0,1.4330409988179702,-3.3734710135502364e-17,1.4330813884735107,-0.004853806458413601,-4.0389655540540303e-05,-1.2172210488272985,7.243625382237434e-17,-1.2172210488272985,0.0,-1.2172210488272985,7.243625382237434e-17,-1.2172222137451172,-0.0030987991485744715,1.1649178186523557e-06,0.25535448065017774,0.08711149138341107,0.03454806879142852,-0.049156397581100464,-0.28000012040138245,1.862645149230957e-08,0.038835640996694565,-0.2799999713897705,1.4901161193847656e-08,0.12682759761810303,-0.27999991178512573,-1.4901161193847656e-08,,120.0,329.10000000002935,,
1776999737.520708,329133350498,-0.3508529011591079,-8.601643855562412e-17,-0.3508529011591079,0.0,-0.3508529011591079,-8.601643855562412e-17,-0.3514329195022583,-0.04263152554631233,0.0005800183431504125,0.41896368255112404,1.0207005961288562e-16,0.41896368255112404,0.0,0.41896368255112404,1.0207005961288562e-16,0.4224558174610138,0.15558210015296936,-0.0034921349098897547,-0.281866629644798,-6.961653547474873e-17,-0.281866629644798,0.0,-0.281866629644798,-6.961653547474873e-17,-0.2812879979610443,-0.058928824961185455,-0.0005786316837536609,1.4330409988179702,-3.3734710135502364e-17,1.4330409988179702,0.0,1.4330409988179702,-3.3734710135502364e-17,1.4330806732177734,-0.004161898046731949,-3.9674399803235616e-05,-1.2172210488272985,7.243625382237434e-17,-1.2172210488272985,0.0,-1.2172210488272985,7.243625382237434e-17,-1.217221736907959,-0.0049282885156571865,6.880806604492307e-07,0.25535208382871133,0.08712352878430173,0.034548096474347326,-0.049156397581100464,-0.28000012040138245,1.862645149230957e-08,0.038835640996694565,-0.2799999713897705,1.4901161193847656e-08,0.12682759761810303,-0.27999991178512573,-1.4901161193847656e-08,,120.0,329.116666666696,,
1776999737.5576563,329150017166,-0.3508529011591079,-8.601643855562412e-17,-0.3508529011591079,0.0,-0.3508529011591079,-8.601643855562412e-17,-0.35144323110580444,-0.04285131394863129,0.000590329946696555,0.41896368255112404,1.0207005961288562e-16,0.41896368255112404,0.0,0.41896368255112404,1.0207005961288562e-16,0.42245882749557495,0.14215637743473053,-0.003495144944450912,-0.281866629644798,-6.961653547474873e-17,-0.281866629644798,0.0,-0.281866629644798,-6.961653547474873e-17,-0.28128761053085327,-0.05670933425426483,-0.000579019113944701,1.4330409988179702,-3.3734710135502364e-17,1.4330409988179702,0.0,1.4330409988179702,-3.3734710135502364e-17,1.4330812692642212,-0.003396935760974884,-4.027044625098952e-05,-1.2172210488272985,7.243625382237434e-17,-1.2172210488272985,0.0,-1.2172210488272985,7.243625382237434e-17,-1.2172216176986694,-0.004098215606063604,5.688713708984494e-07,0.2553508563708371,0.08712418512280702,0.03454766310236412,-0.049156397581100464,-0.28000012040138245,1.862645149230957e-08,0.038835640996694565,-0.2799999713897705,1.4901161193847656e-08,0.12682759761810303,-0.27999991178512573,-1.4901161193847656e-08,,120.0,329.13333333336266,,
1776999737.5947356,329166683834,-0.3508529011591079,-8.601643855562412e-17,-0.3508529011591079,0.0,-0.3508529011591079,-8.601643855562412e-17,-0.3514346778392792,-0.015440072864294052,0.0005817766801712865,0.41896368255112404,1.0207005961288562e-16,0.41896368255112404,0.0,0.41896368255112404,1.0207005961288562e-16,0.422457754611969,0.15379922091960907,-0.003494072060844955,-0.281866629644798,-6.961653547474873e-17,-0.281866629644798,0.0,-0.281866629644798,-6.961653547474873e-17,-0.2812874913215637,-0.057479243725538254,-0.0005791383232342517,1.4330409988179702,-3.3734710135502364e-17,1.4330409988179702,0.0,1.4330409988179702,-3.3734710135502364e-17,1.4330811500549316,-0.00449767429381609,-4.015123696143874e-05,-1.2172210488272985,7.243625382237434e-17,-1.2172210488272985,0.0,-1.2172210488272985,7.243625382237434e-17,-1.2172218561172485,-0.0035796831361949444,8.072899500000119e-07,0.2553534176461389,0.08711656549507404,0.034547984392813355,-0.049156397581100464,-0.28000012040138245,1.862645149230957e-08,0.038835640996694565,-0.2799999713897705,1.4901161193847656e-08,0.12682759761810303,-0.27999991178512573,-1.4901161193847656e-08,,120.0,329.1500000000293,,
