inbarajaldrin/isaac-sim-mcp/.planning/saved_runs/2026-04-23-green2x2-postfix/20260423T200314_drop_release.csv
t_wall,t_sim_ns,ref_pos_shoulder_pan,ref_vel_shoulder_pan,fb_pos_shoulder_pan,err_pos_shoulder_pan,js_pos_shoulder_pan,js_vel_shoulder_pan,isaac_pos_shoulder_pan,isaac_vel_shoulder_pan,isaac_lag_shoulder_pan,ref_pos_shoulder_lift,ref_vel_shoulder_lift,fb_pos_shoulder_lift,err_pos_shoulder_lift,js_pos_shoulder_lift,js_vel_shoulder_lift,isaac_pos_shoulder_lift,isaac_vel_shoulder_lift,isaac_lag_shoulder_lift,ref_pos_elbow_flex,ref_vel_elbow_flex,fb_pos_elbow_flex,err_pos_elbow_flex,js_pos_elbow_flex,js_vel_elbow_flex,isaac_pos_elbow_flex,isaac_vel_elbow_flex,isaac_lag_elbow_flex,ref_pos_wrist_flex,ref_vel_wrist_flex,fb_pos_wrist_flex,err_pos_wrist_flex,js_pos_wrist_flex,js_vel_wrist_flex,isaac_pos_wrist_flex,isaac_vel_wrist_flex,isaac_lag_wrist_flex,ref_pos_wrist_roll,ref_vel_wrist_roll,fb_pos_wrist_roll,err_pos_wrist_roll,js_pos_wrist_roll,js_vel_wrist_roll,isaac_pos_wrist_roll,isaac_vel_wrist_roll,isaac_lag_wrist_roll,tcp_x,tcp_y,tcp_z,cup_red_x,cup_red_y,cup_red_z,cup_green_x,cup_green_y,cup_green_z,cup_blue_x,cup_blue_y,cup_blue_z,attached_lego_xyz,physics_rate_hz,sim_time_s,render_fps,app_dt_ms
1776999794.8486776,348033351484,1.5630000108636146,-0.015667168655473938,1.5632071536481995,-0.00020714278458489055,1.5632071536481995,-0.005306844010754524,1.568339228630066,-0.6345819234848022,-0.0053392177664512985,-0.0028613915559506957,-0.005886020820736938,-0.002783569789316034,-7.782176663466162e-05,-0.002783569789316034,-0.0019937357557444106,-0.22193852066993713,0.3772997558116913,0.21907712911398644,-0.006550486464994213,-0.039890099322090644,-0.006023081262902432,-0.0005274052020917807,-0.006023081262902432,-0.013511728847179093,0.20787428319454193,-0.07233015447854996,-0.21442476965953614,1.5739300539962293,-0.002419143233858257,1.5739620385926032,-3.1984596373879626e-05,1.5739620385926032,-0.0008194215600835416,0.8007116317749023,0.0013300254940986633,0.773218422221327,-1.568470869071587,-0.004448147190380212,-1.5684120580882164,-5.881098337057189e-05,-1.5684120580882164,-0.0015066936340136755,-1.5652114152908325,-0.06305500119924545,-0.003259453780754429,0.04659011605777708,-0.28014554819656357,0.1277682017155172,-0.049156397581100464,-0.28000012040138245,1.862645149230957e-08,0.038835640996694565,-0.2799999713897705,1.4901161193847656e-08,0.12682759761810303,-0.27999991178512573,-1.4901161193847656e-08,,120.0,348.00000000001216,,
1776999794.9040933,348033351484,1.561283576831883,-0.03925297444071356,1.5620006981462142,-0.000717121314331326,1.5620006981462142,-0.03265450850330535,1.5680656433105469,-0.3505687415599823,-0.006782066478663973,-0.003506241092607231,-0.01474700565973483,-0.003236824768574849,-0.0002694163240323823,-0.003236824768574849,-0.012268018629800263,-0.2219758927822113,0.22796081006526947,0.21846965168960408,-0.01092069052108736,-0.09994180081690632,-0.009094831549134435,-0.001825858971952924,-0.009094831549134435,-0.08314147987786423,0.2079050987958908,-0.08325734734535217,-0.21882578931697816,1.5736650220772184,-0.006060990955990756,1.5737757516680952,-0.00011072959087687906,1.5737757516680952,-0.005042132055751963,0.8006644248962402,0.02249806746840477,0.7730005971809781,-1.568958190768545,-0.011144515758511279,-1.5687545891331989,-0.00020360163534616227,-1.5687545891331989,-0.009271111037755138,-1.5654022693634033,-0.05134398490190506,-0.0035559214051417154,0.046583291174656205,-0.2801515702737175,0.12779216573577812,-0.049156397581100464,-0.28000012040138245,1.862645149230957e-08,0.038835640996694565,-0.2799999713897705,1.4901161193847656e-08,0.12682759761810303,-0.27999991178512573,-1.4901161193847656e-08,,120.0,348.0166666666788,,
1776999795.000128,348050018152,1.5568881057223176,-0.07066477333156698,1.5582250033481346,-0.0013368976258170129,1.5582250033481346,-0.06279613715386978,1.5678215026855469,-0.7223392128944397,-0.010933396963229258,-0.005157581870048807,-0.02654814895204685,-0.0046553209042166765,-0.0005022609658321305,-0.0046553209042166765,-0.023591969862429053,-0.22201260924339294,0.22426630556583405,0.21685502737334414,-0.02211197740792437,-0.17991922399999588,-0.018708109086210813,-0.003403868321713556,-0.018708109086210813,-0.15988492900000312,0.20793084800243378,-0.03901873156428337,-0.23004282541035814,1.5729863241945201,-0.010911238146272931,1.573192752485233,-0.00020642829071282343,1.573192752485233,-0.009696254227494039,0.8005964756011963,0.02051595225930214,0.7723898485933238,-1.5702061317907128,-0.02006280265856384,-1.5698265662451532,-0.00037956554555962363,-1.5698265662451532,-0.017828777310682425,-1.5656569004058838,-0.03940573334693909,-0.004549231384828989,0.046700331880835354,-0.28015869199970866,0.12780062301312684,-0.049156397581100464,-0.28000012040138245,1.862645149230957e-08,0.038835640996694565,-0.2799999713897705,1.4901161193847656e-08,0.12682759761810303,-0.27999991178512573,-1.4901161193847656e-08,,120.0,348.03333333334547,,
1776999795.1004786,348066684819,1.5478566499247044,-0.1099448458123251,1.5499795017672295,-0.002122851842525142,1.5499795017672295,-0.10208003549342423,1.560530662536621,-5.448556900024414,-0.012674012611916696,-0.008550622312473244,-0.04130533511283623,-0.007753085091855359,-0.0007975372206178851,-0.007753085091855359,-0.03835059336555957,-0.11585750430822372,8.709656715393066,0.10730688199575047,-0.045106921594213464,-0.27993001900000064,-0.039701939193976445,-0.00540498240023702,-0.039701939193976445,-0.25990546499999545,0.06384304910898209,-7.556525707244873,-0.10894997070319555,1.571591791100176,-0.016976413268678107,1.5719195773635573,-0.0003277862633812578,1.5719195773635573,-0.01576202009482605,0.9434828162193298,5.19749116897583,0.6281089748808462,-1.5727702992937638,-0.031215011962350762,-1.5721675894061915,-0.0006027098875722725,-1.5721675894061915,-0.028982072833890156,-1.5678436756134033,-0.059768855571746826,-0.0049266236803604535,0.04936244593258575,-0.2793211925110355,0.12112071223400805,-0.049156397581100464,-0.28000012040138245,1.862645149230957e-08,0.038835640996694565,-0.2799999713897705,1.4901161193847656e-08,0.12682759761810303,-0.27999991178512573,-1.4901161193847656e-08,,120.0,348.0500000000121,,
1776999795.1711233,348083351487,1.537804574749511,-0.14136456970867767,1.5405527111453723,-0.002748136395861245,1.5405527111453723,-0.13351117805265594,1.5621275901794434,-0.019754886627197266,-0.024323015429932315,-0.012327100696915066,-0.05310945576174804,-0.011294649435301073,-0.0010324512616139928,-0.011294649435301073,-0.050159003908113044,-0.024956190958619118,4.16960334777832,0.012629090261704052,-0.07070045964497611,-0.35992762000000067,-0.06370344338810133,-0.00699701625687478,-0.06370344338810133,-0.3399321390000194,0.0016901586204767227,-1.2548120021820068,-0.07239061826545283,1.5700396657493185,-0.021827884146699176,1.5704640012316236,-0.00042433548230502716,1.5704640012316236,-0.020615254110899657,1.0077863931655884,3.508312702178955,0.5622532725837301,-1.5756242361429325,-0.04013554889182613,-1.574843998471606,-0.0007802376713264003,-1.574843998471606,-0.03790585169525032,-1.5687497854232788,-0.11425928771495819,-0.006874450719653646,0.049190275010148256,-0.27853157923075783,0.1051505027652004,-0.049156397581100464,-0.28000012040138245,1.862645149230957e-08,0.038835640996694565,-0.2799999713897705,1.4901161193847656e-08,0.12682759761810303,-0.27999991178512573,-1.4901161193847656e-08,,120.0,348.06666666667877,,
1776999795.2377188,348100018154,1.5318348568233164,-0.1570772243649291,1.5348989197065845,-0.003064062883268104,1.5318348568233164,-0.1570772243649291,1.566227912902832,1.0201023817062378,-0.034393056079515594,-0.014569872494436434,-0.059012565282666074,-0.013418730362532333,-0.0011511421319041013,-0.014569872494436434,-0.059012565282666074,0.002655238611623645,0.9704022407531738,-0.01722511110606008,-0.08589992843460721,-0.399933531000004,-0.07809853333696842,-0.007801395097638789,-0.08589992843460721,-0.399933531000004,-0.015027446672320366,-0.458324134349823,-0.07087248176228685,1.569117890855156,-0.02425405080349634,1.5695910080568147,-0.00047311720165876814,1.569117890855156,-0.02425405080349634,1.159041404724121,10.000000953674316,0.41007648613103487,-1.57731912975164,-0.04459661024871754,-1.5764491957511175,-0.0008699340005224876,-1.57731912975164,-0.04459661024871754,-1.5697463750839233,-0.08024228364229202,-0.007572754667716675,0.04669416365920502,-0.25938170113188896,0.09085783800418956,-0.049156397581100464,-0.28000012040138245,1.862645149230957e-08,0.038835640996694565,-0.2799999713897705,1.4901161193847656e-08,0.12682759761810303,-0.27999991178512573,-1.4901161193847656e-08,,120.0,348.0833333333454,,
1776999795.305918,348116684822,1.514163547958944,-0.1963525501076126,1.5180129011061745,-0.003849353147230561,1.5180129011061745,-0.18849562018232158,1.5540715456008911,1.1790590286254883,-0.03990799764194719,-0.021208831593726243,-0.0737679681347238,-0.019762662648384815,-0.0014461689453414278,-0.019762662648384815,-0.07081618698367903,-0.007001494523137808,-1.090624213218689,-0.014207337070588435,-0.13089275906357034,-0.499932240354267,-0.12109194037415073,-0.009800818689419608,-0.12109194037415073,-0.4799277505846456,-0.03321400284767151,-0.6231845617294312,-0.09767875621589883,1.5663892914373059,-0.030318492989306584,1.566983664091716,-0.0005943726544102024,1.566983664091716,-0.02910531661486234,1.27715265750885,7.6400861740112305,0.2892366339284558,-1.582336282793392,-0.05574747188170891,-1.5812433929571246,-0.00109288983626743,-1.5812433929571246,-0.05351677011664222,-1.5724016427993774,-0.02751661092042923,-0.00993463999401456,0.04975927453026683,-0.24440322641815332,0.08996307346778128,-0.049156397581100464,-0.28000012040138245,1.862645149230957e-08,0.03878699615597725,-0.27973857522010803,0.004942908883094788,0.12682759761810303,-0.27999991178512573,-1.4901161193847656e-08,,120.0,348.1000000000121,,
1776999795.3733983,348133351489,1.5059952395054763,-0.21206288277646665,1.510157890972221,-0.004162651466744771,1.5059952395054763,-0.21206288277646665,1.5454514026641846,-1.524275779724121,-0.03945616315870826,-0.02427759498579615,-0.07967020530487519,-0.02271372255028954,-0.0015638724355066108,-0.02427759498579615,-0.07967020530487519,-0.008719117380678654,-0.6343858242034912,-0.015558477605117495,-0.15169004813777712,-0.5399322393536707,-0.1410915421726507,-0.010598505965126404,-0.15169004813777712,-0.5399322393536707,-0.049550458788871765,-0.48407429456710815,-0.10213958934890535,1.5651280355868156,-0.032744301111655806,1.5657707841492488,-0.0006427485624331819,1.5651280355868156,-0.032744301111655806,1.427394151687622,9.12972640991211,0.1377338838991935,-1.5846553896528617,-0.060207873991058154,-1.5834735496641885,-0.0011818399886731612,-1.5846553896528617,-0.060207873991058154,-1.5734949111938477,-0.15032264590263367,-0.011160478459014023,0.052667251092721204,-0.2233909679505313,0.08693733053842112,-0.049156397581100464,-0.28000012040138245,1.862645149230957e-08,0.03878922760486603,-0.2787070870399475,0.009833138436079025,0.12682759761810303,-0.27999991178512573,-1.4901161193847656e-08,,120.0,348.1166666666787,,
1776999795.4444857,348150018157,1.4828262581379303,-0.25133697038143454,1.487773394480347,-0.004947136342416725,1.487773394480347,-0.24348351970343762,1.5378024578094482,1.2081360816955566,-0.0549761996715179,-0.03298198246789449,-0.09442514299921483,-0.031123385796420405,-0.0018585966714740818,-0.031123385796420405,-0.09147466897153235,-0.007527721114456654,-0.9472627639770508,-0.025454261353437833,-0.21068047507877335,-0.6399277962917063,-0.19808459611694426,-0.012595878961829093,-0.19808459611694426,-0.6199321650161842,-0.07180166989564896,-1.1334041357040405,-0.1388788051831244,1.561550549077077,-0.038808552118643425,1.5623144287335051,-0.0007638796564282124,1.5623144287335051,-0.03759591296935305,1.5408523082733154,3.1154887676239014,0.02069824080376148,-1.5912334154366046,-0.07135838409765913,-1.5898288482741614,-0.0014045671624431932,-1.5898288482741614,-0.0691286701438335,-1.5761293172836304,-0.0035327672958374023,-0.015104098152974199,0.05358227285676394,-0.20870513480798777,0.08720348620870702,-0.049156397581100464,-0.28000012040138245,1.862645149230957e-08,0.03886748477816582,-0.27635204792022705,0.015031449496746063,0.12682759761810303,-0.27999991178512573,-1.4901161193847656e-08,,120.0,348.1333333333454,,
1776999795.5136664,348166684824,1.4724575246736564,-0.2670488147752036,1.4777204893106055,-0.005262964636949086,1.4724575246736564,-0.2670488147752036,1.5295521020889282,2.223651885986328,-0.0570945774152718,-0.036877426654234886,-0.10032794811144959,-0.0349001760026913,-0.0019772506515435898,-0.036877426654234886,-0.10032794811144959,-0.010747422464191914,-3.2878293991088867,-0.026130004190042973,-0.2370802552068574,-0.6799316442863489,-0.22368024741264986,-0.013400007794207552,-0.2370802552068574,-0.6799316442863489,-0.0979846939444542,-0.8688598275184631,-0.13909556126240322,1.5599495290105028,-0.041234593664025695,1.5607621752244747,-0.0008126462139719237,1.5599495290105028,-0.041234593664025695,1.5628447532653809,0.9634196758270264,-0.0028952242548780927,-1.5941772563845835,-0.07581921540882745,-1.5926830207713913,-0.0014942356131921741,-1.5941772563845835,-0.07581921540882745,-1.5788726806640625,-0.4504593312740326,-0.015304575720521019,0.05510595840342147,-0.208807155236444,0.09182432167454241,-0.049156397581100464,-0.28000012040138245,1.862645149230957e-08,0.03879912570118904,-0.2731449604034424,0.019154660403728485,0.12682759761810303,-0.27999991178512573,-1.4901161193847656e-08,,120.0,348.150000000012,,
1776999795.5820436,348183351492,1.4437901921483451,-0.3063229009237427,1.449837663295834,-0.0060474711474889364,1.449837663295834,-0.298468332429265,1.5134315490722656,-2.2812018394470215,-0.06964135692392048,-0.04764749748384943,-0.11508288525865334,-0.045375514468303776,-0.0022719830155456533,-0.045375514468303776,-0.11213199127689917,-0.016483206301927567,-3.2264223098754883,-0.031164291181921863,-0.3100700063789378,-0.7799271975163785,-0.2946725705035968,-0.015397435875340981,-0.2946725705035968,-0.7599287201738585,-0.13357625901699066,-0.970064640045166,-0.17649374736194712,1.5555230506188733,-0.04729884444616368,1.5564568312674474,-0.0009337806485740785,1.5564568312674474,-0.04608603269653707,1.5654633045196533,0.5094676613807678,-0.009940253900780016,-1.6023163475906743,-0.0869697251019966,-1.6005993786612434,-0.001716968929430962,-1.6005993786612434,-0.08473969378305879,-1.5828415155410767,-0.6170979142189026,-0.019474832049597657,0.059257021082703656,-0.2129700210228118,0.09816980438959602,-0.049156397581100464,-0.28000012040138245,1.862645149230957e-08,0.03693119063973427,-0.2692371606826782,0.02074725553393364,0.12682759761810303,-0.27999991178512573,-1.4901161193847656e-08,,120.0,348.1666666666787,,
1776999795.6610534,348200018160,1.4247021497535053,-0.32989041320982787,1.4312375456216166,-0.00653539586811136,1.4247021497535053,-0.32989041320982787,1.5000641345977783,2.7347445487976074,-0.07536198484427303,-0.05481871121325993,-0.1239369973869496,-0.05236341906715678,-0.0024552921461031482,-0.05481871121325993,-0.1239369973869496,-0.02526247687637806,-4.201518535614014,-0.02955623433688187,-0.3586699751249385,-0.8399323220246684,-0.3420302365722399,-0.01663973855269857,-0.3586699751249385,-0.8399323220246684,-0.16969895362854004,-0.5438945889472961,-0.18897102149639844,1.552575695571987,-0.050937867497417376,1.5535848159205714,-0.001009120348584469,1.552575695571987,-0.050937867497417376,1.5637413263320923,0.12510399520397186,-0.01116563076010535,-1.607735732804143,-0.09366089986776809,-1.6058802346341794,-0.0018554981699636652,-1.607735732804143,-0.09366089986776809,-1.5867352485656738,0.015204206109046936,-0.02100048423846923,0.06239776737609566,-0.21761461082825853,0.10570836596248162,-0.049156397581100464,-0.28000012040138245,1.862645149230957e-08,0.03527895733714104,-0.26693058013916016,0.018651403486728668,0.12682759761810303,-0.27999991178512573,-1.4901161193847656e-08,,120.0,348.18333333334533,,
1776999795.7321312,348216684827,1.3970499382527723,-0.36173647958185323,1.4042023410541256,-0.007152402801353208,1.4042023410541256,-0.3534552671078965,1.482897400856018,0.9312251210212708,-0.08584746260324572,-0.06520740978489735,-0.13590129124542294,-0.06252031342863466,-0.002687096356262686,-0.06252031342863466,-0.13279011078166433,-0.028496799990534782,-3.206008195877075,-0.03671060979436257,-0.4290751317614714,-0.9210154314577406,-0.4108644349590227,-0.01821069680244869,-0.4108644349590227,-0.8999306780245201,-0.21610614657402039,-1.2702202796936035,-0.212968985187451,1.5483059604447065,-0.055855169256481894,1.5494103518777265,-0.001104391433019991,1.5494103518777265,-0.054576480071061736,1.561103105545044,0.4725201725959778,-0.01279714510033747,-1.6155866157300596,-0.10270248190293452,-1.6135559399184365,-0.002030675811623084,-1.6135559399184365,-0.10035131987686335,-1.5918958187103271,-0.3758831322193146,-0.023690797019732424,0.06715076700000808,-0.22316584115902874,0.1140382069411644,-0.049156397581100464,-0.28000012040138245,1.862645149230957e-08,0.033282503485679626,-0.26490920782089233,0.017999321222305298,0.12682759761810303,-0.27999991178512573,-1.4901161193847656e-08,,120.0,348.200000000012,,
1776999795.8052795,348233351495,1.3680924805121302,-0.3493491617212287,1.3751700302251888,-0.0070775497130586285,1.3751700302251888,-0.3585011652105079,1.461234211921692,-2.2603678703308105,-0.09314173140956172,-0.0760864781682886,-0.13124748222326618,-0.07342750347496954,-0.0026589746933190633,-0.07342750347496954,-0.13468581139899954,-0.037426337599754333,-3.2349331378936768,-0.03866014056853427,-0.502803569285237,-0.8894761437498105,-0.48478345555445684,-0.018020113730780107,-0.48478345555445684,-0.9127780138075827,-0.2712319493293762,-1.3689756393432617,-0.23157161995586073,1.5438346842681625,-0.05394246270132113,1.544927517751811,-0.0010928334836484144,1.544927517751811,-0.05535560937793194,1.5577239990234375,0.2690986394882202,-0.013889314755274995,-1.6238080778922417,-0.09918553417935347,-1.6217986540095224,-0.0020094238827192967,-1.6217986540095224,-0.10178392700336328,-1.59799325466156,-0.38992831110954285,-0.025814823230681627,0.07279675209711903,-0.22900687809528164,0.12558984349918398,-0.049156397581100464,-0.28000012040138245,1.862645149230957e-08,0.03210388869047165,-0.2627306580543518,0.01805129274725914,0.12682759761810303,-0.27999991178512573,-1.4901161193847656e-08,,120.0,348.21666666667863,,
1776999795.8756168,348250018162,1.3478336076679855,-0.3257777303331722,1.3544321005792381,-0.006598492911252585,1.3544321005792381,-0.33363806085092756,1.4390065670013428,0.3914757966995239,-0.09117295933335723,-0.08369756285037103,-0.12239189772194779,-0.08121856568660821,-0.0024789971637628194,-0.08121856568660821,-0.1253449564463953,-0.05010448396205902,-3.013631820678711,-0.033593078888312006,-0.5543845835499988,-0.8294610408354617,-0.5375841939330791,-0.016800389616919653,-0.5375841939330791,-0.8494741888364283,-0.32005298137664795,-1.1413706541061401,-0.2343316021733508,1.5407065431059466,-0.05030283450756861,1.5417254061711863,-0.0010188630652396835,1.5417254061711863,-0.05151653596224629,1.5548336505889893,-0.0024610720574855804,-0.014127107483042689,-1.6295598796570372,-0.09249324672093065,-1.627686467277982,-0.0018734123790551394,-1.627686467277982,-0.09472491396578403,-1.603364109992981,-0.3020336627960205,-0.026195769664056234,0.07827268218193832,-0.23331152494700794,0.13738845989668247,-0.049156397581100464,-0.28000012040138245,1.862645149230957e-08,0.03133677691221237,-0.2600787878036499,0.015441779047250748,0.12682759761810303,-0.27999991178512573,-1.4901161193847656e-08,,120.0,348.2333333333453,,
1776999795.9509294,348266684830,1.3289977959219754,-0.30221728239849155,1.3351328344230615,-0.006135038501086099,1.3289977959219754,-0.30221728239849155,1.416109561920166,-2.573336601257324,-0.0871117659981906,-0.09077401568945855,-0.11354043960983552,-0.08846913437059907,-0.0023048813188594752,-0.09077401568945855,-0.11354043960983552,-0.05522647872567177,-3.34603214263916,-0.03554753696378678,-0.6023423491095078,-0.7694739028366395,-0.5867219584355542,-0.0156203906739536,-0.6023423491095078,-0.7694739028366395,-0.3836336135864258,-1.5297598838806152,-0.218708735523082,1.5377981346026826,-0.04666490225181257,1.5387454363906274,-0.0009473017879448875,1.5377981346026826,-0.04666490225181257,1.5508984327316284,0.42745769023895264,-0.013100298128945864,-1.6349076527575217,-0.08580407763177243,-1.633165822126118,-0.0017418306314036514,-1.6349076527575217,-0.08580407763177243,-1.610478401184082,-0.5081490278244019,-0.02442925157343967,0.08486824505612271,-0.23820435938682405,0.15058190279346068,-0.049156397581100464,-0.28000012040138245,1.862645149230957e-08,0.031431593000888824,-0.25961896777153015,0.013821739703416824,0.12682929635047913,-0.2800012528896332,0.000601697713136673,,120.0,348.25000000001194,,
1776999796.022301,348283351497,1.306077549766663,-0.27079706558995364,1.3115722874005833,-0.005494737633920277,1.306077549766663,-0.27079706558995364,1.3917245864868164,0.03107905387878418,-0.08564703672015339,-0.09938495548676861,-0.1017361337780973,-0.09732062970915295,-0.002064325777615658,-0.09938495548676861,-0.1017361337780973,-0.06761465966701508,-3.1118030548095703,-0.03177029581975353,-0.6606994725775545,-0.6894750468357279,-0.6467093487213618,-0.013990123856192693,-0.6606994725775545,-0.6894750468357279,-0.4407849609851837,-1.3661980628967285,-0.21991451159237074,1.5342590549116177,-0.04181335526395698,1.5351074888348908,-0.0008484339232730509,1.5342590549116177,-0.04181335526395698,1.547485589981079,0.023091372102499008,-0.013226535069461365,-1.641415058835827,-0.07688340075688836,-1.6398550193477974,-0.0015600394880295188,-1.641415058835827,-0.07688340075688836,-1.6168066263198853,-0.3055412769317627,-0.02460843251594169,0.09112145437564659,-0.2411742583688763,0.1647489155839505,-0.049156397581100464,-0.28000012040138245,1.862645149230957e-08,0.030409540981054306,-0.2586497664451599,0.01261858269572258,0.12682703137397766,-0.28001049160957336,0.00080157071352005,,120.0,348.2666666666786,,
1776999796.0925753,348300018165,1.2856709656812855,-0.2393769811418531,1.2905371909693115,-0.004866225288026049,1.2905371909693115,-0.24723236054754474,1.3658597469329834,-1.783031702041626,-0.08018878125169793,-0.1070515340146421,-0.08993187767297278,-0.10522333493198861,-0.0018281990826534839,-0.10522333493198861,-0.09288307630710345,-0.07485415041446686,-3.8305840492248535,-0.03219738360017524,-0.7126565736907634,-0.6094765278366544,-0.7002667019576098,-0.012389871733153646,-0.7002667019576098,-0.6294770698360844,-0.5095311999320984,-1.619040608406067,-0.20312537375866502,1.5311081058855405,-0.03696182871361932,1.531859492191442,-0.0007513863059014358,1.531859492191442,-0.03817476567478445,1.5433320999145508,0.053182799369096756,-0.01222399402901031,-1.64720879806598,-0.06796276146141927,-1.6458272027810448,-0.0013815952849351998,-1.6458272027810448,-0.07019302301031699,-1.6245338916778564,-0.2720434367656708,-0.022674906388123528,0.09840503561405647,-0.24390957232901306,0.18027945686914662,-0.049156397581100464,-0.28000012040138245,1.862645149230957e-08,0.02974562719464302,-0.25812235474586487,0.011431008577346802,0.12684980034828186,-0.28000667691230774,0.0007321424782276154,,120.0,348.28333333334524,,
1776999796.1609893,348316684832,1.2720153294971226,-0.2158115137550303,1.2764137809659424,-0.004398451468819786,1.2720153294971226,-0.2158115137550303,1.338857650756836,0.524850606918335,-0.06684232125971334,-0.11218183934727172,-0.08107853379576346,-0.11052937887443277,-0.001652460472838943,-0.11218183934727172,-0.08107853379576346,-0.08672783523797989,-3.8281874656677246,-0.025454004109291828,-0.7474251203038257,-0.5494766098359807,-0.7362262451392758,-0.01119887516454987,-0.7474251203038257,-0.5494766098359807,-0.5763840079307556,-1.7828774452209473,-0.17104111237307007,1.5289995602634538,-0.033323121412086945,1.5296787183388056,-0.0006791580753517934,1.5289995602634538,-0.033323121412086945,1.5392780303955078,0.0043091922998428345,-0.010278470132053963,-1.6510858406293896,-0.061272167273527765,-1.649837053437952,-0.001248787191437506,-1.6510858406293896,-0.061272167273527765,-1.6319500207901,-0.13502974808216095,-0.01913581983928947,0.10529732928657086,-0.2447292989172426,0.19707486095351018,-0.049156397581100464,-0.28000012040138245,1.862645149230957e-08,0.029225707054138184,-0.2580685317516327,0.010070357471704483,0.12685927748680115,-0.2799853980541229,0.00039886683225631714,,120.0,348.3000000000119,,
1776999796.2355015,348333351500,1.2560112956077483,-0.18439949656250934,1.2597744960698303,-0.003763200462082006,1.2597744960698303,-0.1922478373463802,1.3177497386932373,-1.6821846961975098,-0.061738443085489036,-0.11819441754567628,-0.06927730848937003,-0.11678061542485198,-0.0014138021208243007,-0.11678061542485198,-0.07222586277367675,-0.09662768989801407,-2.8149213790893555,-0.02156672764766221,-0.7881729105038214,-0.4694986308359827,-0.778591444732793,-0.009581465771028475,-0.778591444732793,-0.4894812518358433,-0.6260287761688232,-1.38442063331604,-0.1621441343349982,1.52652840219084,-0.02847284051421384,1.527109472142642,-0.0005810699518018492,1.527109472142642,-0.02968469065267563,1.5362818241119385,0.16384124755859375,-0.009753421921098404,-1.6556296289771872,-0.05235381839429875,-1.6545611991970341,-0.0010684297801530906,-1.6545611991970341,-0.05458208157165137,-1.6374316215515137,-0.32302021980285645,-0.018198007425673568,0.1107211421856517,-0.24413155441988982,0.20999970403138654,-0.049156397581100464,-0.28000012040138245,1.862645149230957e-08,0.028785116970539093,-0.25833961367607117,0.008454959839582443,0.12685370445251465,-0.27995792031288147,5.958974361419678e-05,,120.0,348.31666666667854,,
1776999796.307402,348350018167,1.2456500484592548,-0.1608236367905924,1.2489447236960933,-0.0032946752368385734,1.2456500484592548,-0.1608236367905924,1.2993650436401367,-1.5962165594100952,-0.053714995180881964,-0.12208704918741962,-0.06042006028224697,-0.12084926797321037,-0.0012377812142092548,-0.12208704918741962,-0.06042006028224697,-0.10024785250425339,-3.7367382049560547,-0.021839196683166237,-0.8145536297609459,-0.40947225283576283,-0.8061650737096541,-0.008388556051291851,-0.8145536297609459,-0.40947225283576283,-0.6786909699440002,-1.2682560682296753,-0.13586265981694567,1.5249285380746858,-0.02483252854054779,1.525437263772496,-0.0005087256978102417,1.5249285380746858,-0.02483252854054779,1.5331443548202515,0.13382494449615479,-0.008215816745565707,-1.6585713444463859,-0.045660273650357575,-1.6576359360953172,-0.0009354083510686451,-1.6585713444463859,-0.045660273650357575,-1.6434383392333984,-0.41145020723342896,-0.015133005212987438,0.11574290436577257,-0.24361142476302539,0.22198983983099807,-0.049156397581100464,-0.28000012040138245,1.862645149230957e-08,0.02838864177465439,-0.2586323320865631,0.006578065454959869,0.12685436010360718,-0.27995502948760986,2.0042061805725098e-06,,120.0,348.3333333333452,,
1776999796.3773174,348366684835,1.234041941883097,-0.12940587747135793,1.2367079320722545,-0.0026659901891574744,1.2367079320722545,-0.1372591010268386,1.2823668718338013,-0.9328166246414185,-0.048324929950704254,-0.12644811521658547,-0.048616677708133764,-0.12544652557991676,-0.001001589636668715,-0.12544652557991676,-0.05156706640783542,-0.10832253843545914,-2.024214744567871,-0.018125576781126335,-0.8441089715362817,-0.3294796538359214,-0.8373211073231734,-0.006787864213108286,-0.8373211073231734,-0.34947470683595533,-0.7190840244293213,-1.2532943487167358,-0.12502494710696044,1.5231361483264676,-0.019981361009832117,1.5235477997402918,-0.0004116514138241545,1.5235477997402918,-0.021193965089480106,1.5306872129440308,0.08041635900735855,-0.0075510646175631635,-1.6618670622488703,-0.03674029449420653,-1.6611101471335579,-0.0007569151153123954,-1.6611101471335579,-0.03896994396450634,-1.6478874683380127,-0.20464006066322327,-0.013979593910857568,0.1195707948114742,-0.24194242083983092,0.23258684200969731,-0.049156397581100464,-0.28000012040138245,1.862645149230957e-08,0.028034713119268417,-0.2588871717453003,0.00451052188873291,0.12685436010360718,-0.27995505928993225,1.5795230865478516e-06,,120.0,348.35000000001185,,
1776999796.4466348,348383351502,1.2269835960657538,-0.10583682223752323,1.229178996844767,-0.002195400779013257,1.2269835960657538,-0.10583682223752323,1.2667498588562012,-0.9988746643066406,-0.03976626279044737,-0.12909987517107632,-0.03976198590758093,-0.1282750819375769,-0.0008247932334994323,-0.12909987517107632,-0.03976198590758093,-0.11274740099906921,-2.081796884536743,-0.01635247417200711,-0.862080190324757,-0.269470600835964,-0.8564904914421815,-0.0055896988825755445,-0.862080190324757,-0.269470600835964,-0.7615128755569458,-1.2113137245178223,-0.10056731476781122,1.5220462800865986,-0.01634209971435209,1.5223852685188382,-0.000338988432239562,1.5220462800865986,-0.01634209971435209,1.5281282663345337,0.05342773348093033,-0.0060819862479351006,-1.6638710338538583,-0.03004868166207038,-1.663247726221083,-0.000623307632775294,-1.6638710338538583,-0.03004868166207038,-1.652671456336975,-0.28627002239227295,-0.011199577516883163,0.1233009076647565,-0.2401868914429926,0.242738491264766,-0.049183305352926254,-0.2799775302410126,0.00048205628991127014,0.02782575972378254,-0.25904303789138794,0.0024035200476646423,0.12685441970825195,-0.279955118894577,1.5869736671447754e-06,,120.0,348.3666666666785,,
1776999796.5216165,348400018170,1.2183702857620955,-0.06573573250278505,1.2197738865985959,-0.0014036008365003738,1.2197738865985959,-0.07441831824835597,1.2536749839782715,-0.23511594533920288,-0.03530469821617599,-0.13233172560336068,-0.02418794438979322,-0.13180850114992057,-0.0005232244534401076,-0.13180850114992057,-0.0279583235673604,-0.11913082748651505,-1.5614808797836304,-0.013200898116845633,-0.8840150526681683,-0.1679349109213805,-0.8804367953408042,-0.003578257327364054,-0.8804367953408042,-0.18947610583573007,-0.7928285002708435,-1.2043910026550293,-0.09118655239732476,1.5207312993460125,-0.008290060336121561,1.5209330400201189,-0.00020174067410638763,1.5209330400201189,-0.011490817200241555,1.5262514352798462,0.056618086993694305,-0.005520135933833714,-1.6663165011387326,-0.018665562411872103,-1.6659179798984822,-0.0003985212402504157,-1.6659179798984822,-0.021128491082790933,-1.6561455726623535,-0.13313642144203186,-0.010170928476379126,0.12602458841461558,-0.23808995433429372,0.25096889576737047,-0.04920385777950287,-0.2799726724624634,0.001224428415298462,0.027781961485743523,-0.259129136800766,0.0011519379913806915,0.1268543303012848,-0.2799551784992218,1.5720725059509277e-06,,120.0,348.38333333334515,,
1776999796.5916393,348416684838,1.2160425993018191,-0.05251190084387665,1.217139490271119,-0.0010968909692998796,1.2160425993018191,-0.05251190084387665,1.2421427965164185,-0.11278945207595825,-0.02610019721459933,-0.133196660251214,-0.02099081340866676,-0.1327812047044992,-0.00041545554671479357,-0.133196660251214,-0.02099081340866676,-0.12161992490291595,-1.6668976545333862,-0.011576735348298034,-0.8899521937745605,-0.13229597821742464,-0.8871631458356063,-0.002789047938954181,-0.8899521937745605,-0.13229597821742464,-0.8243197202682495,-1.092947006225586,-0.06563247350631096,1.5204068514892395,-0.012727513127657006,1.5205885249234803,-0.0001816734342408033,1.5204068514892395,-0.012727513127657006,1.5243704319000244,0.028518404811620712,-0.003963580410784928,-1.6669774078416615,-0.01490348956266334,-1.6666659983139824,-0.00031140952767905183,-1.6669774078416615,-0.01490348956266334,-1.659722089767456,-0.14937905967235565,-0.00725531807420543,0.12845243710576865,-0.23624900493986006,0.25839401662636596,-0.04929398372769356,-0.27992698550224304,0.0019297227263450623,0.027749067172408104,-0.2591635584831238,0.0007779300212860107,0.1268543303012848,-0.27995505928993225,1.5720725059509277e-06,,120.0,348.4000000000118,,
1776999796.6736047,348433351505,1.2111208315130413,-0.04334423010756503,1.2120368475183525,-0.0009160160053112154,1.2120368475183525,-0.04751502877866071,1.2311228513717651,-0.5697715282440186,-0.020002019858723852,-0.13639854468789356,-0.04260606555065593,-0.13557009582265978,-0.0008284488652337829,-0.13557009582265978,-0.03957613437063769,-0.12623222172260284,-1.094189167022705,-0.010166322965290714,-0.9009787612528242,-0.08108092973350273,-0.8991851880714805,-0.001793573181343655,-0.8991851880714805,-0.09681320601704854,-0.851356565952301,-1.2799930572509766,-0.04962219530052314,1.5146973680010911,-0.10299635104296993,1.516610738887315,-0.0019133708862237864,1.516610738887315,-0.08682193245244534,1.5227417945861816,0.023022416979074478,-0.008044426585090525,-1.6683689469110161,-0.012192736226723793,-1.668110961609428,-0.00025798530158804844,-1.668110961609428,-0.013396684580047943,-1.6627318859100342,-0.1235097199678421,-0.0056370610009819355,0.13069365014150908,-0.2340752676018713,0.26519761376232404,-0.04934822767972946,-0.27991554141044617,0.0024373866617679596,0.02780543826520443,-0.25928324460983276,0.0010071024298667908,0.12685437500476837,-0.27995505928993225,1.5981495380401611e-06,,120.0,348.41666666667845,,
1776999796.744056,348450018173,1.2087075195346475,-0.01587563029616938,1.2090993350190788,-0.00039181548443134595,1.2090993350190788,-0.02324423763379566,1.222749948501587,-0.2536219358444214,-0.014042428966939413,-0.13984662738941483,-0.04111707937078104,-0.13900622507294527,-0.0008404023164695629,-0.13900622507294527,-0.042766046573164726,-0.1299881637096405,-0.74345862865448,-0.009858463679774332,-0.9042964951906253,-0.001320969696242324,-0.9040699328977209,-0.00022656229290440866,-0.9040699328977209,-0.02132718676355009,-0.8723722696304321,-1.0325669050216675,-0.03192422556019314,1.5050264990986637,-0.13106372689554305,1.5076231932399258,-0.002596694141262068,1.5076231932399258,-0.12810614664878378,1.521468162536621,-7.846951484680176e-05,-0.016441663437957388,-1.6690431788436644,-0.00435595610922221,-1.6689349215707332,-0.00010825727293117815,-1.6689349215707332,-0.0064528358976302085,-1.6650660037994385,-0.06029549986124039,-0.0039771750442259,0.13223105767290266,-0.23212638129043678,0.2706180548585396,-0.049366168677806854,-0.2799234688282013,0.002637561410665512,0.027804095298051834,-0.2592889964580536,0.0008776560425758362,0.1268543004989624,-0.27995505928993225,1.55717134475708e-06,,120.0,348.4333333333451,,
1776999796.815233,348466684840,1.2083804109618834,-0.0003058779548814755,1.2084668252606023,-8.641429871891759e-05,1.2083804109618834,-0.0003058779548814755,1.2177590131759644,0.197893425822258,-0.009378602214080933,-0.14138860333252584,-0.0355481242835128,-0.1406424625157943,-0.0007461408167315497,-0.14138860333252584,-0.0355481242835128,-0.13236302137374878,0.25300270318984985,-0.009025581958777062,-0.9035509177240753,0.0386330581713638,-0.9041247100215039,0.0005737922974285992,-0.9035509177240753,0.0386330581713638,-0.8847916722297668,-1.1606372594833374,-0.018759245494308407,1.4997840258366173,-0.12968576363535483,1.5024084751737743,-0.0026244493371569977,1.4997840258366173,-0.12968576363535483,1.5207825899124146,0.02255988121032715,-0.020998564075797255,-1.669129939005409,6.574087193960166e-05,-1.6691084779395595,-2.1461065849548433e-05,-1.669129939005409,6.574087193960166e-05,-1.6664448976516724,-0.023256737738847733,-0.0026850413537367057,0.13309740230483139,-0.2309841223364865,0.2737575711174551,-0.04936094582080841,-0.27991989254951477,0.0025817900896072388,0.027822988107800484,-0.25936010479927063,0.0003979429602622986,0.1268543303012848,-0.2799551486968994,1.5720725059509277e-06,,120.0,348.45000000001176,,
1776999796.8866484,348483351508,1.2097325975749986,0.0346295674846458,1.209126646141359,0.0006059514336396177,1.2097325975749986,0.0346295674846458,1.2144191265106201,0.07923878729343414,-0.004686528935621492,-0.14343261661725237,-0.01425513645403395,-0.1430964241308884,-0.00033619248636396204,-0.14343261661725237,-0.01425513645403395,-0.13242538273334503,0.23367613554000854,-0.011007233883907341,-0.8972695487535909,0.1184968248692005,-0.8994395134452978,0.002169964691706938,-0.8972695487535909,0.1184968248692005,-0.8945525884628296,-1.0513139963150024,-0.0027169602907612944,1.490655814099593,-0.09440724311657467,1.49262516827645,-0.0019693541768570633,1.490655814099593,-0.09440724311657467,1.5184189081192017,-0.04938524588942528,-0.027763094019608747,-1.6687350430546228,0.009949270927692792,-1.668909509922197,0.00017446686757427443,-1.6687350430546228,0.009949270927692792,-1.6676462888717651,-0.01703801564872265,-0.0010887541828576985,0.13373182413427,-0.23053730616273205,0.2760790340511039,-0.0493345633149147,-0.2799209654331207,0.0022858865559101105,0.027865562587976456,-0.2593150734901428,3.3527612686157227e-08,0.1268542855978012,-0.2799549400806427,1.6167759895324707e-06,,120.0,348.4666666666784,,
1776999796.962977,348500018175,1.2149495811262587,0.06805287249213525,1.2136507735662052,0.0012988075600535165,1.2136507735662052,0.0618226040751443,1.211691975593567,-0.010258473455905914,0.003257605532691832,-0.14467711577380968,-0.015068975064711027,-0.14438952029077454,-0.00028759548303514126,-0.14438952029077454,-0.013689404210694001,-0.13436171412467957,0.20459213852882385,-0.010315401649130113,-0.8804223212127211,0.21846775864722442,-0.8845918377396216,0.004169516526900452,-0.8845918377396216,0.1984669456471848,-0.9004318714141846,-0.9094041585922241,0.020009550201463444,1.4797372329786174,-0.13816537947941987,1.4823741567826245,-0.002636923804007152,1.4823741567826245,-0.12551628226179828,1.5131691694259644,-0.148328959941864,-0.03343193644734699,-1.6672400628978246,0.019496232501223086,-1.6676121537918283,0.000372090894003696,-1.6676121537918283,0.017711344411185128,-1.6684720516204834,-0.005193658173084259,0.0012319887226588389,0.1342662896299566,-0.2301205459135819,0.27846466512888823,-0.04934617504477501,-0.27988797426223755,0.0018915757536888123,0.027870092540979385,-0.25933122634887695,0.00013241544365882874,0.1268542855978012,-0.27995505928993225,1.6763806343078613e-06,,120.0,348.48333333334506,,
1776999797.032517,348516684843,1.2196031221218997,0.08677762855452022,1.217927962436432,0.0016751596854676087,1.217927962436432,0.08054023545996278,1.2097127437591553,0.031378962099552155,0.009890378362744423,-0.14570755123755894,-0.0192152053686444,-0.14533661995126193,-0.0003709312862970049,-0.14533661995126193,-0.017834056894396703,-0.1377541869878769,0.2858579754829407,-0.007953364249682043,-0.8654832211591825,0.27857918875092036,-0.870860927763744,0.005377706604561494,-0.870860927763744,0.2585555036474372,-0.9026363492012024,-0.8190302848815918,0.03715312804201987,1.4702893105906205,-0.17618160028362687,1.4736903290216656,-0.003401018431045122,1.4736903290216656,-0.16351803808099324,1.503888487815857,-0.2539011836051941,-0.03359917722523642,-1.6659068860034139,0.024860623221982597,-1.666386796718546,0.0004799107151320925,-1.666386796718546,0.02307369400768817,-1.6690020561218262,0.017619602382183075,0.003095170118412316,0.13471120258257277,-0.2299572028142891,0.2809828995090414,-0.04941638931632042,-0.2798278331756592,0.0017669126391410828,0.027886563912034035,-0.2593642771244049,0.00026689842343330383,0.12685434520244598,-0.27995508909225464,1.5832483768463135e-06,,120.0,348.5000000000117,,
1776999797.1043973,348533351510,1.2275396127562226,0.11169057460850329,1.225366731681322,0.0021728810749006566,1.225366731681322,0.1054565338815901,1.2097469568252563,0.0911405086517334,0.01779265593096624,-0.14746493156685692,-0.024731689083850265,-0.1469837896321054,-0.0004811419347515167,-0.1469837896321054,-0.02335128292571875,-0.1411709040403366,0.6648003458976746,-0.006294027526520307,-0.8400049825939297,0.3585563489559028,-0.8469805067835288,0.006975524189599014,-0.8469805067835288,0.3385434258411378,-0.8990528583526611,-0.6978940963745117,0.05904787575873138,1.454176129764153,-0.22676148794225973,1.4585876546165688,-0.004411524852415916,1.4585876546165688,-0.2141047319350428,1.4943311214447021,-0.2431732714176178,-0.04015499168054926,-1.6636331882007516,0.03199784712996536,-1.664255689398457,0.0006225011977054606,-1.664255689398457,0.030211878323906077,-1.6688941717147827,0.039172038435935974,0.005260983514031148,0.13482756340997087,-0.23023131344001888,0.2823441739915421,-0.04942185431718826,-0.2798224687576294,0.0016998574137687683,0.02789253182709217,-0.25937530398368835,0.00030338019132614136,0.1268543004989624,-0.2799551486968994,1.6279518604278564e-06,,120.0,348.51666666667836,,
1776999797.1791017,348550018178,1.232245216391325,0.1241224502577019,1.229825524373365,0.0024196920179599957,1.232245216391325,0.1241224502577019,1.2119371891021729,0.06642137467861176,0.020308027289152042,-0.14850689528190733,-0.02748448433414587,-0.14797110190026683,-0.0005357933816405036,-0.14850689528190733,-0.02748448433414587,-0.1420755535364151,1.0819907188415527,-0.006431341745492231,-0.8248987476681093,0.3984659649559537,-0.8326666004041035,0.0077678527359941185,-0.8248987476681093,0.3984659649559537,-0.8917120695114136,-0.6510329246520996,0.06681332184330424,1.4446225064105034,-0.25200149257118165,1.4495351229341258,-0.004912616523622404,1.4446225064105034,-0.25200149257118165,1.487890601158142,-0.15328079462051392,-0.04326809474763871,-1.6622850960604971,0.03555941226610508,-1.662978305273214,0.0006932092127169831,-1.6622850960604971,0.03555941226610508,-1.6683083772659302,0.025485262274742126,0.006023281205433051,0.13456728459771583,-0.2311034687612087,0.28189424317769307,-0.04942479729652405,-0.2798219919204712,0.0017062090337276459,0.027891574427485466,-0.25937092304229736,0.00029391422867774963,0.1268543004989624,-0.27995505928993225,1.601874828338623e-06,,120.0,348.533333333345,,
1776999797.249027,348566684845,1.2462088528191646,0.15526026547243146,1.2431720974633678,0.0030367553557968385,1.2431720974633678,0.1490431062189899,1.2168012857437134,0.24010297656059265,0.029407567075451224,-0.15159886894059552,-0.0343793433438724,-0.1509264389746246,-0.0006724299659709165,-0.1509264389746246,-0.03300267525724274,-0.14259405434131622,1.4115211963653564,-0.009004814599279293,-0.7800717735634158,0.4984266051173212,-0.7898205631713421,0.009748789607926245,-0.7898205631713421,0.47846787600696045,-0.8769468665122986,-0.5419025421142578,0.09687509294888275,1.4162726211622587,-0.31521951552533517,1.4224380399132215,-0.00616541875096277,1.4224380399132215,-0.30259703338638805,1.4782880544662476,-0.22581496834754944,-0.06201543330398884,-1.658284702066979,0.044479977449843146,-1.6591546916250641,0.0008699895580850381,-1.6591546916250641,0.04269884495882734,-1.6670172214508057,0.07018236815929413,0.008732519383826576,0.13389087039334818,-0.23284255335350085,0.28024373415104564,-0.049426544457674026,-0.27982231974601746,0.0017348229885101318,0.027892714366316795,-0.2593751847743988,0.0002622157335281372,0.1268543154001236,-0.27995505928993225,1.5795230865478516e-06,,120.0,348.55000000001166,,
1776999797.319397,348583351513,1.2560922321407275,0.17396288948648594,1.2526750561422837,0.003417175998443822,1.2526750561422837,0.16773248815947348,1.222407579421997,0.15194322168827057,0.033684652718730446,-0.1537873496188932,-0.03852067293941602,-0.15303068295624453,-0.0007566666626486751,-0.15303068295624453,-0.037141072655072604,-0.14248238503932953,1.4421671628952026,-0.011304964579563676,-0.7483435062740061,0.5584669854798133,-0.7593135469783076,0.01097004070430141,-0.7593135469783076,0.538465745803241,-0.8605520725250244,-0.4833138585090637,0.11220856625101827,1.3962067399658236,-0.35319080240197137,1.4031445135128229,-0.006937773546999315,1.4031445135128229,-0.3405414353416116,1.4680359363555908,-0.24023956060409546,-0.07182919638976726,-1.655453246845554,0.04983802763661513,-1.6564322218002259,0.0009789749546718074,-1.6564322218002259,0.048053101469620045,-1.6655827760696411,0.08086806535720825,0.010129529224087053,0.13306139027413375,-0.23484524224493838,0.27819477166861367,-0.04942970350384712,-0.2798228859901428,0.0017857551574707031,0.027891548350453377,-0.25937318801879883,0.0002048984169960022,0.12685434520244598,-0.27995508909225464,1.5832483768463135e-06,,120.0,348.5666666666783,,
1776999797.388508,348600018180,1.267090493223014,0.19265258953237047,1.2633003196819337,0.003790173541080355,1.267090493223014,0.19265258953237047,1.23020601272583,0.2122724950313568,0.03688448049718396,-0.15622269901613237,-0.04265914077543429,-0.1553834393568423,-0.0008392596592900758,-0.15622269901613237,-0.04265914077543429,-0.14477522671222687,1.7373327016830444,-0.011447472303905498,-0.7130361730245282,0.6184658764784039,-0.725203634706614,0.012167461682085823,-0.7130361730245282,0.6184658764784039,-0.8353280425071716,-0.2101290225982666,0.12229186948264348,1.3738773531170385,-0.3911358501952062,1.3815724105983649,-0.007695057481326373,1.3738773531170385,-0.3911358501952062,1.451945185661316,-0.3780331611633301,-0.0780678325442774,-1.6523023929974148,0.055192375280152674,-1.653388226730374,0.0010858337329593404,-1.6523023929974148,0.055192375280152674,-1.6633193492889404,0.12747612595558167,0.01101695629152566,0.1318202158222414,-0.23739464807830069,0.2756280210256847,-0.04943456873297691,-0.2798228859901428,0.00186195969581604,0.027890846133232117,-0.2593727111816406,0.00011771544814109802,0.12685427069664001,-0.2799549698829651,1.5981495380401611e-06,,120.0,348.58333333334497,,
1776999797.4587007,348616684848,1.2834981555519742,0.21757069277878194,1.2792112430144182,0.004286912537555976,1.2792112430144182,0.2113439402005862,1.2384401559829712,0.25472337007522583,0.04505799956900303,-0.15985585431804572,-0.04817676644984378,-0.15890660154197117,-0.0009492527760745495,-0.15890660154197117,-0.046797974109435425,-0.14557383954524994,1.6888465881347656,-0.014282014772795781,-0.660363227969008,0.6984595926380731,-0.6741253534943453,0.013762125525337288,-0.6741253534943453,0.6784700664124578,-0.810158371925354,-0.19569611549377441,0.14979514395634597,1.3405654471087591,-0.44172620832223447,1.349269016493212,-0.008703569384452825,1.349269016493212,-0.4290842491897825,1.4361510276794434,-0.36114782094955444,-0.09558558057068423,-1.647601818461001,0.0623310766543923,-1.6488299612341675,0.0012281427731664074,-1.6488299612341675,0.06054719580490138,-1.661090612411499,0.11366914212703705,0.013488793950497957,0.1305216753629314,-0.24014203109049753,0.27261192102386866,-0.04944109171628952,-0.2798226773738861,0.0019609779119491577,0.02789243310689926,-0.2593763768672943,3.300607204437256e-06,0.1268543154001236,-0.2799549996852875,1.5869736671447754e-06,,120.0,348.6000000000116,,
1776999797.5301414,348633351515,1.3019110385591863,0.2425041362658837,1.2971150188739624,0.004796019685223918,1.2971150188739624,0.23626326718238505,1.2494999170303345,1.3913694620132446,0.052411121528851856,-0.16393302644530783,-0.053697788919951715,-0.16287104186773102,-0.0010619845775768078,-0.16287104186773102,-0.05231587075609109,-0.1487731635570526,2.0482535362243652,-0.015159862888255216,-0.6012529930368333,0.778502555036372,-0.6166494874490192,0.015396494412185824,-0.6166494874490192,0.7584677110874101,-0.7742353081703186,0.20828282833099365,0.17298231513348528,1.3031824113185193,-0.4923477112062241,1.3129196032331756,-0.009737191914656274,1.3129196032331756,-0.47967709182435186,1.413267731666565,-0.5357509851455688,-0.11008532034804563,-1.6423267751751025,0.06947417280123203,-1.6437007702974142,0.001373995122311733,-1.6437007702974142,0.06768624776280854,-1.6578669548034668,0.16309212148189545,0.015540179628364292,0.12857478464167563,-0.2436159511008031,0.26875426973440897,-0.04944087192416191,-0.2798217236995697,0.001957610249519348,0.02789243496954441,-0.2593762278556824,2.4959444999694824e-06,0.1268542855978012,-0.2799549400806427,1.6316771507263184e-06,,120.0,348.61666666667827,,
1776999797.6019936,348650018183,1.3170130694492774,0.26118352193516636,1.31185183094024,0.00516123850903738,1.3170130694492774,0.26118352193516636,1.2606512308120728,0.33718451857566833,0.056361838637204675,-0.16727707524994181,-0.05783397283940517,-0.16613422012057621,-0.0011428551293655997,-0.16727707524994181,-0.05783397283940517,-0.14977805316448212,2.3185882568359375,-0.017499022085459698,-0.552771470967932,0.8384683341524414,-0.569340414608681,0.016568943640749012,-0.552771470967932,0.8384683341524414,-0.7400380969047546,0.033104658126831055,0.18726662593682264,1.272521283398004,-0.5302718180797545,1.2829999663847884,-0.010478682986784449,1.272521283398004,-0.5302718180797545,1.3918700218200684,-0.478582501411438,-0.1193487384220644,-1.6380002464821752,0.074825565514764,-1.6394788718844744,0.0014786254022991496,-1.6380002464821752,0.074825565514764,-1.6548430919647217,0.1092337965965271,0.016842845482546442,0.12671332307880012,-0.24711038485199713,0.2644169473801371,-0.0494409054517746,-0.2798221707344055,0.0019577406346797943,0.027892407029867172,-0.2593763470649719,2.4847686290740967e-06,0.12685425579547882,-0.2799549698829651,1.6279518604278564e-06,,120.0,348.6333333333449,,
1776999797.6731782,348666684851,1.3389038983649635,0.2861028666490603,1.3332447778871956,0.005659120477767843,1.3332447778871956,0.27987356098692223,1.2749961614608765,1.6267266273498535,0.06390773690408702,-0.17212437034559508,-0.06335187341245757,-0.17087126901063654,-0.0012531013349585396,-0.17087126901063654,-0.06197251574164189,-0.15394461154937744,2.3070766925811768,-0.018179758796217638,-0.48249610781272373,0.9184660357516684,-0.5006633845406157,0.018167276727891923,-0.5006633845406157,0.8984683134499369,-0.6934923529624939,0.3572615385055542,0.21099624514977017,1.2280770950266038,-0.5808646967149198,1.2395666104533194,-0.011489515426715613,1.2395666104533194,-0.5682175541449955,1.3621951341629028,-0.6457639932632446,-0.13411803913629905,-1.6317288184798795,0.08196462255271918,-1.6333500803685608,0.0016212618886812802,-1.6333500803685608,0.08018001027901589,-1.6506636142730713,0.22655051946640015,0.018934795793191794,0.12400301788244655,-0.2512510616967295,0.2591344429138395,-0.04944092780351639,-0.27982208132743835,0.001957755535840988,0.02789243310689926,-0.25937631726264954,2.4549663066864014e-06,0.1268543154001236,-0.2799549996852875,1.5981495380401611e-06,,120.0,348.6500000000116,,
1776999797.742834,348683351518,1.3566206227818147,0.3034182348935019,1.3505982093289275,0.006022413452887232,1.3566206227818147,0.3034182348935019,1.2923070192337036,0.951324462890625,0.06431360354811111,-0.17604739179478784,-0.06718602240215701,-0.1747138463494957,-0.0013335454452921558,-0.17604739179478784,-0.06718602240215701,-0.15717925131320953,2.740203857421875,-0.01886814048157831,-0.4256207264779003,0.9740529573905098,-0.44495426994958476,0.019333543471684478,-0.4256207264779003,0.9740529573905098,-0.6387563943862915,0.5700740814208984,0.21313566790839122,1.1921074458032006,-0.6160194864645817,1.2043345423184395,-0.0122270965152389,1.1921074458032006,-0.6160194864645817,1.3277151584625244,-0.7526327967643738,-0.1356077126593238,-1.626653215265184,0.08692524262317498,-1.6283785557041093,0.0017253404389252491,-1.626653215265184,0.08692524262317498,-1.6457960605621338,0.17193517088890076,0.019142845296949762,0.12061143372327089,-0.256100337288718,0.2522118643206362,-0.04944091662764549,-0.2798219621181488,0.0019577406346797943,0.027892429381608963,-0.2593763768672943,2.436339855194092e-06,0.1268543154001236,-0.27995502948760986,1.6540288925170898e-06,,120.0,348.6666666666782,,
1776999797.8139307,348700018186,1.3820070403408182,0.32745445749608026,1.375449122726464,0.006557917614354203,1.375449122726464,0.3262574528894295,1.3080930709838867,1.5483982563018799,0.07391396935693151,-0.18166871649674057,-0.07250837288912396,-0.18021659414851013,-0.0014521223482304446,-0.18021659414851013,-0.07224331967521362,-0.15906062722206116,2.7510857582092285,-0.022608089274679416,-0.3441235972444592,1.0512156029341098,-0.36517625101402335,0.021052653769564167,-0.36517625101402335,1.0473729008712944,-0.5903846621513367,0.4149683713912964,0.2462610649068775,1.14056628541987,-0.6648193930008429,1.1538805974040842,-0.013314311984214289,1.1538805974040842,-0.6623891561914153,1.2973434925079346,-0.6716965436935425,-0.15677720708806464,-1.6193803481402935,0.09381129705623253,-1.6212591033177155,0.0018787551774219757,-1.6212591033177155,0.09346837133891163,-1.6415094137191772,0.1130453422665596,0.022129065578883722,0.11737776140091774,-0.2605305626822209,0.2453714904533534,-0.04944095388054848,-0.27982211112976074,0.0019577741622924805,0.027892425656318665,-0.2593763470649719,2.436339855194092e-06,0.12685425579547882,-0.27995505928993225,1.6242265701293945e-06,,120.0,348.6833333333449,,
1776999797.8839855,348716684853,1.4010945695022825,0.3087635721488575,1.3948566375547604,0.006237931947522091,1.4010945695022825,0.3087635721488575,1.3277026414871216,1.4268943071365356,0.07339192801516092,-0.18589527579464854,-0.06836964259133692,-0.1845140080019714,-0.0013812677926771377,-0.18589527579464854,-0.06836964259133692,-0.1645001620054245,2.382439136505127,-0.02139511378922404,-0.28284756933688393,0.9912129068037542,-0.30287298430120674,0.020025414964322807,-0.28284756933688393,0.9912129068037542,-0.5268406271934509,1.0107691287994385,0.243993057856567,1.1018135390134132,-0.6268719387312597,1.1144781952304739,-0.012664656217060699,1.1018135390134132,-0.6268719387312597,1.2569419145584106,-0.8891887664794922,-0.15512837554499748,-1.6139120278067445,0.08845660983972885,-1.6156991113951633,0.0017870835884188363,-1.6139120278067445,0.08845660983972885,-1.6358160972595215,0.1940060704946518,0.02190406945277701,0.11298864910043974,-0.264897230326104,0.23759979570520656,-0.04944087192416191,-0.2798219621181488,0.001957729458808899,0.027892448008060455,-0.25937625765800476,2.473592758178711e-06,0.12685425579547882,-0.27995505928993225,1.6242265701293945e-06,,120.0,348.7000000000115,,
1776999797.9554977,348733351521,1.4247871008914927,0.28385640823661756,1.4190478904299024,0.005739210461590316,1.4190478904299024,0.290086189466875,1.3456370830535889,1.4291691780090332,0.07915001783790387,-0.19114152259731035,-0.06285443921811465,-0.18987068690485936,-0.0012708356924509834,-0.18987068690485936,-0.06423390219417335,-0.1676807999610901,2.9599766731262207,-0.02346072263622026,-0.2067882636862918,0.9112543088063753,-0.22521265049073394,0.01842438680444214,-0.22521265049073394,0.9312535578078635,-0.46999111771583557,0.6005700826644897,0.2632028540295438,1.0537114167907646,-0.5763037903538547,1.0653635361253266,-0.011652119334562006,1.0653635361253266,-0.5889518984532169,1.2211648225784302,-0.7569493651390076,-0.16745340578766554,-1.6071244362828292,0.08132104243758993,-1.6087686428744812,0.0016442065916519866,-1.6087686428744812,0.08310579095515551,-1.6307591199874878,0.16477623581886292,0.0236346837046586,0.10888817328647128,-0.2691711483587036,0.2292955432327738,-0.04944094270467758,-0.2798221707344055,0.0019577592611312866,0.027892421931028366,-0.25937631726264954,2.4400651454925537e-06,0.12685425579547882,-0.27995505928993225,1.6242265701293945e-06,,120.0,348.7166666666782,,
1776999798.0277874,348750018188,1.4412688364143642,0.26515337876114375,1.43590302660352,0.005365809810844224,1.4412688364143642,0.26515337876114375,1.3686771392822266,2.4506497383117676,0.07259169713213764,-0.19479107995649383,-0.05871301984109642,-0.19360292652107614,-0.0011881534354176992,-0.19479107995649383,-0.05871301984109642,-0.1734076887369156,2.464175224304199,-0.021383391219578246,-0.1538775240446341,0.851212626805478,-0.17110319578741065,0.01722567174277656,-0.1538775240446341,0.851212626805478,-0.395774781703949,1.4176074266433716,0.24189725765931488,1.0202491225538743,-0.5383316802832165,1.0311431395377355,-0.010894016983861166,1.0202491225538743,-0.5383316802832165,1.1740949153900146,-1.0781853199005127,-0.1538457928361403,-1.6024026407728145,0.07596287609166802,-1.6039398731011263,0.0015372323283118217,-1.6024026407728145,0.07596287609166802,-1.624122142791748,0.2037644237279892,0.02171950201893358,0.10324083073848522,-0.27332743024537554,0.21935017877713192,-0.04944095015525818,-0.27982211112976074,0.001957777887582779,0.027892431244254112,-0.2593763470649719,2.4102628231048584e-06,0.12685425579547882,-0.27995505928993225,1.6242265701293945e-06,,120.0,348.73333333334483,,
1776999798.0978365,348766684856,1.4566357302196782,0.24644008627009925,1.4516241395634033,0.005011590656274878,1.4566357302196782,0.24644008627009925,1.3897117376327515,2.148848056793213,0.06692399258692672,-0.19819377746351008,-0.054569327920395906,-0.19708405891867345,-0.0011097185448366298,-0.19819377746351008,-0.054569327920395906,-0.17661286890506744,3.442387580871582,-0.021580908558442635,-0.1045457218138768,0.7911379978042896,-0.12063425618192077,0.016088534368043972,-0.1045457218138768,0.7911379978042896,-0.33051249384880066,0.705146312713623,0.22596677203492388,0.9890502526710936,-0.5003387335691183,0.9992251108286228,-0.010174858157529165,0.9890502526710936,-0.5003387335691183,1.1331236362457275,-0.8196544647216797,-0.14407338357463395,-1.598000232417693,0.07060176952983606,-1.5994359857232834,0.001435753305590426,-1.598000232417693,0.07060176952983606,-1.6183370351791382,0.16173264384269714,0.020336802761445227,0.09793203363883365,-0.27708222243200864,0.20922540802952838,-0.04944095388054848,-0.27982214093208313,0.001957755535840988,0.02789240889251232,-0.25937628746032715,2.436339855194092e-06,0.12685425579547882,-0.27995505928993225,1.6242265701293945e-06,,120.0,348.7500000000115,,
1776999798.1688724,348783351523,1.4797230531547905,0.21528882673292002,1.4753373682808444,0.004385684873946083,1.4753373682808444,0.2215436012265043,1.413582444190979,1.732271432876587,0.06614060896381146,-0.20330601271353985,-0.047671491928925946,-0.20233488873909186,-0.0009711239744479849,-0.20233488873909186,-0.04905648917338056,-0.18178603053092957,2.7897167205810547,-0.02151998218261028,-0.03042929571618474,0.6911341978044142,-0.04450850662171781,0.014079210905533074,-0.04450850662171781,0.7112136818058108,-0.25428763031959534,1.3974581956863403,0.2238583346034106,0.9421768641177586,-0.4370934150748705,0.9510809675405215,-0.008904103422762932,0.9510809675405215,-0.44979226612722345,1.0849648714065552,-0.9708033800125122,-0.1427880072887966,-1.59138602497443,0.06167735272862001,-1.592642464693257,0.0012564397188270515,-1.592642464693257,0.06346926147990956,-1.6115400791168213,0.2137238085269928,0.020154054142391242,0.09157768437735514,-0.2799625525091115,0.19830500406537144,-0.04944092035293579,-0.2798219323158264,0.0019576624035835266,0.027892427518963814,-0.25937631726264954,2.428889274597168e-06,0.12685425579547882,-0.27995505928993225,1.6242265701293945e-06,,120.0,348.76666666667813,,
1776999798.2418704,348800018191,1.4959339199817212,0.19039402379335818,1.4920808246104054,0.00385309537131584,1.4920808246104054,0.19659696985605712,1.4324486255645752,1.2045862674713135,0.06348529441714601,-0.20689559150788883,-0.04215902565087184,-0.2060423990422951,-0.0008531924655937329,-0.2060423990422951,-0.04353254650493077,-0.1852562129497528,2.727409839630127,-0.021639378558136024,0.021611883615629605,0.6112152818056323,0.00924242618056339,0.012369457435066214,0.00924242618056339,0.6311283828063967,-0.19513623416423798,0.4577585458755493,0.21674811777986758,0.9092645051707875,-0.38655036275020194,0.9170873106550071,-0.007822805484219653,0.9170873106550071,-0.3991439883424614,1.0477415323257446,-0.5612234473228455,-0.13847702715495713,-1.586741829701995,0.05454532657884231,-1.5878456896928732,0.0011038599908781421,-1.5878456896928732,0.05632238718189758,-1.6062883138656616,0.1695757955312729,0.019546484163666555,0.0863887847905609,-0.2821930610606881,0.18880270675496216,-0.04944092780351639,-0.27982205152511597,0.0019577033817768097,0.027892420068383217,-0.2593763470649719,2.428889274597168e-06,0.12685425579547882,-0.27995505928993225,1.6242265701293945e-06,,120.0,348.7833333333448,,
1776999798.3121114,348816684858,1.5033000735688475,0.17793470555000918,1.4996795262730387,0.0036205472958088514,1.5033000735688475,0.17793470555000918,1.4523873329162598,0.7104513645172119,0.050912740652587773,-0.20852668187428056,-0.039400153775854756,-0.20772498262304853,-0.0008016992512320242,-0.20852668187428056,-0.039400153775854756,-0.19057701528072357,3.546976089477539,-0.017949666593556984,0.045259189087072584,0.5712175678043724,0.03363627261307637,0.011622916473996214,0.045259189087072584,0.5712175678043724,-0.12955547869205475,1.2503621578216553,0.17481466777912733,0.8943092598093704,-0.3612546423770078,0.9016599310261727,-0.007350671216802329,0.8943092598093704,-0.3612546423770078,1.0060129165649414,-0.9492940902709961,-0.11170365675557103,-1.5846315257910073,0.050975899508659495,-1.58566876388656,0.0010372380955527838,-1.5846315257910073,0.050975899508659495,-1.6003966331481934,0.17875173687934875,0.01576510735718606,0.08093326608543405,-0.28346892109502364,0.17921299454418754,-0.049440909177064896,-0.2798219621181488,0.0019576959311962128,0.02789243310689926,-0.2593763470649719,2.43261456489563e-06,0.12685425579547882,-0.27995505928993225,1.6242265701293945e-06,,120.0,348.80000000001144,,
1776999798.3826232,348833351526,1.5165379352733386,0.1530148735242104,1.5134159548820323,0.0031219803913062893,1.5165379352733386,0.1530148735242104,1.4712570905685425,1.5652095079421997,0.0452808447047961,-0.2114579469426006,-0.033882145297135,-0.21076664556256647,-0.0006913013800341206,-0.2114579469426006,-0.033882145297135,-0.19588133692741394,3.26157808303833,-0.015576610015186648,0.08775623395753923,0.4912183018048489,0.07773384939606263,0.010022384561476597,0.08775623395753923,0.4912183018048489,-0.06757725775241852,0.5149750709533691,0.15533349170995775,0.8674328897324276,-0.3106607743694991,0.8737713379080295,-0.006338448175601918,0.8674328897324276,-0.3106607743694991,0.9667538404464722,-0.6046857833862305,-0.09932095071404456,-1.5808390564923884,0.04383670286235269,-1.5817334618766739,0.0008944053842854238,-1.5808390564923884,0.04383670286235269,-1.5948643684387207,0.09763619303703308,0.014025311946332275,0.0755068249801007,-0.28443986251298925,0.16957088144101948,-0.049440909177064896,-0.27982208132743835,0.0019576959311962128,0.027892420068383217,-0.25937628746032715,2.43261456489563e-06,0.12685425579547882,-0.27995505928993225,1.6242265701293945e-06,,120.0,348.8166666666781,,
1776999798.4532979,348850018193,1.527782585578488,0.12809417365737943,1.525158624528424,0.0026239610500637944,1.525158624528424,0.13432367266757353,1.487385869026184,1.02467942237854,0.04039671655230381,-0.2139478544050554,-0.02836394465201049,-0.2133668296490652,-0.0005810247559902004,-0.2133668296490652,-0.029743345135967672,-0.19634000957012177,2.699526786804199,-0.017607844834933634,0.12385454191980548,0.4112162498053248,0.11543093144764875,0.008423610472156728,0.11543093144764875,0.43121459280562785,-0.021365299820899963,0.4205961227416992,0.14521984174070546,0.8446032674162766,-0.2600651444143283,0.8499306042493141,-0.005327336833037544,0.8499306042493141,-0.2727126795321242,0.9379659295082092,-0.5079045295715332,-0.09336266209193267,-1.577617615446398,0.03669725759129377,-1.578369344988924,0.0007517295425261139,-1.578369344988924,0.038481925256611496,-1.5907942056655884,0.16033433377742767,0.013176590219190487,0.07095333087994556,-0.2846787463013113,0.1618383615648437,-0.04944091662764549,-0.27982181310653687,0.001957673579454422,0.027892431244254112,-0.2593763470649719,2.4512410163879395e-06,0.12685425579547882,-0.27995505928993225,1.6242265701293945e-06,,120.0,348.83333333334474,,
1776999798.5247946,348866684861,1.534916097177383,0.10937974574642473,1.5326572947260366,0.0022588024513463534,1.534916097177383,0.10937974574642473,1.5000627040863037,0.21248513460159302,0.034853393091079266,-0.21552743076195305,-0.02422000131482196,-0.21502726322208343,-0.000500167539869617,-0.21552743076195305,-0.02422000131482196,-0.20325851440429688,2.8576626777648926,-0.012268916357656173,0.14675500494544347,0.3511379758053208,0.1395036503633169,0.007251354582126557,0.14675500494544347,0.3511379758053208,0.026907069608569145,0.298254132270813,0.11984793533687432,0.8301203469900118,-0.2220698924967031,0.8347063150238455,-0.0045859680338337094,0.8301203469900118,-0.2220698924967031,0.906796932220459,-0.39142319560050964,-0.07667658523044718,-1.575573960335469,0.031335825746948216,-1.5762210768516862,0.0006471165162171832,-1.575573960335469,0.031335825746948216,-1.5863991975784302,0.1320984661579132,0.010825237242961139,0.06737979507604458,-0.28459387495689054,0.15498285598336153,-0.0494409054517746,-0.27982181310653687,0.001957688480615616,0.027892423793673515,-0.25937631726264954,2.4437904357910156e-06,0.12685425579547882,-0.27995505928993225,1.6242265701293945e-06,,120.0,348.8500000000114,,
1776999798.5930932,348883351529,1.5426631411977691,0.08448377717066534,1.5409111821033064,0.001751959094462796,1.5409111821033064,0.09071373533284219,1.5131497383117676,0.811208188533783,0.029513402886001572,-0.2172428618509477,-0.01870727692949161,-0.21685492484047242,-0.00038793701047529217,-0.21685492484047242,-0.020086779083649347,-0.20345444977283478,2.8363404273986816,-0.013788412078112933,0.17162506966564872,0.2712153178055157,0.16600081660192673,0.005624253063721996,0.16600081660192673,0.2912151348053076,0.0637584775686264,0.13175833225250244,0.10786659209702232,0.8143917930330227,-0.17152447362149742,0.8179487346323197,-0.003556941599296981,0.8179487346323197,-0.1841729409395481,0.8838651180267334,-0.3421311676502228,-0.06947332499371073,-1.5733545364392068,0.02420346565806347,-1.5738564491518865,0.0005019127126797418,-1.5738564491518865,0.02598826486426276,-1.5831575393676758,0.19053378701210022,0.009803002928469029,0.06359100129557554,-0.28428493663234444,0.14866828410024827,-0.0494409017264843,-0.2798220217227936,0.0019577108323574066,0.02789241261780262,-0.25937625765800476,2.4959444999694824e-06,0.12685425579547882,-0.27995505928993225,1.6242265701293945e-06,,120.0,348.86666666667804,,
1776999798.6663055,348900018196,1.5484272603107792,0.059552108738951205,1.547171398629487,0.001255861681292103,1.547171398629487,0.06579405282738855,1.5232280492782593,-0.20182353258132935,0.025199211032519875,-0.21851921307615108,-0.013186647510605484,-0.21824112711640994,-0.00027808595974113115,-0.21824112711640994,-0.014568803713268812,-0.20870745182037354,2.6054015159606934,-0.00981176125577754,0.19012941984338166,0.19117805380549566,0.1860977709704461,0.004031648872935556,0.1860977709704461,0.21121634880557175,0.10146620124578476,0.03996133804321289,0.0886632185975969,0.8026891025300482,-0.12090657457071403,0.8052388348104826,-0.0025497322804344247,0.8052388348104826,-0.13357937649787271,0.8595733642578125,-0.16506069898605347,-0.056884261727764285,-1.5717031938540011,0.017060878040746623,-1.5720629813314606,0.00035978747745946116,-1.5720629813314606,0.01884911105356398,-1.5797390937805176,0.07818733155727386,0.008035899926516432,0.0607455682597202,-0.28379287182996116,0.1432661726333097,-0.0494409017264843,-0.2798220217227936,0.0019577108323574066,0.02789241261780262,-0.25937625765800476,2.4959444999694824e-06,0.12685425579547882,-0.27995505928993225,1.6242265701293945e-06,,120.0,348.8833333333447,,
1776999798.7327065,348916684864,1.5505619799841024,0.047079932679140096,1.5495540750700012,0.0010079049141011875,1.5505619799841024,0.047079932679140096,1.533383846282959,0.03326451778411865,0.017178133701143405,-0.21899190491632534,-0.010424928524098114,-0.21876872412377393,-0.00022318079255140288,-0.21899190491632534,-0.010424928524098114,-0.20837773382663727,2.9685418605804443,-0.010614171089688068,0.19698243581893676,0.15113906280536762,0.1937467938915733,0.003235641927363475,0.19698243581893676,0.15113906280536762,0.12937097251415253,-0.19758504629135132,0.06761146330478424,0.7983550554436304,-0.09558474942012198,0.8004013697259846,-0.0020463142823542446,0.7983550554436304,-0.09558474942012198,0.8422379493713379,-0.07014328241348267,-0.0438828939277075,-1.5710916253844884,0.013487767379088182,-1.5713803765837366,0.000288751199248205,-1.5710916253844884,0.013487767379088182,-1.5772806406021118,0.14878013730049133,0.006189015217623384,0.05782954649123592,-0.2832181835830425,0.13838544481178985,-0.0494409017264843,-0.2798220217227936,0.0019577108323574066,0.02789241261780262,-0.25937625765800476,2.4959444999694824e-06,0.12685425579547882,-0.27995505928993225,1.6242265701293945e-06,,120.0,348.90000000001135,,
1776999798.80239,348933351531,1.5533315984088047,0.022159503194786066,1.5528239875079153,0.0005076109008894658,1.5533315984088047,0.022159503194786066,1.5400745868682861,-0.603350043296814,0.013257011540518615,-0.2196051826436604,-0.004906787749884936,-0.21949278215668658,-0.00011240048697383487,-0.2196051826436604,-0.004906787749884936,-0.21286307275295258,2.848280191421509,-0.006742109890707837,0.2058736450713108,0.07113787880527347,0.20424407953320603,0.0016295655381047824,0.2058736450713108,0.07113787880527347,0.156340092420578,-0.15755414962768555,0.04953355265073281,0.7927319955102463,-0.044989668413120416,0.7937625802626742,-0.0010305847524278988,0.7927319955102463,-0.044989668413120416,0.8247494697570801,-0.08543625473976135,-0.032017474246833766,-1.5702981669635547,0.006348399568990225,-1.570443590658125,0.00014542369457037907,-1.5702981669635547,0.006348399568990225,-1.5748224258422852,0.08148350566625595,0.004524258878730425,0.055971782687220376,-0.2827012286519469,0.1345638602776898,-0.0494409017264843,-0.2798220217227936,0.0019577108323574066,0.02789241261780262,-0.25937625765800476,2.4959444999694824e-06,0.12685425579547882,-0.27995505928993225,1.6242265701293945e-06,,120.0,348.916666666678,,
1776999798.8711662,348950018199,1.5541197884351325,1.3050638338025822e-16,1.5541001981004943,1.959033463827531e-05,1.5541001981004943,0.0034935381505295125,1.5472396612167358,-0.05706965923309326,0.006880127218396703,-0.21977971187979733,-2.889808122602837e-17,-0.21977537398407926,-4.33789571807619e-06,-0.21977537398407926,-0.0007735755648336935,-0.21246516704559326,2.102776288986206,-0.007314544834204073,0.20840394397177112,4.1896008239089304e-16,0.20834105380500859,6.289016676253034e-05,0.20834105380500859,0.011215183452698271,0.1753162443637848,-0.19898515939712524,0.033087699607986326,0.7911317607207139,-2.6496256989457096e-16,0.7911715342955886,-3.9773574874724105e-05,0.7911715342955886,-0.007092808967637576,0.8130156993865967,-0.01262328028678894,-0.021883938665882785,-1.570072361123983,3.7388323227126015e-17,-1.5700779734913222,5.612367339091762e-06,-1.5700779734913222,0.0010008516839447356,-1.5731627941131592,0.1323792040348053,0.003090432989176106,0.05384780116780674,-0.2820716953997271,0.1313968017257599,-0.0494409017264843,-0.2798220217227936,0.0019577108323574066,0.02789241261780262,-0.25937625765800476,2.4959444999694824e-06,0.12685425579547882,-0.27995505928993225,1.6242265701293945e-06,,120.0,348.93333333334465,,
1776999798.9418023,348966684866,1.5541197884351325,1.3050638338025822e-16,1.5541197884351325,0.0,1.5541197884351325,1.3050638338025822e-16,1.5503132343292236,-1.6718366146087646,0.0038065541059089103,-0.21977971187979733,-2.889808122602837e-17,-0.21977971187979733,0.0,-0.21977971187979733,-2.889808122602837e-17,-0.21497592329978943,2.431735038757324,-0.004803788580007906,0.20840394397177112,4.1896008239089304e-16,0.20840394397177112,0.0,0.20840394397177112,4.1896008239089304e-16,0.18887723982334137,-0.22956818342208862,0.019526704148429747,0.7911317607207139,-2.6496256989457096e-16,0.7911317607207139,0.0,0.7911317607207139,-2.6496256989457096e-16,0.8041058778762817,0.1257968544960022,-0.012974117155567844,-1.570072361123983,3.7388323227126015e-17,-1.570072361123983,0.0,-1.570072361123983,3.7388323227126015e-17,-1.5719032287597656,-0.025524146854877472,0.0018308676357825515,0.053144225568600115,-0.28181359082904595,0.1293321066825983,-0.0494409017264843,-0.2798220217227936,0.0019577108323574066,0.02789241261780262,-0.25937625765800476,2.4959444999694824e-06,0.12685425579547882,-0.27995505928993225,1.6242265701293945e-06,,120.0,348.9500000000113,,
1776999799.0090158,348983351534,1.5541197884351325,1.3050638338025822e-16,1.5541197884351325,0.0,1.5541197884351325,1.3050638338025822e-16,1.554727554321289,-1.1525484323501587,-0.0006077658861565194,-0.21977971187979733,-2.889808122602837e-17,-0.21977971187979733,0.0,-0.21977971187979733,-2.889808122602837e-17,-0.21536728739738464,2.866680860519409,-0.004412424482412691,0.20840394397177112,4.1896008239089304e-16,0.20840394397177112,0.0,0.20840394397177112,4.1896008239089304e-16,0.20093196630477905,-0.4949999451637268,0.0074719776669920634,0.7911317607207139,-2.6496256989457096e-16,0.7911317607207139,0.0,0.7911317607207139,-2.6496256989457096e-16,0.7964839339256287,0.1384257674217224,-0.0053521732049147674,-1.570072361123983,3.7388323227126015e-17,-1.570072361123983,0.0,-1.570072361123983,3.7388323227126015e-17,-1.5708354711532593,0.024440083652734756,0.0007631100292762039,0.051825275390321196,-0.2813208923065793,0.12762983584603171,-0.0494409017264843,-0.2798220217227936,0.0019577108323574066,0.02789241261780262,-0.25937625765800476,2.4959444999694824e-06,0.12685425579547882,-0.27995505928993225,1.6242265701293945e-06,,120.0,348.96666666667795,,
1776999799.0803392,349000018201,1.5541197884351325,1.3050638338025822e-16,1.5541197884351325,0.0,1.5541197884351325,1.3050638338025822e-16,1.555600643157959,-1.9838647842407227,-0.0014808547228264413,-0.21977971187979733,-2.889808122602837e-17,-0.21977971187979733,0.0,-0.21977971187979733,-2.889808122602837e-17,-0.21672901511192322,2.551633596420288,-0.003050696767874117,0.20840394397177112,4.1896008239089304e-16,0.20840394397177112,0.0,0.20840394397177112,4.1896008239089304e-16,0.20669008791446686,-0.7065051198005676,0.0017138560573042583,0.7911317607207139,-2.6496256989457096e-16,0.7911317607207139,0.0,0.7911317607207139,-2.6496256989457096e-16,0.7927129864692688,0.3572329580783844,-0.0015812257485549042,-1.570072361123983,3.7388323227126015e-17,-1.570072361123983,0.0,-1.570072361123983,3.7388323227126015e-17,-1.5702987909317017,0.020203007385134697,0.00022642980771858667,0.0516087606969239,-0.2812590914854606,0.12667423123357868,-0.0494409017264843,-0.2798220217227936,0.0019577108323574066,0.02789241261780262,-0.25937625765800476,2.4959444999694824e-06,0.12685425579547882,-0.27995505928993225,1.6242265701293945e-06,,120.0,348.9833333333446,,
1776999799.1529727,349016684869,1.5541197884351325,1.3050638338025822e-16,1.5541197884351325,0.0,1.5541197884351325,1.3050638338025822e-16,1.556946873664856,-0.7751412987709045,-0.002827085229723414,-0.21977971187979733,-2.889808122602837e-17,-0.21977971187979733,0.0,-0.21977971187979733,-2.889808122602837e-17,-0.21625973284244537,2.3967764377593994,-0.0035199790373519613,0.20840394397177112,4.1896008239089304e-16,0.20840394397177112,0.0,0.20840394397177112,4.1896008239089304e-16,0.20869408547878265,-0.6593459844589233,-0.0002901415070115376,0.7911317607207139,-2.6496256989457096e-16,0.7911317607207139,0.0,0.7911317607207139,-2.6496256989457096e-16,0.7914903163909912,0.21191208064556122,-0.0003585556702773163,-1.570072361123983,3.7388323227126015e-17,-1.570072361123983,0.0,-1.570072361123983,3.7388323227126015e-17,-1.5701292753219604,0.06392746418714523,5.6914197977375736e-05,0.051157258563958544,-0.28110177453547713,0.1264430897986196,-0.0494409017264843,-0.2798220217227936,0.0019577108323574066,0.02789241261780262,-0.25937625765800476,2.4959444999694824e-06,0.12685425579547882,-0.27995505928993225,1.6242265701293945e-06,,120.0,349.00000000001125,,
1776999799.2229154,349033351536,1.5541197884351325,1.3050638338025822e-16,1.5541197884351325,0.0,1.5541197884351325,1.3050638338025822e-16,1.5559228658676147,-2.3829667568206787,-0.001803077432482203,-0.21977971187979733,-2.889808122602837e-17,-0.21977971187979733,0.0,-0.21977971187979733,-2.889808122602837e-17,-0.21743181347846985,2.0929365158081055,-0.002347898401327486,0.20840394397177112,4.1896008239089304e-16,0.20840394397177112,0.0,0.20840394397177112,4.1896008239089304e-16,0.2087981253862381,-0.729279637336731,-0.00039418141446698196,0.7911317607207139,-2.6496256989457096e-16,0.7911317607207139,0.0,0.7911317607207139,-2.6496256989457096e-16,0.791221559047699,0.4884234666824341,-8.979832698507995e-05,-1.570072361123983,3.7388323227126015e-17,-1.570072361123983,0.0,-1.570072361123983,3.7388323227126015e-17,-1.5700864791870117,-0.0037544183433055878,1.4118063028645267e-05,0.05155474162911038,-0.2811760502512057,0.12652570728291263,-0.0494409017264843,-0.2798220217227936,0.0019577108323574066,0.02789241261780262,-0.25937625765800476,2.4959444999694824e-06,0.12685425579547882,-0.27995505928993225,1.6242265701293945e-06,,120.0,349.0166666666779,,
1776999799.2912574,349050018204,1.5541197884351325,1.3050638338025822e-16,1.5541197884351325,0.0,1.5541197884351325,1.3050638338025822e-16,1.5568634271621704,-1.7176235914230347,-0.002743638727037867,-0.21977971187979733,-2.889808122602837e-17,-0.21977971187979733,0.0,-0.21977971187979733,-2.889808122602837e-17,-0.21639080345630646,2.427783489227295,-0.0033889084234908773,0.20840394397177112,4.1896008239089304e-16,0.20840394397177112,0.0,0.20840394397177112,4.1896008239089304e-16,0.20906715095043182,-0.7507345080375671,-0.0006632069786607075,0.7911317607207139,-2.6496256989457096e-16,0.7911317607207139,0.0,0.7911317607207139,-2.6496256989457096e-16,0.7911903858184814,0.3973712921142578,-5.862509776755065e-05,-1.570072361123983,3.7388323227126015e-17,-1.570072361123983,0.0,-1.570072361123983,3.7388323227126015e-17,-1.5700807571411133,0.05456500127911568,8.396017130207767e-06,0.05125136861425882,-0.28106748135435833,0.12644293380315147,-0.0494409017264843,-0.2798220217227936,0.0019577108323574066,0.02789241261780262,-0.25937625765800476,2.4959444999694824e-06,0.12685425579547882,-0.27995505928993225,1.6242265701293945e-06,,120.0,349.03333333334456,,
1776999799.362743,349066684871,1.5541197884351325,1.3050638338025822e-16,1.5541197884351325,0.0,1.5541197884351325,1.3050638338025822e-16,1.5557786226272583,-2.2494983673095703,-0.0016588341921257577,-0.21977971187979733,-2.889808122602837e-17,-0.21977971187979733,0.0,-0.21977971187979733,-2.889808122602837e-17,-0.21760329604148865,2.016629934310913,-0.0021764158383086873,0.20840394397177112,4.1896008239089304e-16,0.20840394397177112,0.0,0.20840394397177112,4.1896008239089304e-16,0.20884451270103455,-0.7593644261360168,-0.0004405687292634297,0.7911317607207139,-2.6496256989457096e-16,0.7911317607207139,0.0,0.7911317607207139,-2.6496256989457096e-16,0.7911629676818848,0.5100987553596497,-3.120696117087096e-05,-1.570072361123983,3.7388323227126015e-17,-1.570072361123983,0.0,-1.570072361123983,3.7388323227126015e-17,-1.5700767040252686,0.030892375856637955,4.342901285481204e-06,0.05159790846635913,-0.2811641840203223,0.12658226634145647,-0.0494409017264843,-0.2798220217227936,0.0019577108323574066,0.02789241261780262,-0.25937625765800476,2.4959444999694824e-06,0.12685425579547882,-0.27995505928993225,1.6242265701293945e-06,,120.0,349.0500000000112,,
