inbarajaldrin/isaac-sim-mcp/.planning/saved_runs/2026-04-23-green2x2-postfix/20260423T200710_drop_sweep.csv
t_wall,t_sim_ns,ref_pos_shoulder_pan,ref_vel_shoulder_pan,fb_pos_shoulder_pan,err_pos_shoulder_pan,js_pos_shoulder_pan,js_vel_shoulder_pan,isaac_pos_shoulder_pan,isaac_vel_shoulder_pan,isaac_lag_shoulder_pan,ref_pos_shoulder_lift,ref_vel_shoulder_lift,fb_pos_shoulder_lift,err_pos_shoulder_lift,js_pos_shoulder_lift,js_vel_shoulder_lift,isaac_pos_shoulder_lift,isaac_vel_shoulder_lift,isaac_lag_shoulder_lift,ref_pos_elbow_flex,ref_vel_elbow_flex,fb_pos_elbow_flex,err_pos_elbow_flex,js_pos_elbow_flex,js_vel_elbow_flex,isaac_pos_elbow_flex,isaac_vel_elbow_flex,isaac_lag_elbow_flex,ref_pos_wrist_flex,ref_vel_wrist_flex,fb_pos_wrist_flex,err_pos_wrist_flex,js_pos_wrist_flex,js_vel_wrist_flex,isaac_pos_wrist_flex,isaac_vel_wrist_flex,isaac_lag_wrist_flex,ref_pos_wrist_roll,ref_vel_wrist_roll,fb_pos_wrist_roll,err_pos_wrist_roll,js_pos_wrist_roll,js_vel_wrist_roll,isaac_pos_wrist_roll,isaac_vel_wrist_roll,isaac_lag_wrist_roll,tcp_x,tcp_y,tcp_z,cup_red_x,cup_red_y,cup_red_z,cup_green_x,cup_green_y,cup_green_z,cup_blue_x,cup_blue_y,cup_blue_z,attached_lego_xyz,physics_rate_hz,sim_time_s,render_fps,app_dt_ms
1777000030.670903,426550022246,1.5624029766917351,-0.006914651642305591,1.5624527968952129,-4.982020347776839e-05,1.5624527968952129,0.0,1.5681668519973755,0.11009089648723602,-0.005763875305640376,-0.0038737424292870576,-0.013408445459410397,-0.0037771343113854787,-9.660811790157889e-05,-0.0037771343113854787,0.0,0.0001983863621717319,-0.1364445835351944,-0.0040721287914587895,-0.00270806872972522,0.004152301167884917,-0.002737986142747052,2.9917413021831978e-05,-0.002737986142747052,0.0,-0.0026752923149615526,-0.041813530027866364,-3.277641476366741e-05,1.5769285805928916,-0.013685432688770352,1.5770271844093244,-9.860381643278515e-05,1.5770271844093244,0.0,1.5777300596237183,-0.03866833075881004,-0.0008014790308266129,-1.5620406739378807,0.00211040909458042,-1.5620558794776465,1.5205539765750231e-05,-1.5620558794776465,0.0,-1.5557332038879395,-0.09039688110351562,-0.006307470049941255,0.04665222373517653,-0.19255248837950933,0.07656377052804916,-0.0492180772125721,-0.2799921929836273,7.450580596923828e-09,0.03877135366201401,-0.27999165654182434,1.1175870895385742e-08,0.1267659068107605,-0.2799922525882721,0.0,,120.0,426.5166666666074,,
1777000030.7423315,426550022246,1.56084879354502,-0.042038458506714005,1.56160157653551,-0.0007527829904900862,1.56084879354502,-0.042038458506714005,1.5681939125061035,-0.2943735122680664,-0.007345118961083585,-0.006887513915499455,-0.08151826111335088,-0.005427765804833856,-0.0014597481106655994,-0.006887513915499455,-0.08151826111335088,0.00024306768318638206,0.2669086754322052,-0.0071305815986858374,-0.0017747698697029885,0.025244415681860703,-0.0022268218098837633,0.0004520519401807748,-0.0017747698697029885,0.025244415681860703,-0.0026785563677549362,-0.002405942417681217,0.0009037864980519477,1.5738525516125934,-0.08320223837650231,1.575342454716689,-0.0014899031040955801,1.5738525516125934,-0.08320223837650231,1.5777263641357422,-0.11496332287788391,-0.0038738125231487786,-1.5615663243368965,0.01283048658763478,-1.56179607995606,0.0002297556191634964,-1.5615663243368965,0.01283048658763478,-1.5557329654693604,-0.051452841609716415,-0.005833358867536109,0.04666951491139393,-0.1925515177361307,0.07654418850630201,-0.0492180772125721,-0.2799921929836273,7.450580596923828e-09,0.03877135366201401,-0.27999165654182434,1.1175870895385742e-08,0.1267659068107605,-0.2799922525882721,0.0,,120.0,426.5333333332741,,
1777000030.8311973,426566688913,1.5542672848424426,-0.09094813760806018,1.5559791345913174,-0.0017118497488748385,1.5559791345913174,-0.08088088682880505,1.5682002305984497,-0.6794231534004211,-0.01393294575600712,-0.019649950122578447,-0.17636074900591792,-0.01633044175399378,-0.003319508368584665,-0.01633044175399378,-0.15683898710343394,0.00016600715753156692,0.4743954539299011,-0.019815957280110014,0.002177476416276303,0.0546150518554244,0.001149497556429868,0.001027978859846435,0.001149497556429868,0.0485695908068459,-0.0027003323193639517,-0.02877657674252987,0.004877808735640254,1.5608264732215191,-0.18000395100000366,1.564214554895536,-0.0033880816740168296,1.564214554895536,-0.16007891500000493,1.5777226686477661,-0.11301087588071823,-0.016896195426246985,-1.559557593233656,0.027758126753455223,-1.5600800639907473,0.0005224707570912202,-1.5600800639907473,0.024685518225796135,-1.555734634399414,-0.062269631773233414,-0.0038229588342419962,0.04667081136723279,-0.1925646416947027,0.07653961739522129,-0.0492180772125721,-0.2799921929836273,7.450580596923828e-09,0.03877135366201401,-0.27999165654182434,1.1175870895385742e-08,0.1267659068107605,-0.2799922525882721,0.0,,120.0,426.5499999999407,,
1777000030.9326925,426583355581,1.542645975610298,-0.14147453512832292,1.5453749071509666,-0.0027289315406686665,1.5453749071509666,-0.13136751562245297,1.5681884288787842,0.20303183794021606,-0.025542453268486254,-0.04218524171308334,-0.27433827274200884,-0.036893474084235864,-0.005291767628847477,-0.036893474084235864,-0.25473939389577416,0.00021075077529530972,0.12181682139635086,-0.04239599248837865,0.009156161445286002,0.08495653979803422,0.007517417194734741,0.0016387442505512613,0.007517417194734741,0.0788871973251274,-0.002683494007214904,-0.05609992891550064,0.011839655452500906,1.5378256550344074,-0.28000546200008375,1.5432267382478528,-0.005401083213445457,1.5432267382478528,-0.26000171600001437,1.5777262449264526,-0.07843971252441406,-0.03990058989204526,-1.5560106731626016,0.04317920280459415,-1.5568435657275248,0.0008328925649232488,-1.5568435657275248,0.04009445653136762,-1.5557332038879395,-0.07080619037151337,-0.00027746927466210103,0.046664009853019855,-0.1925600271847826,0.07653638696982706,-0.0492180772125721,-0.2799921929836273,7.450580596923828e-09,0.03877135366201401,-0.27999165654182434,1.1175870895385742e-08,0.1267659068107605,-0.2799922525882721,0.0,,120.0,426.5666666666074,,
1777000031.0083668,426600022248,1.5297126657202245,-0.18189089296002214,1.533249139896845,-0.0035364741766206187,1.533249139896845,-0.17178665741226884,1.566263198852539,-1.0104689598083496,-0.0365505331323146,-0.06726468016370171,-0.3527110610888638,-0.060406978059708565,-0.006857702103993148,-0.060406978059708565,-0.3331175807142025,-0.003858079668134451,-0.0805535763502121,-0.06340660049556726,0.016922712898520556,0.10922687162495312,0.014799033122097797,0.0021236797764227593,0.014799033122097797,0.10315920094016602,-0.0012790343025699258,0.12740595638751984,0.018201747201090482,1.5122281338432226,-0.3599972494744899,1.5192275000880227,-0.0069993662448000205,1.5192275000880227,-0.33999901346587175,1.5731500387191772,-0.2823679447174072,-0.06092190487595461,-1.5520633195970166,0.055514610797684195,-1.5531426808795756,0.0010793612825590326,-1.5531426808795756,0.05243071421158052,-1.5550329685211182,-0.024710198864340782,0.0029696489241015644,0.04705539916283398,-0.19321481146292088,0.07702947263578172,-0.0492180772125721,-0.2799921929836273,7.450580596923828e-09,0.03877135366201401,-0.27999165654182434,1.1175870895385742e-08,0.1267659068107605,-0.2799922525882721,0.0,,120.0,426.583333333274,,
1777000031.0835896,426616688916,1.517882420769878,-0.21222371611587076,1.5220272176669236,-0.004144796897045611,1.517882420769878,-0.21222371611587076,1.562096118927002,-1.3204855918884277,-0.04421369815712395,-0.09020512639206078,-0.4115305108535468,-0.08216780419431864,-0.008037322197742142,-0.09020512639206078,-0.4115305108535468,-0.011726408265531063,-0.2260105311870575,-0.07847871812652972,0.024026865423447556,0.1274419637988813,0.021537883203295433,0.002488982220152123,0.024026865423447556,0.1274419637988813,0.0009011130314320326,0.1209699809551239,0.023125752392015524,1.4888137914678168,-0.4200317719687056,1.497017146007919,-0.008203354540102126,1.4888137914678168,-0.4200317719687056,1.5656286478042603,-0.32630306482315063,-0.07681485633644347,-1.5484526306099433,0.06477244028263628,-1.5497176570377673,0.0012650264278240009,-1.5484526306099433,0.06477244028263628,-1.5538803339004517,-0.04477040469646454,0.0054277032905083455,0.04789326254766878,-0.19433044392483004,0.07805907229354997,-0.0492180772125721,-0.2799921929836273,7.450580596923828e-09,0.03877135366201401,-0.27999165654182434,1.1175870895385742e-08,0.1267659068107605,-0.2799922525882721,0.0,,120.0,426.5999999999407,,
1777000031.158834,426633355583,1.4992954084085064,-0.2526286860223283,1.5042466127986294,-0.004951204390122976,1.5042466127986294,-0.24252427278883934,1.5548797845840454,-1.3856359720230103,-0.05558437617553902,-0.12624785918512962,-0.4898812164718974,-0.11664680370792108,-0.009601055477208548,-0.11664680370792108,-0.4702873915405243,-0.025855034589767456,-0.8965379595756531,-0.10039282459536217,0.03518850842848269,0.15170545708962319,0.03221527234443234,0.002973236084050347,0.03221527234443234,0.145637679703189,0.005378435365855694,0.23993360996246338,0.029810073062626993,1.4520264998274774,-0.5000010205369757,1.4618258907316828,-0.00979939090420534,1.4618258907316828,-0.48000243285393834,1.5508195161819458,-0.5018383860588074,-0.09879301635446835,-1.542779720106613,0.07710437258637146,-1.5442908687970422,0.0015111486904293425,-1.5442908687970422,0.0740204217690725,-1.5516139268875122,-0.01943826675415039,0.0088342067808993,0.04934702575929719,-0.19643686123107212,0.07988989449196092,-0.0492180772125721,-0.2799921929836273,7.450580596923828e-09,0.03877135366201401,-0.27999165654182434,1.1175870895385742e-08,0.1267659068107605,-0.2799922525882721,0.0,,120.0,426.61666666660733,,
1777000031.2324283,426650022251,1.4774674703521014,-0.29305061204463095,1.4832283981466112,-0.005760927794509874,1.4832283981466112,-0.28294375876808986,1.543775200843811,-1.7181475162506104,-0.06630773049170968,-0.16857518557275888,-0.5682648022939496,-0.1574039668152345,-0.011171218757524387,-0.1574039668152345,-0.5486662457888638,-0.04728766903281212,-1.2569633722305298,-0.12128751653994677,0.04829635208752878,0.17597913265754261,0.04483687090949179,0.0034594811780369883,0.04483687090949179,0.16990989000661413,0.01171873975545168,0.3752695620059967,0.0365776123320771,1.4088247895377142,-0.5800038285372578,1.4202267796357035,-0.011401990097989367,1.4202267796357035,-0.5600004115372091,1.5294148921966553,-0.7270960807800293,-0.1205901026589411,-1.5361176521712852,0.08944148003744566,-1.537875935167983,0.0017582829966977798,-1.537875935167983,0.08635678449878674,-1.548348307609558,0.03657832741737366,0.012230655438272953,0.051667464446958404,-0.1994618845071488,0.08284945580540365,-0.0492180772125721,-0.2799921929836273,7.450580596923828e-09,0.03877135366201401,-0.27999165654182434,1.1175870895385742e-08,0.1267659068107605,-0.2799922525882721,0.0,,120.0,426.633333333274,,
1777000031.310458,426666688919,1.45248916997183,-0.32264564793600176,1.4589506138795243,-0.006461443907694209,1.4589506138795243,-0.3226012796019118,1.5294426679611206,-1.7888895273208618,-0.07695349798929052,-0.21701149092015037,-0.6256535826904969,-0.2044818766015831,-0.012529614318567278,-0.2044818766015831,-0.6255675464852356,-0.07497531920671463,-1.5446685552597046,-0.14203617171343574,0.0632960124039193,0.19375117793941404,0.059415865945060355,0.003880146458858945,0.059415865945060355,0.19372453441562296,0.020020227879285812,0.4317800998687744,0.04327578452463349,1.3593879030223357,-0.6385781273689782,1.3721763499673667,-0.012788446945031007,1.3721763499673667,-0.638490313856261,1.5015552043914795,-0.883845865726471,-0.1421673013691438,-1.5284940674968013,0.09847413072336415,-1.530466153827729,0.0019720863309278247,-1.530466153827729,0.09846058913938664,-1.544106125831604,0.05473712831735611,0.015612058334802725,0.05473647334342328,-0.20328302929497458,0.08682605820916027,-0.0492180772125721,-0.2799921929836273,7.450580596923828e-09,0.03877135366201401,-0.27999165654182434,1.1175870895385742e-08,0.1267659068107605,-0.2799922525882721,0.0,,120.0,426.64999999994063,,
1777000031.3854115,426683355586,1.433945114335375,-0.2931605420593496,1.4399316851244983,-0.005986570789123347,1.433945114335375,-0.2931605420593496,1.5152350664138794,-1.6931124925613403,-0.08128995207850442,-0.25297092480924593,-0.5684779714719433,-0.24136215374351633,-0.011608771065729606,-0.25297092480924593,-0.5684779714719433,-0.1019412949681282,-1.289818286895752,-0.15102962984111773,0.074431859567274,0.1760451464717065,0.07083687804612343,0.0035949815211505642,0.074431859567274,0.1760451464717065,0.027937188744544983,0.3639093339443207,0.04649467082272901,1.3226856310471635,-0.5802214012936471,1.3345342122641535,-0.01184858121698995,1.3226856310471635,-0.5802214012936471,1.4750031232833862,-0.7741754055023193,-0.1523174922362227,-1.5228342677425915,0.08947503159070774,-1.5246614188547885,0.0018271511121970008,-1.5228342677425915,0.08947503159070774,-1.5402108430862427,0.11034949123859406,0.017376575343651224,0.05782285700915853,-0.2068113208770437,0.09093900658552324,-0.0492180772125721,-0.2799921929836273,7.450580596923828e-09,0.03877135366201401,-0.27999165654182434,1.1175870895385742e-08,0.1267659068107605,-0.2799922525882721,0.0,,120.0,426.6666666666073,,
1777000031.4603832,426700022254,1.4121191957059775,-0.252760233935152,1.4172747172089923,-0.005155521503014793,1.4172747172089923,-0.2628639490647034,1.4973245859146118,-2.1952080726623535,-0.08520539020863427,-0.2952943352545704,-0.4901363056803841,-0.2852970812403495,-0.009997254014220858,-0.2852970812403495,-0.5097287768936548,-0.137556254863739,-2.0951685905456543,-0.15773808039083137,0.0875384905449653,0.15178445261684673,0.0844425604727914,0.0030959300721739025,0.0844425604727914,0.15785181078650545,0.039572637528181076,0.4513589143753052,0.04796585301678423,1.2794879175939444,-0.5002613792939206,1.2896916915734353,-0.010203773979490904,1.2896916915734353,-0.5202585852943004,1.4371110200881958,-1.0672718286514282,-0.15762310249425138,-1.5161728161531542,0.07714452210162652,-1.5177463241229117,0.001573507969757415,-1.5177463241229117,0.0802282598517636,-1.5344690084457397,0.08889757096767426,0.0182961922925855,0.06197932186407473,-0.2114786423580827,0.09662966960766838,-0.0492180772125721,-0.2799921929836273,7.450580596923828e-09,0.03877135366201401,-0.27999165654182434,1.1175870895385742e-08,0.1267659068107605,-0.2799922525882721,0.0,,120.0,426.68333333327394,,
1777000031.5349274,426716688921,1.393514479788603,-0.212338019411619,1.3978627022983456,-0.00434822250974265,1.3978627022983456,-0.22244407943580113,1.473756194114685,-2.759871482849121,-0.08024171432608207,-0.3313713976389724,-0.4117521604153452,-0.32293960564376467,-0.008431791995207716,-0.32293960564376467,-0.4313491786967603,-0.18289591372013092,-2.5548648834228516,-0.14847548391884147,0.09871076467070851,0.12751060380171553,0.09609962381511497,0.0026111408555935384,0.09609962381511497,0.13357937009854723,0.05306272208690643,0.5023845434188843,0.045648042583802076,1.2426655871929353,-0.4202580002937464,1.2512715603570457,-0.008605973164110381,1.2512715603570457,-0.44025984729407647,1.391808032989502,-1.1891916990280151,-0.14914244579656666,-1.5104945023775362,0.06480732659757078,-1.5118216159914275,0.001327113613891262,-1.5118216159914275,0.06789178002902674,-1.527648687362671,0.14203932881355286,0.017154184985134657,0.06757415757993843,-0.2166171819361896,0.10472829639715527,-0.0492180772125721,-0.2799921929836273,7.450580596923828e-09,0.03877135366201401,-0.27999165654182434,1.1175870895385742e-08,0.1267659068107605,-0.2799922525882721,0.0,,120.0,426.6999999999406,,
1777000031.6094608,426733355589,1.381684257802373,-0.18202429822681096,1.3854254269160156,-0.0037411691136426395,1.381684257802373,-0.18202429822681096,1.448093056678772,-2.878237247467041,-0.06640879887639906,-0.35431179933680357,-0.3529697519580749,-0.3470571660436692,-0.0072546332931343604,-0.35431179933680357,-0.3529697519580749,-0.23198412358760834,-2.480072259902954,-0.12232767574919523,0.10581490340550866,0.10930698250742599,0.10356830275468397,0.002246600650824687,0.10581490340550866,0.10930698250742599,0.06782851368188858,0.4853537678718567,0.037986389723620076,1.219251290267953,-0.3602612842940964,1.2266557873750532,-0.0074044971071001164,1.219251290267953,-0.3602612842940964,1.3425242900848389,-1.292930006980896,-0.12327299981688578,-1.5068838203993025,0.055555327192776914,-1.508025656276252,0.001141835876949493,-1.5068838203993025,0.055555327192776914,-1.5203434228897095,0.13479092717170715,0.013459602490407008,0.07384204359096344,-0.22160413610391666,0.11406839451051148,-0.0492180772125721,-0.2799921929836273,7.450580596923828e-09,0.03877135366201401,-0.27999165654182434,1.1175870895385742e-08,0.1267659068107605,-0.2799922525882721,0.0,,120.0,426.71666666660724,,
1777000031.6848407,426750022256,1.3687395768906496,-0.14160537039585439,1.3716719897640235,-0.0029324128733738686,1.3687395768906496,-0.14160537039585439,1.4283287525177002,-2.1794638633728027,-0.05958917562705057,-0.3794132877375109,-0.27459198003485646,-0.373726942262559,-0.005686345474951893,-0.3794132877375109,-0.27459198003485646,-0.26967939734458923,-1.4388936758041382,-0.10973389039292164,0.11358828324416516,0.08503510737632503,0.11182734689788136,0.001760936346283798,0.11358828324416516,0.08503510737632503,0.07881879806518555,0.28983694314956665,0.03476948517897961,1.193631263626106,-0.28026441029419297,1.1994350757442314,-0.005803812118125418,1.193631263626106,-0.28026441029419297,1.3056546449661255,-1.0376836061477661,-0.11202338134001955,-1.502932996303495,0.04321913481459611,-1.5038279930606953,0.0008949967572002837,-1.502932996303495,0.04321913481459611,-1.514704942703247,0.10349511355161667,0.011771946399752098,0.07868869730725131,-0.22492766557059862,0.12163296364436807,-0.0492180772125721,-0.2799921929836273,7.450580596923828e-09,0.03877135366201401,-0.27999165654182434,1.1175870895385742e-08,0.1267659068107605,-0.2799922525882721,0.0,,120.0,426.7333333332739,,
1777000031.7627387,426766688924,1.3571211242647454,-0.08882604444723712,1.3590275401491323,-0.0019064158843868917,1.3590275401491323,-0.10118272891642233,1.4105229377746582,-2.143585681915283,-0.0534018135099128,-0.40197374078313686,-0.17665060506783356,-0.3982462415412367,-0.003727499241900134,-0.3982462415412367,-0.19620700687256012,-0.3054952323436737,-1.7025021314620972,-0.09647850843946315,0.12059537343184815,0.05766235071336199,0.11942043554777543,0.0011749378840727187,0.11942043554777543,0.06076100219836659,0.09124916791915894,0.29042136669158936,0.02934620551268921,1.170527051255981,-0.19144987426246027,1.1744092648946463,-0.003882213638665144,1.1744092648946463,-0.20026018636518642,1.266677737236023,-0.9794867634773254,-0.09615068598004184,-1.4993885260341535,0.026884046763746085,-1.4999688020495443,0.0005802760153907904,-1.4999688020495443,0.030881808998622043,-1.5088626146316528,0.12849082052707672,0.00947408859749932,0.08337680930252428,-0.2279644510117112,0.12903871067683614,-0.0492180772125721,-0.2799921929836273,7.450580596923828e-09,0.03877135366201401,-0.27999165654182434,1.1175870895385742e-08,0.1267659068107605,-0.2799922525882721,0.0,,120.0,426.74999999994054,,
1777000031.8369782,426783355591,1.353228876744846,-0.03986580812016394,1.3541931797298608,-0.0009643029850148199,1.3541931797298608,-0.05665968068414425,1.3924757242202759,-2.0836427211761475,-0.03924684747542995,-0.4107959622790821,-0.11711736515216861,-0.4082539507839715,-0.00254201149511063,-0.4082539507839715,-0.137146087474323,-0.3401080369949341,-1.5305036306381226,-0.07068792528414802,0.12418323478145064,0.06299946107344535,0.12294476826550772,0.001238466515942921,0.12294476826550772,0.06078438035699788,0.1014767438173294,0.31838101148605347,0.022706490964121237,1.1582961200774942,-0.2203132921546302,1.1625919242448333,-0.004295804167339101,1.1625919242448333,-0.20902117778451898,1.2323739528656006,-0.9491579532623291,-0.07407783278810642,-1.4982660922896318,0.010121133240076342,-1.4985258614952401,0.00025976920560832895,-1.4985258614952401,0.01589112526081213,-1.5038553476333618,0.09555751085281372,0.005589255343730004,0.08797728463198531,-0.23012843271947123,0.13678188954211268,-0.0492180772125721,-0.2799921929836273,7.450580596923828e-09,0.03877135366201401,-0.27999165654182434,1.1175870895385742e-08,0.1267659068107605,-0.2799922525882721,0.0,,120.0,426.7666666666072,,
1777000031.910861,426800022259,1.3522655734409934,0.0069802811733048475,1.3522766774629875,-1.1104021994112756e-05,1.3522655734409934,0.0069802811733048475,1.3781623840332031,-1.7920514345169067,-0.025896810592209718,-0.4160200778501418,-0.057061059515665195,-0.41467895942917804,-0.0013411184209637383,-0.4160200778501418,-0.057061059515665195,-0.3678520917892456,-0.918570876121521,-0.04816798606089617,0.12805441660538044,0.06507081614597837,0.12675310180942775,0.0013013147959526905,0.12805441660538044,0.06507081614597837,0.11008422076702118,0.12682440876960754,0.017970195838359265,1.1444686876972459,-0.23694143968890985,1.1491777796379388,-0.004709091940692911,1.1444686876972459,-0.23694143968890985,1.2041866779327393,-0.6998997926712036,-0.0597179902354934,-1.4981445810412855,-0.0057589311077510825,-1.4980801467627936,-6.443427849189831e-05,-1.4981445810412855,-0.0057589311077510825,-1.499566674232483,0.09251176565885544,0.00142209319119746,0.0916985501292402,-0.2316736849541686,0.14302379900426623,-0.0492180772125721,-0.2799921929836273,7.450580596923828e-09,0.03877135366201401,-0.27999165654182434,1.1175870895385742e-08,0.1267659068107605,-0.2799922525882721,0.0,,120.0,426.78333333327384,,
1777000031.9905324,426816688926,1.35654672899889,0.07712672881324295,1.3551364688527716,0.0014102601461183362,1.3551364688527716,0.06382719265512965,1.3691779375076294,-1.0998444557189941,-0.012631208508739444,-0.4167266150302997,0.04293144633901476,-0.4173852993926572,0.0006586843623575533,-0.4173852993926572,0.02293205785679465,-0.3855469226837158,-0.37266820669174194,-0.031179692346583854,0.13432157562447442,0.058297323151737836,0.13313168198437583,0.0011898936400985827,0.13313168198437583,0.06060301591994019,0.11577156186103821,-0.003886610269546509,0.018550013763436207,1.1209448991310795,-0.22608848208079885,1.1255275899305246,-0.004582690799445066,1.1255275899305246,-0.23184424460863176,1.1859865188598633,-0.4543903172016144,-0.06504161972878375,-1.4999142274143151,-0.02902010702625059,-1.499377103229691,-0.0005371241846241492,-1.499377103229691,-0.024663376230007653,-1.4968746900558472,0.06165190041065216,-0.0030395373584679586,0.0939643701911942,-0.23257732494694972,0.14706355831470935,-0.0492180772125721,-0.2799921929836273,7.450580596923828e-09,0.03877135366201401,-0.27999165654182434,1.1175870895385742e-08,0.1267659068107605,-0.2799922525882721,0.0,,120.0,426.7999999999405,,
1777000032.0656266,426833355594,1.364730841690745,0.12692425830180099,1.3623199202123186,0.0024109214784264754,1.3623199202123186,0.11472671279328976,1.362165093421936,-1.1432409286499023,0.002565748268809065,-0.4101240415274857,0.11914399004165813,-0.4123511692544768,0.002227127726991074,-0.4123511692544768,0.10291501557635935,-0.4001641869544983,-0.31604450941085815,-0.009959854572987425,0.13849933081574503,0.048360497829634946,0.13754539766996507,0.0009539331457799616,0.13754539766996507,0.048401804170594594,0.12119146436452866,-0.03293859213590622,0.017307866451216375,1.104224967059418,-0.19981759416913475,1.108148393067105,-0.003923426007687025,1.108148393067105,-0.19759016286613354,1.169344425201416,-0.3815726637840271,-0.06511945814199804,-1.502888413566901,-0.04526474641922495,-1.5020267607129665,-0.0008616528539344692,-1.5020267607129665,-0.04116039438831843,-1.4945417642593384,0.06716188788414001,-0.00834664930756257,0.09584104900553547,-0.23333645492861,0.150483192523028,-0.0492180772125721,-0.2799921929836273,7.450580596923828e-09,0.03877135366201401,-0.27999165654182434,1.1175870895385742e-08,0.1267659068107605,-0.2799922525882721,0.0,,120.0,426.81666666660715,,
1777000032.1393905,426850022261,1.3703305400121393,0.1522376689053658,1.3674008437766685,0.002929696235470791,1.3703305400121393,0.1522376689053658,1.35807204246521,-0.6517636179924011,0.012258497546929314,-0.4048674432235302,0.14222273778369027,-0.4076119654154963,0.0027445221919661367,-0.4048674432235302,0.14222273778369027,-0.4107908010482788,-0.14375942945480347,0.005923357824748621,0.14063276952687165,0.05867545735108672,0.1395110184818904,0.0011217510449812451,0.14063276952687165,0.05867545735108672,0.12613312900066376,-0.06549572199583054,0.014499640526207891,1.095409873617185,-0.24209458924195548,1.1000419597689879,-0.004632086151802994,1.095409873617185,-0.24209458924195548,1.1518019437789917,-0.42837172746658325,-0.05639207016180681,-1.5048854149973119,-0.05432732165978545,-1.5038403160315466,-0.0010450989657653231,-1.5048854149973119,-0.05432732165978545,-1.4936025142669678,0.017579415813088417,-0.011282900730344103,0.09704400868321071,-0.2344973710218482,0.15333059797768267,-0.0492180772125721,-0.2799921929836273,7.450580596923828e-09,0.03877135366201401,-0.27999165654182434,1.1175870895385742e-08,0.1267659068107605,-0.2799922525882721,0.0,,120.0,426.8333333332738,,
1777000032.2163758,426866688929,1.3886906570098476,0.21528204356795516,1.3845114337204645,0.004179223289383138,1.3845114337204645,0.20266344016700893,1.3592392206192017,0.2683759331703186,0.029451436390645958,-0.3876974950345429,0.20144515659807077,-0.3916081058594643,0.00391061082492139,-0.3916081058594643,0.18963759245558642,-0.414585679769516,0.2519996464252472,0.026888184734973064,0.14769181257618122,0.08265476806096168,0.14608725361745936,0.0016045589587218578,0.14608725361745936,0.07781001779720013,0.13129538297653198,-0.10820333659648895,0.016396429599649237,1.0662755491258251,-0.3411945041988493,1.0728990835113443,-0.006623534385519214,1.0728990835113443,-0.3211956317442949,1.1330987215042114,-0.4337037205696106,-0.06682317237838631,-1.5114364735846422,-0.07680852389877052,-1.5099454064868907,-0.0014910670977514862,-1.5099454064868907,-0.07230644706584892,-1.4942893981933594,-0.028827868402004242,-0.017147075391282796,0.09707179820726318,-0.23634062954615503,0.15478095183503743,-0.0492180772125721,-0.2799921929836273,7.450580596923828e-09,0.03877135366201401,-0.27999165654182434,1.1175870895385742e-08,0.1267659068107605,-0.2799922525882721,0.0,,120.0,426.84999999994045,,
1777000032.2911766,426883355597,1.4027356357721488,0.2531208309762448,1.3978061136397244,0.004929522132424369,1.4027356357721488,0.2531208309762448,1.36505925655365,0.7653725147247314,0.03767637921849887,-0.37455523337956587,0.2368519203421015,-0.3791679188662964,0.00461268548673055,-0.37455523337956587,0.2368519203421015,-0.41187188029289246,0.6289118528366089,0.03731664691332659,0.15308420128997863,0.0971824831695009,0.1511915747533944,0.0018926265365842299,0.15308420128997863,0.0971824831695009,0.13605056703090668,-0.14127497375011444,0.01703363425907195,1.044016054158825,-0.40116414261031286,1.0518287162463535,-0.00781266208752851,1.044016054158825,-0.40116414261031286,1.1151328086853027,-0.4239603281021118,-0.0711167545264777,-1.5164474539202197,-0.09030868098936445,-1.514688694516776,-0.0017587594034438325,-1.5164474539202197,-0.09030868098936445,-1.4964145421981812,-0.07167376577854156,-0.020032911722038582,0.09599915096358824,-0.23860758970845924,0.1549251332680486,-0.0492180772125721,-0.2799921929836273,7.450580596923828e-09,0.03877135366201401,-0.27999165654182434,1.1175870895385742e-08,0.1267659068107605,-0.2799922525882721,0.0,,120.0,426.8666666666071,,
1777000032.3749194,426900022264,1.4312113448163357,0.31520399559884876,1.425013762569966,0.006197582246369793,1.425013762569966,0.303617563182803,1.3725266456604004,0.8545597791671753,0.05868469915593533,-0.3479097520724523,0.29494479521559674,-0.35370899526736954,0.0057992431949172585,-0.35370899526736954,0.28410306102457655,-0.4053218960762024,0.7442406415939331,0.05741214400375011,0.16401708304551463,0.12101851467183063,0.16163760115922943,0.0023794818862852007,0.16163760115922943,0.11657005316463555,0.13954101502895355,-0.17412018775939941,0.024476068016561076,0.9988856974044098,-0.49955801801876965,1.0087080725859892,-0.009822375181579357,1.0087080725859892,-0.4811950045592734,1.10183846950531,-0.3214207887649536,-0.10295277210090026,-1.5266070433704406,-0.11245876909980675,-1.524395864322734,-0.002211179047706624,-1.524395864322734,-0.10832495117249409,-1.499104619026184,-0.0912390723824501,-0.027502424344256537,0.09451510424460213,-0.24057836978832275,0.15410125909473346,-0.0492180772125721,-0.2799921929836273,7.450580596923828e-09,0.03877135366201401,-0.27999165654182434,1.1175870895385742e-08,0.1267659068107605,-0.2799922525882721,0.0,,120.0,426.88333333327375,,
1777000032.4515402,426916688932,1.4584696451453045,0.35437730423899166,1.451338980904353,0.007130664240951434,1.451338980904353,0.3553930415144597,1.387650966644287,1.6383936405181885,0.07081867850101742,-0.32240343260724863,0.3316003061104769,-0.329075785539524,0.0066723529322753605,-0.329075785539524,0.3325507586011724,-0.39140650629997253,1.2616593837738037,0.0690030736927239,0.17448255640356405,0.1360586020203562,0.17174482970240304,0.002737726701161014,0.17174482970240304,0.13644858126581483,0.14540433883666992,-0.11472578346729279,0.029078217566894132,0.9556847777554401,-0.5616427018957211,0.9669859685560201,-0.011301190800580008,0.9669859685560201,-0.5632525155631141,1.0768269300460815,-0.662169873714447,-0.1211421522906414,-1.5363322846286447,-0.1264350578929339,-1.533788199735691,-0.0025440848929536575,-1.533788199735691,-0.12679745356467137,-1.5047153234481812,-0.16962912678718567,-0.03161696118046353,0.09115408425510446,-0.24452172059589056,0.15230465158042633,-0.0492180772125721,-0.2799921929836273,7.450580596923828e-09,0.03877135366201401,-0.27999165654182434,1.1175870895385742e-08,0.1267659068107605,-0.2799922525882721,0.0,,120.0,426.8999999999404,,
1777000032.5274832,426933355599,1.4848013174301098,0.3038988441370455,1.478620696186003,0.006180621244106899,1.478620696186003,0.31647121197486444,1.4067118167877197,1.9412493705749512,0.07808950064239006,-0.2977641837456635,0.28436626312419067,-0.303547556077873,0.005783372332209491,-0.303547556077873,0.29613056341567195,-0.3733932375907898,1.290114164352417,0.0756290538451263,0.18459226285788216,0.11667804736447256,0.18221929292997902,0.0023729699279031458,0.18221929292997902,0.12150504607922173,0.1526157706975937,-0.0936364084482193,0.03197649216028847,0.913952445039525,-0.4816407988955629,0.9237479392018524,-0.00979549416232739,0.9237479392018524,-0.501566393896118,1.0483640432357788,-0.7753027677536011,-0.1344115981962538,-1.54572692268792,-0.10842530684795591,-1.5435217950020734,-0.002205127685846575,-1.5435217950020734,-0.1129108877144771,-1.51117742061615,-0.1886022388935089,-0.0345495020717701,0.08711741631050292,-0.2488345994262135,0.14963157694590173,-0.0492180772125721,-0.2799921929836273,7.450580596923828e-09,0.03877135366201401,-0.27999165654182434,1.1175870895385742e-08,0.1267659068107605,-0.2799922525882721,0.0,,120.0,426.91666666660706,,
1777000032.6014144,426950022267,1.5070910491315797,0.25342926677083,1.5018998872538398,0.005191161877739825,1.5018998872538398,0.266040004266629,1.423843502998352,1.728049874305725,0.0832475461332276,-0.27690708661524666,0.23714053195091098,-0.2817645953979385,0.004857508782691866,-0.2817645953979385,0.2489407357559065,-0.35726332664489746,1.1525471210479736,0.0803562400296508,0.1931501182804335,0.09730090312055921,0.1911570385332319,0.001993079747201587,0.1911570385332319,0.10214263337134098,0.15918320417404175,-0.08387336134910583,0.03396691410639174,0.8786260711786817,-0.40165297389541005,0.886853398798471,-0.008227327619789282,0.886853398798471,-0.421639379896338,1.0217350721359253,-0.7303265333175659,-0.14310900095724355,-1.5536794734985455,-0.09041872499350995,-1.5518273660280826,-0.0018521074704629381,-1.5518273660280826,-0.09491799542162926,-1.5173448324203491,-0.17737114429473877,-0.036334641078196395,0.08329162480102428,-0.2526811673090143,0.14739858018893337,-0.0492180772125721,-0.2799921929836273,7.450580596923828e-09,0.03877135366201401,-0.27999165654182434,1.1175870895385742e-08,0.1267659068107605,-0.2799922525882721,0.0,,120.0,426.9333333332737,,
1777000032.6748047,426966688934,1.5211638191651293,0.2155632660705011,1.5167247134287944,0.004439105736334881,1.5167247134287944,0.22818713585520292,1.4468028545379639,2.5153329372406006,0.07436096462716546,-0.2637388199256836,0.20170830400285725,-0.26789260969556317,0.004153789769879568,-0.26789260969556317,0.21352079604122853,-0.33591049909591675,1.5897080898284912,0.07217167917023315,0.19855317709490958,0.08276273981901079,0.19684883961764535,0.0017043374772642284,0.19684883961764535,0.08760951204297066,0.16798032820224762,-0.020803242921829224,0.030572848892661958,0.856322530601293,-0.34164020589662775,0.8633579454259236,-0.007035414824630548,0.8633579454259236,-0.36164742489584895,0.9838455319404602,-1.0548267364501953,-0.12752300133916716,-1.5587003692292325,-0.07690885871978126,-1.5571165810349727,-0.0015837881942597498,-1.5571165810349727,-0.08141281449778147,-1.525946855545044,-0.2395181953907013,-0.03275351368418855,0.07774481706869509,-0.25800914270721964,0.14455032767375828,-0.0492180772125721,-0.2799921929836273,7.450580596923828e-09,0.03877135366201401,-0.27999165654182434,1.1175870895385742e-08,0.1267659068107605,-0.2799922525882721,0.0,,120.0,426.94999999994036,,
1777000032.7498307,426983355602,1.5363881758346192,0.16509217627897974,1.532962694942018,0.003425480892601085,1.532962694942018,0.1777024165728376,1.4747061729431152,2.7550196647644043,0.06168200289150394,-0.2494929828713652,0.15448115761279252,-0.25269829680929123,0.00320531393792603,-0.25269829680929123,0.16628089617266917,-0.30963265895843506,1.6685779094696045,0.060139676087069854,0.20439837276724024,0.06338501489888841,0.20308320349449127,0.0013151692727489672,0.20308320349449127,0.06822655425538275,0.17853504419326782,0.03541263937950134,0.025863328573972416,0.8321938724953879,-0.26164998389569866,0.8376228215866496,-0.005428949091261681,0.8376228215866496,-0.2816356018951868,0.9411847591400146,-1.1760987043380737,-0.10899088664462675,-1.5641321290904455,-0.058901737260971684,-1.5629099828926307,-0.0012221461978147996,-1.5629099828926307,-0.0634008302968583,-1.5356584787368774,-0.2680544853210449,-0.02847365035356808,0.07095973025844364,-0.26370637582626166,0.14053180873482768,-0.0492180772125721,-0.2799921929836273,7.450580596923828e-09,0.03877135366201401,-0.27999165654182434,1.1175870895385742e-08,0.1267659068107605,-0.2799922525882721,0.0,,120.0,426.966666666607,,
1777000032.8244586,427000022269,1.5475778330618297,0.11460735541121173,1.5451582052389563,0.002419627822873416,1.5451582052389563,0.12723305562820078,1.4957784414291382,1.9129276275634766,0.05179939163269154,-0.2390225218191728,0.10724116268815038,-0.2412866321816057,0.002264110362432903,-0.2412866321816057,0.1190553675108893,-0.28960782289505005,1.1548876762390137,0.05058530107587725,0.2086944975506567,0.04400201810888239,0.2077655126098836,0.0009289849407730921,0.2077655126098836,0.04884949310376462,0.18662790954113007,-0.010648265480995178,0.022066588009526628,0.8144596969621225,-0.18163799989542612,0.8182944975877989,-0.0038348006256764267,0.8182944975877989,-0.2016481198956711,0.9096384048461914,-0.8557477593421936,-0.0951787078840689,-1.5681243852039177,-0.040889716816073236,-1.5672611081819272,-0.0008632770219905161,-1.5672611081819272,-0.04539432565749015,-1.542980432510376,-0.19850240647792816,-0.02514395269354175,0.06584005316658792,-0.26757713263434457,0.13743691490729815,-0.0492180772125721,-0.2799921929836273,7.450580596923828e-09,0.03877135366201401,-0.27999165654182434,1.1175870895385742e-08,0.1267659068107605,-0.2799922525882721,0.0,,120.0,426.98333333327366,,
1777000032.899511,427016688937,1.553321390999017,0.0767259364315133,1.5516571765714258,0.0016642144275911264,1.5516571765714258,0.08936998323939754,1.515171766281128,2.168231964111328,0.038149624717888964,-0.23364812129365375,0.0717945074443603,-0.23520537117117535,0.0015572498775215937,-0.23520537117117535,0.08362587966210562,-0.27150070667266846,1.1677491664886475,0.0378525853790147,0.21089966265070348,0.029457935157530365,0.21026070895425733,0.0006389536964461484,0.21026070895425733,0.034312454089707164,0.19422349333763123,-0.024155497550964355,0.016676169313072253,0.8053568922402943,-0.12160079589579269,0.8079944592528125,-0.0026375670125182715,0.8079944592528125,-0.14163999289609622,0.8767704367637634,-0.8786641955375671,-0.07141354452346915,-1.5701735770444025,-0.027374349594537627,-1.5695798171027195,-0.0005937599416829809,-1.5695798171027195,-0.031885504149395054,-1.5504508018493652,-0.1886620968580246,-0.01972277519503729,0.06070775477218193,-0.27144521918838005,0.13501302658563652,-0.0492180772125721,-0.2799921929836273,7.450580596923828e-09,0.03877135366201401,-0.27999165654182434,1.1175870895385742e-08,0.1267659068107605,-0.2799922525882721,0.0,,120.0,426.9999999999403,,
1777000032.975807,427033355604,1.5574415912534723,0.026219437742151273,1.5567875219284413,0.0006540693250309815,1.5567875219284413,0.03889536698071566,1.5333232879638672,1.867732286453247,0.02411830328960507,-0.22979273989853938,0.024534228003155932,-0.230404770030842,0.0006120301323026267,-0.230404770030842,0.03639543346252354,-0.2543666660785675,0.9130633473396301,0.024573926180028127,0.21248156047530858,0.010066615447111165,0.21223043898156765,0.00025112149374093007,0.21223043898156765,0.014933375227907898,0.20117086172103882,0.025292277336120605,0.011310698754269766,0.7988269018160118,-0.04155445532075996,0.7998635180398628,-0.0010366162238509835,0.7998635180398628,-0.0616441818957346,0.8488881587982178,-0.7776250243186951,-0.05006125698220598,-1.571643585849908,-0.009354594916762432,-1.5714102263994378,-0.00023335945047020523,-1.5714102263994378,-0.013877124514330536,-1.5568057298660278,-0.16321402788162231,-0.01483785598388021,0.055961145881836746,-0.2745598120256199,0.13231678965484028,-0.0492180772125721,-0.2799921929836273,7.450580596923828e-09,0.03877135366201401,-0.27999165654182434,1.1175870895385742e-08,0.1267659068107605,-0.2799922525882721,0.0,,120.0,427.01666666660697,,
1777000033.0480006,427050022272,1.5579863584669673,-1.3557607034770646e-16,1.557985513258505,8.452084623300493e-07,1.5579863584669673,-1.3557607034770646e-16,1.5470510721206665,1.3364861011505127,0.01093528634630081,-0.22928298667057243,-1.2686214915793894e-16,-0.22928377755469662,7.90884124191038e-07,-0.22928298667057243,-1.2686214915793894e-16,-0.24133002758026123,0.7024550437927246,0.012047040909688805,0.21269071683100096,-5.2052686157582886e-17,0.2126903923240984,3.245069025714642e-07,0.21269071683100096,-5.2052686157582886e-17,0.20653356611728668,-0.03307284414768219,0.006157150713714282,0.7979635154590642,2.1487073114348814e-16,0.7979648550063702,-1.3395473059674146e-06,0.7979635154590642,2.1487073114348814e-16,0.8271132111549377,-0.5404951572418213,-0.029149695695873556,-1.5718379483933116,4.837095406016276e-17,-1.5718376468390662,-3.015542453521647e-07,-1.5718379483933116,4.837095406016276e-17,-1.5618517398834229,-0.1224147379398346,-0.009986208509888739,0.052333370820756266,-0.27686192720307157,0.13031997368519338,-0.0492180772125721,-0.2799921929836273,7.450580596923828e-09,0.03877135366201401,-0.27999165654182434,1.1175870895385742e-08,0.1267659068107605,-0.2799922525882721,0.0,,120.0,427.0333333332736,,
1777000033.1231503,427066688939,1.5579863584669673,-1.3557607034770646e-16,1.5579863584669673,0.0,1.5579863584669673,-1.3557607034770646e-16,1.5552926063537598,0.8265954256057739,0.002693752113207548,-0.22928298667057243,-1.2686214915793894e-16,-0.22928298667057243,0.0,-0.22928298667057243,-1.2686214915793894e-16,-0.23347914218902588,0.3704741597175598,0.004196155518453454,0.21269071683100096,-5.2052686157582886e-17,0.21269071683100096,0.0,0.21269071683100096,-5.2052686157582886e-17,0.20979082584381104,0.009947404265403748,0.002899890987189929,0.7979635154590642,2.1487073114348814e-16,0.7979635154590642,0.0,0.7979635154590642,2.1487073114348814e-16,0.8140125870704651,-0.389567106962204,-0.0160490716114009,-1.5718379483933116,4.837095406016276e-17,-1.5718379483933116,0.0,-1.5718379483933116,4.837095406016276e-17,-1.5648459196090698,-0.07932651787996292,-0.006992028784241766,0.05018003452252408,-0.27816743541364236,0.12914837373149968,-0.0492180772125721,-0.2799921929836273,7.450580596923828e-09,0.03877135366201401,-0.27999165654182434,1.1175870895385742e-08,0.1267659068107605,-0.2799922525882721,0.0,,120.0,427.04999999994027,,
1777000033.1978095,427083355607,1.5579863584669673,-1.3557607034770646e-16,1.5579863584669673,0.0,1.5579863584669673,-1.3557607034770646e-16,1.5609253644943237,0.5531586408615112,-0.0029390060273564167,-0.22928298667057243,-1.2686214915793894e-16,-0.22928298667057243,0.0,-0.22928298667057243,-1.2686214915793894e-16,-0.22829191386699677,0.5422213077545166,-0.00099107280357566,0.21269071683100096,-5.2052686157582886e-17,0.21269071683100096,0.0,0.21269071683100096,-5.2052686157582886e-17,0.21199937164783478,-0.10331802815198898,0.0006913451831661865,0.7979635154590642,2.1487073114348814e-16,0.7979635154590642,0.0,0.7979635154590642,2.1487073114348814e-16,0.804055392742157,-0.24346020817756653,-0.006091877283092795,-1.5718379483933116,4.837095406016276e-17,-1.5718379483933116,0.0,-1.5718379483933116,4.837095406016276e-17,-1.5670803785324097,-0.0663636326789856,-0.004757569860901922,0.04872430828212979,-0.27916103091003086,0.1284572017519325,-0.0492180772125721,-0.2799921929836273,7.450580596923828e-09,0.03877135366201401,-0.27999165654182434,1.1175870895385742e-08,0.1267659068107605,-0.2799922525882721,0.0,,120.0,427.0666666666069,,
1777000033.2711356,427100022275,1.5579863584669673,-1.3557607034770646e-16,1.5579863584669673,0.0,1.5579863584669673,-1.3557607034770646e-16,1.5636436939239502,0.26713332533836365,-0.0056573354569828815,-0.22928298667057243,-1.2686214915793894e-16,-0.22928298667057243,0.0,-0.22928298667057243,-1.2686214915793894e-16,-0.22558771073818207,0.3581349849700928,-0.0036952759323903572,0.21269071683100096,-5.2052686157582886e-17,0.21269071683100096,0.0,0.21269071683100096,-5.2052686157582886e-17,0.21312573552131653,-0.13466979563236237,-0.00043501869031556395,0.7979635154590642,2.1487073114348814e-16,0.7979635154590642,0.0,0.7979635154590642,2.1487073114348814e-16,0.7998973727226257,-0.04209982976317406,-0.0019338572635615447,-1.5718379483933116,4.837095406016276e-17,-1.5718379483933116,0.0,-1.5718379483933116,4.837095406016276e-17,-1.5681041479110718,-0.021847039461135864,-0.003733800482239813,0.04798180038463409,-0.2795475209977091,0.12803376164991465,-0.0492180772125721,-0.2799921929836273,7.450580596923828e-09,0.03877135366201401,-0.27999165654182434,1.1175870895385742e-08,0.1267659068107605,-0.2799922525882721,0.0,,120.0,427.0833333332736,,
1777000033.3426235,427116688942,1.5579863584669673,-1.3557607034770646e-16,1.5579863584669673,0.0,1.5579863584669673,-1.3557607034770646e-16,1.563839316368103,-0.15194213390350342,-0.005852957901135714,-0.22928298667057243,-1.2686214915793894e-16,-0.22928298667057243,0.0,-0.22928298667057243,-1.2686214915793894e-16,-0.22537362575531006,0.17639121413230896,-0.0039093609152623665,0.21269071683100096,-5.2052686157582886e-17,0.21269071683100096,0.0,0.21269071683100096,-5.2052686157582886e-17,0.21327203512191772,-0.11819945275783539,-0.0005813182909167602,0.7979635154590642,2.1487073114348814e-16,0.7979635154590642,0.0,0.7979635154590642,2.1487073114348814e-16,0.7991103529930115,0.026861803606152534,-0.001146837533947287,-1.5718379483933116,4.837095406016276e-17,-1.5718379483933116,0.0,-1.5718379483933116,4.837095406016276e-17,-1.568265676498413,0.014648327603936195,-0.0035722718948985044,0.047989819765195826,-0.27959620122716566,0.12808460848914643,-0.0492180772125721,-0.2799921929836273,7.450580596923828e-09,0.03877135366201401,-0.27999165654182434,1.1175870895385742e-08,0.1267659068107605,-0.2799922525882721,0.0,,120.0,427.0999999999402,,
1777000033.4175556,427133355610,1.5579863584669673,-1.3557607034770646e-16,1.5579863584669673,0.0,1.5579863584669673,-1.3557607034770646e-16,1.563662052154541,-0.2043134719133377,-0.005675693687573702,-0.22928298667057243,-1.2686214915793894e-16,-0.22928298667057243,0.0,-0.22928298667057243,-1.2686214915793894e-16,-0.22558222711086273,0.11788573861122131,-0.003700759559709693,0.21269071683100096,-5.2052686157582886e-17,0.21269071683100096,0.0,0.21269071683100096,-5.2052686157582886e-17,0.2132202386856079,-0.10939823091030121,-0.0005295218546069458,0.7979635154590642,2.1487073114348814e-16,0.7979635154590642,0.0,0.7979635154590642,2.1487073114348814e-16,0.7989539504051208,0.030965283513069153,-0.000990434946056662,-1.5718379483933116,4.837095406016276e-17,-1.5718379483933116,0.0,-1.5718379483933116,4.837095406016276e-17,-1.5682687759399414,0.008988777175545692,-0.003569172453370184,0.04805504358248542,-0.27961274048218304,0.12817166552720563,-0.0492180772125721,-0.2799921929836273,7.450580596923828e-09,0.03877135366201401,-0.27999165654182434,1.1175870895385742e-08,0.1267659068107605,-0.2799922525882721,0.0,,120.0,427.1166666666069,,
1777000033.495307,427150022277,1.5579863584669673,-1.3557607034770646e-16,1.5579863584669673,0.0,1.5579863584669673,-1.3557607034770646e-16,1.5636080503463745,-0.01611277461051941,-0.005621691879407198,-0.22928298667057243,-1.2686214915793894e-16,-0.22928298667057243,0.0,-0.22928298667057243,-1.2686214915793894e-16,-0.2255793809890747,0.08510047942399979,-0.003703605681497718,0.21269071683100096,-5.2052686157582886e-17,0.21269071683100096,0.0,0.21269071683100096,-5.2052686157582886e-17,0.21324335038661957,-0.11862219125032425,-0.0005526335556186035,0.7979635154590642,2.1487073114348814e-16,0.7979635154590642,0.0,0.7979635154590642,2.1487073114348814e-16,0.7989093065261841,0.07133276760578156,-0.0009457910671198944,-1.5718379483933116,4.837095406016276e-17,-1.5718379483933116,0.0,-1.5718379483933116,4.837095406016276e-17,-1.5683579444885254,0.007478480227291584,-0.0034800039047861997,0.04805041788239638,-0.27962036375217597,0.12816860304263455,-0.0492180772125721,-0.2799921929836273,7.450580596923828e-09,0.03877135366201401,-0.27999165654182434,1.1175870895385742e-08,0.1267659068107605,-0.2799922525882721,0.0,,120.0,427.1333333332735,,
