inbarajaldrin/isaac-sim-mcp/.planning/saved_runs/2026-04-23-green2x2-postfix/20260423T200703_drop_point.csv
t_wall,t_sim_ns,ref_pos_shoulder_pan,ref_vel_shoulder_pan,fb_pos_shoulder_pan,err_pos_shoulder_pan,js_pos_shoulder_pan,js_vel_shoulder_pan,isaac_pos_shoulder_pan,isaac_vel_shoulder_pan,isaac_lag_shoulder_pan,ref_pos_shoulder_lift,ref_vel_shoulder_lift,fb_pos_shoulder_lift,err_pos_shoulder_lift,js_pos_shoulder_lift,js_vel_shoulder_lift,isaac_pos_shoulder_lift,isaac_vel_shoulder_lift,isaac_lag_shoulder_lift,ref_pos_elbow_flex,ref_vel_elbow_flex,fb_pos_elbow_flex,err_pos_elbow_flex,js_pos_elbow_flex,js_vel_elbow_flex,isaac_pos_elbow_flex,isaac_vel_elbow_flex,isaac_lag_elbow_flex,ref_pos_wrist_flex,ref_vel_wrist_flex,fb_pos_wrist_flex,err_pos_wrist_flex,js_pos_wrist_flex,js_vel_wrist_flex,isaac_pos_wrist_flex,isaac_vel_wrist_flex,isaac_lag_wrist_flex,ref_pos_wrist_roll,ref_vel_wrist_roll,fb_pos_wrist_roll,err_pos_wrist_roll,js_pos_wrist_roll,js_vel_wrist_roll,isaac_pos_wrist_roll,isaac_vel_wrist_roll,isaac_lag_wrist_roll,tcp_x,tcp_y,tcp_z,cup_red_x,cup_red_y,cup_red_z,cup_green_x,cup_green_y,cup_green_z,cup_blue_x,cup_blue_y,cup_blue_z,attached_lego_xyz,physics_rate_hz,sim_time_s,render_fps,app_dt_ms
1777000023.0012894,424316688796,0.0020463034066947024,0.013643120486899571,0.0019481972977518863,9.810610894281607e-05,0.0019481972977518863,0.0,0.002982120029628277,0.02771082893013954,-0.0009358166229335744,-0.0011947291895573356,-2.2578773140276094e-05,-0.0011945668281987576,-1.623613585779917e-07,-0.0011945668281987576,0.0,0.0011331267887726426,0.014326825737953186,-0.002327855978329978,0.003596113919920944,-5.5381011737439285e-05,0.0035965121584013633,-3.982384804194182e-07,0.0035965121584013633,0.0,0.004175104666501284,-0.09374610334634781,-0.0005789907465803398,1.5739694359052285,2.6734848538235107e-05,1.5739692436580102,1.9224721836685887e-07,1.5739692436580102,0.0,1.573931097984314,-0.06219823658466339,3.8337920914566226e-05,-1.512924381911727,-0.000429572001777435,-1.5129212929089109,-3.08900281620339e-06,-1.5129212929089109,0.0,-1.506679892539978,-0.04894169047474861,-0.00624448937174904,0.230643696983654,0.006978770614821543,0.07444909383472437,-0.0492180772125721,-0.2799921929836273,7.450580596923828e-09,0.03877135366201401,-0.27999165654182434,1.1175870895385742e-08,0.1267659068107605,-0.2799922525882721,0.0,,120.0,424.2833333332761,,
1777000023.0812442,424316688796,0.006951538755832523,0.10003340900000035,0.005125983118257491,0.0018255556375750314,0.005125983118257491,0.083232544647179,0.002982102334499359,0.027444982901215553,0.0039694364213331635,-0.001202847141477073,-0.00016555095664720214,-0.0011998259260128164,-3.0212154642566495e-06,-0.0011998259260128164,-0.0001377462542591899,0.0011331327259540558,0.014799565076828003,-0.002335979867431129,0.0035762022804462115,-0.00040606189788357103,0.0035836126905711475,-7.4104101249359774e-06,0.0035836126905711475,-0.0003378627738771297,0.004175100941210985,-0.09374617785215378,-0.0005988986607647737,1.573979048128783,0.0001960239258204803,1.5739754707981046,3.577330678350421e-06,1.5739754707981046,0.00016310121109841698,1.5739312171936035,-0.062250930815935135,4.7830935179460354e-05,-1.5130788298454045,-0.00314968645112873,-1.5130213497703484,-5.748007505612662e-05,-1.5130213497703484,-0.0026206886358048653,-1.506679892539978,-0.048957694321870804,-0.006398937305426511,0.23064367426605928,0.006978778542606497,0.07444910764058879,-0.0492180772125721,-0.2799921929836273,7.450580596923828e-09,0.03877135366201401,-0.27999165654182434,1.1175870895385742e-08,0.1267659068107605,-0.2799922525882721,0.0,,120.0,424.29999999994277,,
1777000023.1721177,424333355464,0.014770187694521956,0.16013738099999583,0.011765835146682868,0.0030043525478390884,0.014770187694521956,0.16013738099999583,0.002982131438329816,0.027322644367814064,0.01178805625619214,-0.0012157866666260026,-0.0002650204255212993,-0.0012108145933619574,-4.972073264045227e-06,-0.0012157866666260026,-0.0002650204255212993,0.001133106299676001,0.015214547514915466,-0.0023488929663020037,0.003544464329508946,-0.0006500397167405495,0.00355665978610372,-1.2195456594774143e-05,0.003544464329508946,-0.0006500397167405495,0.004175079986453056,-0.09371279180049896,-0.0006306156569441104,1.5739943694326841,0.0003138027425904312,1.573988482149757,5.887282927163895e-06,1.5739943694326841,0.0003138027425904312,1.5739312171936035,-0.062330733984708786,6.315223908059941e-05,-1.5133250105251848,-0.00504214086372097,-1.513230414443646,-9.459608153883359e-05,-1.5133250105251848,-0.00504214086372097,-1.5066800117492676,-0.048955608159303665,-0.006644998775917177,0.23064368929293608,0.006978736849777234,0.07444913644905606,-0.0492180772125721,-0.2799921929836273,7.450580596923828e-09,0.03877135366201401,-0.27999165654182434,1.1175870895385742e-08,0.1267659068107605,-0.2799922525882721,0.0,,120.0,424.3166666666094,,
1777000023.2748618,424350022131,0.041163708311833545,0.28005539099997206,0.0357579812856858,0.005405727026147743,0.0357579812856858,0.2600376279999822,0.002982125850394368,0.027616268023848534,0.03818158246143918,-0.001259466799405277,-0.00046347953506460426,-0.0012505205554503968,-8.946243954880296e-06,-0.0012505205554503968,-0.0004303510048294456,0.0011331073474138975,0.014607392251491547,-0.0023925741468191746,0.003437326092585571,-0.0011368184361484315,0.0034592693593163697,-2.194326673079887e-05,0.0034592693593163697,-0.0010555610750685835,0.00417507765814662,-0.09369701147079468,-0.000737751565561049,1.5740460897687136,0.0005487922259416702,1.5740354967893861,1.0592979327483931e-05,1.5740354967893861,0.0005095657262106031,1.5739309787750244,-0.062258411198854446,0.00011511099368921585,-1.5141560460273935,-0.008817920726868007,-1.5139858394399843,-0.00017020658740918293,-1.5139858394399843,-0.008187634530142774,-1.506679892539978,-0.04894840717315674,-0.007476153487415482,0.23064372881925346,0.006978770744294952,0.07444909176489728,-0.0492180772125721,-0.2799921929836273,7.450580596923828e-09,0.03877135366201401,-0.27999165654182434,1.1175870895385742e-08,0.1267659068107605,-0.2799922525882721,0.0,,120.0,424.3333333332761,,
1777000023.3494494,424366688799,0.059762454036771426,0.3400419289999404,0.05316173899303142,0.006600715043740005,0.059762454036771426,0.3400419289999404,0.007411452475935221,0.6978582739830017,0.052351001560836205,-0.001290246917547623,-0.0005627546557580577,-0.0012793230202120165,-1.0923897335606567e-05,-0.001290246917547623,-0.0005627546557580577,0.0011050926987081766,0.06991906464099884,-0.0023953396162557997,0.0033618288955709,-0.0013803195595354072,0.0033886229327315213,-2.679403716062149e-05,0.0033618288955709,-0.0013803195595354072,0.004154863301664591,-0.10926374793052673,-0.000793034406093691,1.5740825355840544,0.0006663409208188963,1.574069600924634,1.2934659420427153e-05,1.5740825355840544,0.0006663409208188963,1.5739407539367676,-0.0630146861076355,0.00014178164728684273,-1.5147416525562858,-0.010706677571959297,-1.5145338201635998,-0.0002078323926859582,-1.5147416525562858,-0.010706677571959297,-1.5068180561065674,-0.03374102711677551,-0.007923596449718406,0.23068189215224055,0.006031544512797348,0.0744572455103748,-0.0492180772125721,-0.2799921929836273,7.450580596923828e-09,0.03877135366201401,-0.27999165654182434,1.1175870895385742e-08,0.1267659068107605,-0.2799922525882721,0.0,,120.0,424.3499999999427,,
1777000023.4234133,424383355466,0.09876693560448721,0.44004258499987337,0.09016467844759914,0.008602257156888074,0.09016467844759914,0.42003923899981604,0.015152838081121445,0.8981418013572693,0.08361409752336577,-0.0013547976441660025,-0.0007282514076096021,-0.0013405612813759662,-1.423636279003623e-05,-0.0013405612813759662,-0.0006951467368844955,0.0011077328817918897,0.11258666962385178,-0.002462530525957892,0.0032034994537406074,-0.0017862485043836057,0.0032384182763832356,-3.4918822642628165e-05,0.0032384182763832356,-0.0017050496656955511,0.004120709374547005,-0.11090472340583801,-0.0009172099208063973,1.5741589681647086,0.0008623006643714204,1.5741421113142258,1.685685048280483e-05,1.5741421113142258,0.000823102415988828,1.5739580392837524,-0.0667777732014656,0.00020092888095613048,-1.5159697611287646,-0.0138553327508162,-1.5156989074900946,-0.0002708536386699656,-1.5156989074900946,-0.013225500492741305,-1.5070637464523315,-0.0359325148165226,-0.008906014676433038,0.23073073785753803,0.004462930497198421,0.07446232175212295,-0.0492180772125721,-0.2799921929836273,7.450580596923828e-09,0.03877135366201401,-0.27999165654182434,1.1175870895385742e-08,0.1267659068107605,-0.2799922525882721,0.0,,120.0,424.3666666666094,,
1777000023.499366,424400022134,0.12696552589827137,0.5000346560000655,0.1171680245508006,0.009797501347470775,0.1171680245508006,0.4800413050002327,0.029735637828707695,1.9124380350112915,0.09722988806956367,-0.0014014650890317316,-0.0008275356851785906,-0.001385250648905774,-1.621444012595767e-05,-0.001385250648905774,-0.0007944475557457369,0.0010774886468425393,0.12924745678901672,-0.002478953735874271,0.003089033964592525,-0.002029772087672674,0.0031288045975384686,-3.977063294594366e-05,0.0031288045975384686,-0.0019486138213176013,0.004059616941958666,-0.1254309117794037,-0.0009705829773661409,1.5742142256874427,0.0009798602016594861,1.5741950266548734,1.9199032569305885e-05,1.5741950266548734,0.0009406815393012798,1.5739929676055908,-0.06398098170757294,0.0002212580818519161,-1.5168576316779852,-0.015744263809885913,-1.5165491441680865,-0.00030848750989864726,-1.5165491441680865,-0.015114746257818163,-1.5075204372406006,-0.00839238427579403,-0.009337194437384566,0.23078450089533178,0.001529826370408886,0.07448389396473303,-0.0492180772125721,-0.2799921929836273,7.450580596923828e-09,0.03877135366201401,-0.27999165654182434,1.1175870895385742e-08,0.1267659068107605,-0.2799922525882721,0.0,,120.0,424.383333333276,,
1777000023.578004,424416688801,0.17017291423916503,0.5800425586541688,0.15876943029990215,0.011403483939262882,0.15876943029990215,0.5600379143784172,0.051442891359329224,2.704625368118286,0.1187300228798358,-0.001472971444214149,-0.000959945296688669,-0.0014540991724988474,-1.887227171530159e-05,-0.0014540991724988474,-0.0009268384773735865,0.0010469815460965037,0.15361124277114868,-0.0025199529903106527,0.0029136438195631205,-0.0023545451922002635,0.0029599335579330475,-4.628973836992697e-05,0.0029599335579330475,-0.0022733410834699826,0.0039520724676549435,-0.11747010797262192,-0.001038428648091823,1.5742988942194036,0.0011366424540535114,1.574276548128111,2.234609129270204e-05,1.574276548128111,0.0010974416615685053,1.574039340019226,-0.07160036265850067,0.0002595542001775364,-1.5182180744241274,-0.01826342025460566,-1.5178590203918976,-0.0003590540322297997,-1.5178590203918976,-0.017633547118591563,-1.5082048177719116,0.0031796861439943314,-0.010013256652215752,0.23078974963214227,-0.00282438101614025,0.07450378057696472,-0.0492180772125721,-0.2799921929836273,7.450580596923828e-09,0.03877135366201401,-0.27999165654182434,1.1175870895385742e-08,0.1267659068107605,-0.2799922525882721,0.0,,120.0,424.3999999999427,,
1777000023.6558435,424433355469,0.20682944613035872,0.6401268557448784,0.19417362706685032,0.012655819063508406,0.20682944613035872,0.6401268557448784,0.0792415514588356,3.300055742263794,0.12758789467152312,-0.0015336364158733257,-0.0010593822044406198,-0.0015126915838010956,-2.094483207223008e-05,-0.0015336364158733257,-0.0010593822044406198,0.0010158662917092443,0.16769899427890778,-0.00254950270758257,0.0027648453225573087,-0.002598443145429609,0.002816218618334915,-5.137329577760636e-05,0.0027648453225573087,-0.002598443145429609,0.0038300708401948214,-0.11758846044540405,-0.0010652255176375127,1.5743707257940747,0.0012543827161413056,1.5743459256461834,2.4800147891301805e-05,1.5743707257940747,0.0012543827161413056,1.5741050243377686,-0.07670100778341293,0.0002657014563061111,-1.519372254642489,-0.020155255176227887,-1.5189737691541834,-0.00039848548830567765,-1.519372254642489,-0.020155255176227887,-1.509078860282898,0.01620294153690338,-0.01029339435959109,0.230647953526497,-0.008259806919665057,0.07453878105955454,-0.0492180772125721,-0.2799921929836273,7.450580596923828e-09,0.03877135366201401,-0.27999165654182434,1.1175870895385742e-08,0.1267659068107605,-0.2799922525882721,0.0,,120.0,424.41666666660933,,
1777000023.7277658,424450022136,0.27584342988889904,0.7401286097451958,0.26117167883314846,0.014671751055750581,0.26117167883314846,0.7200325387449967,0.11364757269620895,4.100314140319824,0.16219585719269008,-0.0016478515680657371,-0.0012248807734351946,-0.0016235704559128057,-2.4281112152931385e-05,-0.0016235704559128057,-0.0011916226468533869,0.0009838289115577936,0.1841198056936264,-0.002631680479623531,0.0024846994242454876,-0.003004376547349929,0.0025442559178062876,-5.9556493560799974e-05,0.0025442559178062876,-0.0029228013135163644,0.0036693187430500984,-0.11353439837694168,-0.0011846193188046108,1.5745059645324935,0.0014503446113092859,1.5744772139953542,2.8750537139243804e-05,1.5744772139953542,0.00141096466044969,1.5741839408874512,-0.08434978872537613,0.00032202364504230196,-1.5215452527613746,-0.023303944927118056,-1.5210832929423843,-0.0004619598189903318,-1.5210832929423843,-0.0226711930976703,-1.510160207748413,0.03204408660531044,-0.011385045012961559,0.2302620862270595,-0.015018827396155987,0.0745753124860792,-0.0492180772125721,-0.2799921929836273,7.450580596923828e-09,0.03877135366201401,-0.27999165654182434,1.1175870895385742e-08,0.1267659068107605,-0.2799922525882721,0.0,,120.0,424.433333333276,,
1777000023.801642,424466688804,0.3381743651695428,0.8200318363373912,0.3219777244820193,0.016196640687523522,0.3219777244820193,0.8000368417449337,0.14570234715938568,3.3258180618286133,0.19247201801015712,-0.00175100656465718,-0.0013571171505993198,-0.0017242018262493297,-2.6804738407850337e-05,-0.0017242018262493297,-0.0013240263010918644,0.0009930464439094067,0.20430073142051697,-0.0027440530085665864,0.002231681776142382,-0.003328724744231294,0.0022974281974896143,-6.574642134723249e-05,0.0022974281974896143,-0.0032475598061016257,0.0035259719006717205,-0.12768930196762085,-0.0012942901245293387,1.5746281072721633,0.0016069217420817757,1.5745963685848146,3.173868734873686e-05,1.5745963685848146,0.0015677398589891071,1.5742610692977905,-0.07932489365339279,0.00036703797437276364,-1.5235078261086417,-0.02581980550523735,-1.522997853088255,-0.0005099730203865782,-1.522997853088255,-0.02519023620246643,-1.5111720561981201,0.00021380186080932617,-0.012335769910521543,0.22971674208809809,-0.021024101964086425,0.07460303550972504,-0.0492180772125721,-0.2799921929836273,7.450580596923828e-09,0.03877135366201401,-0.27999165654182434,1.1175870895385742e-08,0.1267659068107605,-0.2799922525882721,0.0,,120.0,424.44999999994263,,
1777000023.8753989,424483355471,0.3891840235959602,0.8800406080553279,0.3717829809246916,0.01740104267126863,0.3717829809246916,0.8600403434373756,0.18890511989593506,5.419963359832764,0.20027890370002516,-0.0018354253386963645,-0.001456429067132381,-0.0018066273672017884,-2.8797971494576085e-05,-0.0018066273672017884,-0.0014233294959611373,0.0008909305324777961,0.17276889085769653,-0.0027263558711741603,0.002024620166245396,-0.0035723161201229488,0.0020952555717852423,-7.063540553984638e-05,0.0020952555717852423,-0.0034911297895747644,0.00334230181761086,-0.1216219961643219,-0.001317681651365464,1.574728065012277,0.001724514005855033,1.574693966197372,3.409881490501476e-05,1.574693966197372,0.0016853217956922313,1.5743663311004639,-0.132954940199852,0.00036173391181315573,-1.5251139338243382,-0.027709262408861283,-1.5245660385872863,-0.0005478952370518986,-1.5245660385872863,-0.027079527172243083,-1.512771487236023,0.06128016114234924,-0.012342446588315292,0.22860201757668175,-0.029564603978596504,0.07467710297868003,-0.0492180772125721,-0.2799921929836273,7.450580596923828e-09,0.03877135366201401,-0.27999165654182434,1.1175870895385742e-08,0.1267659068107605,-0.2799922525882721,0.0,,120.0,424.4666666666093,,
1777000023.946808,424500022139,0.4627852773746787,0.9600385314246149,0.4437865832937335,0.018998694080945233,0.4437865832937335,0.9400407404254303,0.24143624305725098,6.160104274749756,0.22134903431742775,-0.0019572322239690683,-0.0015888221633586852,-0.0019257902086304917,-3.144201533857656e-05,-0.0019257902086304917,-0.0015557266859192558,0.0008804494282230735,0.233341246843338,-0.0028376816521921418,0.0017258533332966492,-0.003897048716110774,0.0018029740258026692,-7.712069250601994e-05,0.0018029740258026692,-0.003815872426631229,0.0030701016075909138,-0.12026652693748474,-0.0013442482742942645,1.5748722928942938,0.001881276702952827,1.5748350633463215,3.722954797225064e-05,1.5748350633463215,0.0018420893400646202,1.5744789838790894,-0.10647958517074585,0.00039330901520440165,-1.52743136831078,-0.03022810464241708,-1.5268331688698724,-0.0005981994409076652,-1.5268331688698724,-0.0295984472910171,-1.5142192840576172,0.07538653910160065,-0.013212084253162892,0.22679392642626267,-0.03971834260811602,0.0747162063232303,-0.0492180772125721,-0.2799921929836273,7.450580596923828e-09,0.03877135366201401,-0.27999165654182434,1.1175870895385742e-08,0.1267659068107605,-0.2799922525882721,0.0,,120.0,424.48333333327594,,
1777000024.0225637,424516688806,0.5221933135624935,1.0200441204000574,0.5019869716375548,0.020206341924938753,0.5221933135624935,1.0200441204000574,0.28720468282699585,4.66937780380249,0.2349886307354977,-0.0020555499492344764,-0.0016881288125908398,-0.002022109329051133,-3.3440620183343515e-05,-0.0020555499492344764,-0.0016881288125908398,0.0008809092687442899,0.24008160829544067,-0.0029364592179787663,0.0014847005008068572,-0.0041406271724142305,0.0015667233533053148,-8.202285249845763e-05,0.0014847005008068572,-0.0041406271724142305,0.0028949505649507046,-0.14977850019931793,-0.0014102500641438474,1.5749887079659712,0.001998862729859852,1.5749491119299048,3.959603606640272e-05,1.5749887079659712,0.001998862729859852,1.5746008157730103,-0.09435875713825226,0.0003878921929609813,-1.5293019102481138,-0.03211746133312019,-1.5286656863902637,-0.0006362238578501156,-1.5293019102481138,-0.03211746133312019,-1.5156233310699463,0.024402253329753876,-0.013678579178167505,0.2248736402504407,-0.04798001431863861,0.07477960693165411,-0.0492180772125721,-0.2799921929836273,7.450580596923828e-09,0.03877135366201401,-0.27999165654182434,1.1175870895385742e-08,0.1267659068107605,-0.2799922525882721,0.0,,120.0,424.4999999999426,,
1777000024.0988276,424533355474,0.606982414928568,1.100030961991523,0.5851935227936239,0.02178889213494406,0.5851935227936239,1.0800418113016135,0.34586459398269653,6.548501014709473,0.26111782094587144,-0.002195872237405324,-0.0018205035689550315,-0.00215981256520898,-3.6059672196343904e-05,-0.00215981256520898,-0.0017874223908529619,0.0006874477257952094,0.2785508632659912,-0.0028833199632005333,0.0011405192541140581,-0.004465314784553296,0.0012289660938403304,-8.84468397262723e-05,0.0012289660938403304,-0.00438417356835989,0.0026011308655142784,-0.18927724659442902,-0.0014606116114002203,1.57515485938161,0.0021556037112926657,1.5751121622045547,4.26971770552953e-05,1.5751121622045547,0.00211643327984302,1.5747382640838623,-0.0884503573179245,0.00041659529774773496,-1.5319716091661633,-0.03463595464198156,-1.5312855565860446,-0.0006860525801186679,-1.5312855565860446,-0.0340065693423611,-1.5174932479858398,0.06686607748270035,-0.014478361180323418,0.22169638916787834,-0.05913562990073448,0.07486562564910948,-0.0492180772125721,-0.2799921929836273,7.450580596923828e-09,0.03877135366201401,-0.27999165654182434,1.1175870895385742e-08,0.1267659068107605,-0.2799922525882721,0.0,,120.0,424.51666666660924,,
1777000024.1707392,424550022142,0.6747965576824759,1.160041539570524,0.6517592538062816,0.023037303876194293,0.6747965576824759,1.160041539570524,0.41705480217933655,8.457919120788574,0.2577417555031394,-0.002308101704733778,-0.0019198184741099067,-0.002269975965209333,-3.812573952444512e-05,-0.002308101704733778,-0.0019198184741099067,0.0006801068084314466,0.4960905909538269,-0.0029882085131652247,0.000865243825781917,-0.004708913490909566,0.0009587582968731486,-9.351447109123151e-05,0.000865243825781917,-0.004708913490909566,0.002272050129249692,-0.2955871820449829,-0.0014068063034677748,1.575287746930097,0.0022731995137766367,1.5752426033846425,4.5143545454484624e-05,1.575287746930097,0.0022731995137766367,1.5748999118804932,-0.09763479977846146,0.0003878350496038241,-1.534106828676946,-0.03652546840559105,-1.5333814681737425,-0.0007253605032033761,-1.534106828676946,-0.03652546840559105,-1.5196893215179443,0.11003442108631134,-0.014417507159001586,0.21690604597775348,-0.07243672169563505,0.07495252988467245,-0.0492180772125721,-0.2799921929836273,7.450580596923828e-09,0.03877135366201401,-0.27999165654182434,1.1175870895385742e-08,0.1267659068107605,-0.2799922525882721,0.0,,120.0,424.5333333332759,,
1777000024.2462459,424566688809,0.7957609217508445,1.2372831692974668,0.7708564228102709,0.02490449894057356,0.7708564228102709,1.2378487523325947,0.47750312089920044,5.827783584594727,0.318257800851644,-0.002508292484913416,-0.0020476500238103723,-0.0024670766184779207,-4.121586643549523e-05,-0.0024670766184779207,-0.002048586039222227,0.0007461050990968943,0.35932016372680664,-0.00325439758401031,0.00037421768020808483,-0.005022457566594898,0.0004753115868013188,-0.00010109390659323399,0.0004753115868013188,-0.00502475341678082,0.002020264742895961,-0.21264898777008057,-0.001646047062687876,1.5755247868327265,0.0024245610203898964,1.5754759843606152,4.8802472111253437e-05,1.5754759843606152,0.0024256693281794234,1.5750529766082764,-0.10913120955228806,0.0004718102244500866,-1.5379155544055225,-0.038957525025916845,-1.5371314027538951,-0.0007841516516273739,-1.5371314027538951,-0.03897533316862858,-1.521590232849121,0.03138333559036255,-0.01632532155640143,0.2124268002833251,-0.08264393233689381,0.07502107670066453,-0.0492180772125721,-0.2799921929836273,7.450580596923828e-09,0.03877135366201401,-0.27999165654182434,1.1175870895385742e-08,0.1267659068107605,-0.2799922525882721,0.0,,120.0,424.54999999994254,,
1777000024.3242428,424583355477,0.8915527116406139,1.1583609845426746,0.8681836383867099,0.023369073253904027,0.8681836383867099,1.17836255754114,0.5493234992027283,6.998815536499023,0.3422292124378856,-0.00266682374575647,-0.001917037228370701,-0.002628148942290137,-3.867480346633322e-05,-0.002628148942290137,-0.0019501389648550161,0.00039691152051091194,0.28308993577957153,-0.003063735266267382,-1.4626370925909708e-05,-0.004702091676368621,8.023483926498197e-05,-9.486121019089167e-05,8.023483926498197e-05,-0.004783283317977215,0.0016009480459615588,-0.21312303841114044,-0.0016155744168874686,1.5757124989471414,0.0022699063240749413,1.5756667052715303,4.579367561108327e-05,1.5756667052715303,0.0023091010981053,1.5752170085906982,-0.0748056024312973,0.0004954903564431401,-1.5409316877729777,-0.03647255386977905,-1.5401958810646084,-0.0007358067083693687,-1.5401958810646084,-0.03710233030251739,-1.5239777565002441,0.030070938169956207,-0.01695393127273359,0.20622799733691427,-0.0947370348737329,0.07515334068503698,-0.0492180772125721,-0.2799921929836273,7.450580596923828e-09,0.03877135366201401,-0.27999165654182434,1.1175870895385742e-08,0.1267659068107605,-0.2799922525882721,0.0,,120.0,424.5666666666092,,
1777000024.3986878,424600022144,0.937080392748635,1.1183670275418491,0.9145174132745297,0.022562979474105238,0.937080392748635,1.1183670275418491,0.6367424130439758,9.522148132324219,0.30033797970465914,-0.0027421700849116367,-0.0018508489627923133,-0.00270482933171638,-3.734075319525689e-05,-0.0027421700849116367,-0.0018508489627923133,0.00011679275485221297,0.6594133973121643,-0.0028589628397638497,-0.00019943519411577999,-0.004539745693701681,-0.00010784613043443285,-9.158906368134714e-05,-0.00019943519411577999,-0.004539745693701681,0.0010731223737820983,-0.36056575179100037,-0.0012725575678978784,1.5758017142890317,0.0021915347826478738,1.5757575002223614,4.4214066670322794e-05,1.5758017142890317,0.0021915347826478738,1.5753967761993408,-0.08651693910360336,0.0004049380896908872,-1.54236518805824,-0.03521329033219499,-1.5416547622969154,-0.000710425761324629,-1.54236518805824,-0.03521329033219499,-1.5267163515090942,0.07536986470222473,-0.01564883654914584,0.19699316373359393,-0.10972771402148727,0.07524723770482974,-0.0492180772125721,-0.2799921929836273,7.450580596923828e-09,0.03877135366201401,-0.27999165654182434,1.1175870895385742e-08,0.1267659068107605,-0.2799922525882721,0.0,,120.0,424.58333333327585,,
1777000024.4731896,424616688812,1.043923607939544,1.01836063254065,1.0233526488770555,0.020570959062488514,1.0233526488770555,1.03836424054134,0.7321020364761353,10.000009536743164,0.3118215714634087,-0.0029189909756814187,-0.001685342713142489,-0.0028849469299372073,-3.404404574421137e-05,-0.0028849469299372073,-0.0017184478174672932,-9.604095248505473e-05,0.8628463745117188,-0.002822950023196364,-0.000633139885079602,-0.004133793452738853,-0.0005496369557912577,-8.350292928834425e-05,-0.0005496369557912577,-0.0042149933549564264,0.0007331945234909654,-0.5470418334007263,-0.0013663344085705674,1.576011082606059,0.0019955637929584932,1.575970772071873,4.031053418596109e-05,1.575970772071873,0.0020347625547849153,1.5756621360778809,-0.09222515672445297,0.0003489465281780735,-1.545729290418101,-0.03206445445317638,-1.5450815860991785,-0.0006477043189225817,-1.5450815860991785,-0.03269429496069751,-1.5296568870544434,0.04169950634241104,-0.016072403363657672,0.18570798570576566,-0.12455593380966438,0.07541429203903059,-0.0492180772125721,-0.2799921929836273,7.450580596923828e-09,0.03877135366201401,-0.27999165654182434,1.1175870895385742e-08,0.1267659068107605,-0.2799922525882721,0.0,,120.0,424.5999999999425,,
1777000024.545026,424633355479,1.1032989571587368,0.9582837155420256,1.083857961820895,0.019440995337841827,1.1032989571587368,0.9582837155420256,0.8318711519241333,10.000019073486328,0.2714278052346035,-0.0030172546054303465,-0.0015859180191231496,-0.0029850806006800584,-3.21740047502881e-05,-0.0030172546054303465,-0.0015859180191231496,-5.443443660624325e-05,0.9875537753105164,-0.0029628201688241033,-0.0008741600325729826,-0.003889925457243123,-0.0007952439230197253,-7.891610955325736e-05,-0.0008741600325729826,-0.003889925457243123,0.0004170220927335322,-0.7110423445701599,-0.0012911821253065148,1.5761274336248572,0.0018778379928065976,1.5760893373501619,3.809627469530952e-05,1.5761274336248572,0.0018778379928065976,1.5759358406066895,-0.08336805552244186,0.000191593018167735,-1.5475988031622556,-0.03017285190369685,-1.5469866772712741,-0.0006121258909814742,-1.5475988031622556,-0.03017285190369685,-1.532710313796997,0.028011254966259003,-0.01488848936525855,0.17233090120313405,-0.13880931566300622,0.07561004087737944,-0.0492180772125721,-0.2799921929836273,7.450580596923828e-09,0.03877135366201401,-0.27999165654182434,1.1175870895385742e-08,0.1267659068107605,-0.2799922525882721,0.0,,120.0,424.61666666660915,,
1777000024.6222575,424650022147,1.1941348214916243,0.8582749855413445,1.1767169396821935,0.017417881809430824,1.1767169396821935,0.8783346255415987,0.9091809391975403,7.282770156860352,0.284953882294084,-0.00316758402425666,-0.0014204079051503,-0.0031387581847182005,-2.882583953845927e-05,-0.0031387581847182005,-0.0014536057400060555,0.00045008555753156543,0.7292798757553101,-0.0036176695817882252,-0.001242886679356626,-0.0034839637379039346,-0.0011721829193293222,-7.070376002730376e-05,-0.0011721829193293222,-0.003565391088733931,6.137114542070776e-05,-0.5037267208099365,-0.0013042578247773337,1.5763054341839684,0.0016818624275780913,1.5762713023713482,3.4131812620241675e-05,1.5762713023713482,0.0017211709888134152,1.5761052370071411,-0.10436251014471054,0.0002001971768272881,-1.5504588925466518,-0.027023942504081896,-1.5499104671066815,-0.000548425439970357,-1.5499104671066815,-0.02765554725447596,-1.5351319313049316,0.007666967809200287,-0.015326961241720172,0.16183732138688461,-0.14818806019348427,0.07562201637470543,-0.0492180772125721,-0.2799921929836273,7.450580596923828e-09,0.03877135366201401,-0.27999165654182434,1.1175870895385742e-08,0.1267659068107605,-0.2799922525882721,0.0,,120.0,424.6333333332758,,
1777000024.6948693,424666688814,1.2275936558086828,0.8183631725429006,1.2110250308547221,0.01656862495396072,1.2275936558086828,0.8183631725429006,0.9867134094238281,7.6433258056640625,0.24088024638485472,-0.003222956945012458,-0.0013543555843359633,-0.0031955365887647072,-2.7420356247750705e-05,-0.003222956945012458,-0.0013543555843359633,-0.00042070989729836583,0.41640380024909973,-0.002802247047714092,-0.001378704881491044,-0.003321951199331768,-0.0013114484782415401,-6.72564032495038e-05,-0.001378704881491044,-0.003321951199331768,-0.00039635374560020864,-0.43774089217185974,-0.0009823511358908353,1.5763709995997808,0.001603651854238067,1.5763385319777994,3.2467621981391304e-05,1.5763709995997808,0.001603651854238067,1.576306700706482,-0.04614385962486267,6.429889329884197e-05,-1.5515123889552276,-0.025767265380966197,-1.5509907035098043,-0.0005216854454233033,-1.5515123889552276,-0.025767265380966197,-1.5377124547958374,-0.008926540613174438,-0.013799934159390181,0.15038506213665984,-0.157059579552875,0.07591253233353858,-0.0492180772125721,-0.2799921929836273,7.450580596923828e-09,0.03877135366201401,-0.27999165654182434,1.1175870895385742e-08,0.1267659068107605,-0.2799922525882721,0.0,,120.0,424.64999999994245,,
1777000024.771271,424683355482,1.3044969919944485,0.7182698725424597,1.289918747758145,0.014578244236303384,1.289918747758145,0.7382872735427757,1.0757803916931152,6.901466369628906,0.22871660030133323,-0.003350228633563179,-0.0011887055106786651,-0.0033261022711440335,-2.4126362419145658e-05,-0.0033261022711440335,-0.0012218334418200463,-0.0008786430116742849,1.4267442226409912,-0.002471585621888894,-0.0016908757347823698,-0.0029156461881369488,-0.0016316988099771405,-5.9176924805229335e-05,-0.0016316988099771405,-0.0029969020797648805,-0.000929857837036252,-0.9568802118301392,-0.0007610178977461178,1.5765216981915664,0.0014075105669325155,1.576493130888949,2.8567302617465984e-05,1.576493130888949,0.0014467363572741186,1.5764809846878052,-0.2107381522655487,4.0713503761224956e-05,-1.5539337939483413,-0.022615693181071747,-1.5534747783173501,-0.0004590156309911553,-1.5534747783173501,-0.02324596797973786,-1.5402843952178955,-0.1368716061115265,-0.013649398730445794,0.13572364586186908,-0.16676998165498333,0.07592250315636742,-0.0492180772125721,-0.2799921929836273,7.450580596923828e-09,0.03877135366201401,-0.27999165654182434,1.1175870895385742e-08,0.1267659068107605,-0.2799922525882721,0.0,,120.0,424.6666666666091,,
1777000024.8461013,424700022149,1.3457763849741902,0.6582953925419481,1.3323667141366486,0.01340967083754152,1.3457763849741902,0.6582953925419481,1.1382156610488892,6.62742280960083,0.207560723925301,-0.003418544239978352,-0.0010894503454517393,-0.0033963518158905233,-2.2192424087828528e-05,-0.003418544239978352,-0.0010894503454517393,0.00016660681285429746,0.8712053298950195,-0.0035851510528326492,-0.0018584396399256543,-0.002672194011338653,-0.0018040062616701345,-5.443337825551979e-05,-0.0018584396399256543,-0.002672194011338653,-0.0009356753434985876,-0.6128535866737366,-0.0009227642964270667,1.5766025886535462,0.0012899855007039776,1.5765763112693418,2.6277384204353993e-05,1.5766025886535462,0.0012899855007039776,1.5766866207122803,-0.1141110435128212,-8.403205873408481e-05,-1.5552335311669254,-0.020727315998297725,-1.5548113096414036,-0.00042222152552184866,-1.5552335311669254,-0.020727315998297725,-1.542299509048462,-0.019519925117492676,-0.012934022118463506,0.12500101165771196,-0.17242573189004007,0.07601700182543278,-0.0492180772125721,-0.2799921929836273,7.450580596923828e-09,0.03877135366201401,-0.27999165654182434,1.1175870895385742e-08,0.1267659068107605,-0.2799922525882721,0.0,,120.0,424.68333333327575,,
1777000024.9227288,424716688817,1.4066169531587203,0.5582756375412418,1.3952010202241873,0.011415932934532913,1.3952010202241873,0.5783628215413817,1.2019550800323486,7.369420528411865,0.20466187312637163,-0.003519232743615254,-0.0009239219855816226,-0.003500339869352295,-1.889287426295929e-05,-0.003500339869352295,-0.0009571654045634914,-0.0003150903503410518,0.4973987340927124,-0.0032041423932742024,-0.0021054074962877744,-0.0022661875386268,-0.0020590672241742047,-4.634027211356971e-05,-0.0020590672241742047,-0.0023477266977914284,-0.0010910273995250463,-0.6616553068161011,-0.001014380096762728,1.576721810892835,0.0010939883310469422,1.5766994404066832,2.2370486151723767e-05,1.5766994404066832,0.0011333508670796275,1.5769031047821045,-0.05539067089557648,-0.00018129388926957368,-1.557149178301272,-0.017578059461698745,-1.556789732295679,-0.00035944600559312256,-1.556789732295679,-0.018210531471995004,-1.5443651676177979,-0.009014777839183807,-0.012784010683474234,0.11402066773651567,-0.17746462282328399,0.0762641199389062,-0.0492180772125721,-0.2799921929836273,7.450580596923828e-09,0.03877135366201401,-0.27999165654182434,1.1175870895385742e-08,0.1267659068107605,-0.2799922525882721,0.0,,120.0,424.6999999999424,,
1777000024.998503,424733355484,1.4281031539255142,0.5183621185431067,1.4175504577340636,0.010552696191450606,1.4281031539255142,0.5183621185431067,1.2695486545562744,7.281338214874268,0.15855449936923982,-0.0035547914747153463,-0.0008578668414117715,-0.0035373272198512343,-1.746425486411204e-05,-0.0035547914747153463,-0.0008578668414117715,0.00019535447063390166,0.9379123449325562,-0.003750145945349248,-0.0021926256321974664,-0.002104168074953501,-0.002149789464899706,-4.283616729776037e-05,-0.0021926256321974664,-0.002104168074953501,-0.0013712327927350998,-0.7302097082138062,-0.0008213928394623666,1.5767639149205537,0.001015774414703111,1.5767432360198126,2.0678900741089024e-05,1.5767639149205537,0.001015774414703111,1.577041506767273,-0.0717039555311203,-0.00027759184671927173,-1.5578257002364722,-0.016321328622820187,-1.5574934344009945,-0.0003322658354776298,-1.5578257002364722,-0.016321328622820187,-1.5464119911193848,-0.02156602218747139,-0.01141370911708739,0.10143049498699648,-0.182382753477263,0.07622133474735686,-0.0492180772125721,-0.2799921929836273,7.450580596923828e-09,0.03877135366201401,-0.27999165654182434,1.1175870895385742e-08,0.1267659068107605,-0.2799922525882721,0.0,,120.0,424.71666666660906,,
1777000025.0731952,424750022152,1.474972800178043,0.41828219354292256,1.4664009071780222,0.008571893000020925,1.4664009071780222,0.43829645154288327,1.3284038305282593,5.6071906089782715,0.14656896964978383,-0.0036323587080265896,-0.0006922389028001331,-0.0036181725966002473,-1.4186111426342345e-05,-0.0036181725966002473,-0.0007253616324121996,0.00033449518377892673,0.6354924440383911,-0.003966853891805516,-0.002382881844603797,-0.001697917356399926,-0.0023480862780541896,-3.4795566549607367e-05,-0.0023480862780541896,-0.0017791604897633765,-0.001555299386382103,-0.580207347869873,-0.000827582458221694,1.5768557599566466,0.000819659336759592,1.5768389626072978,1.6797349348784962e-05,1.5768389626072978,0.0008588789681588373,1.5771976709365845,-0.06707406044006348,-0.0003419109799378539,-1.559301454099572,-0.013170177552870262,-1.5590315565172288,-0.0002698975823431926,-1.5590315565172288,-0.013800353389954763,-1.5482486486434937,-0.048514194786548615,-0.01105280545607834,0.09101328179186041,-0.18555987180824052,0.07633484726364247,-0.0492180772125721,-0.2799921929836273,7.450580596923828e-09,0.03877135366201401,-0.27999165654182434,1.1175870895385742e-08,0.1267659068107605,-0.2799922525882721,0.0,,120.0,424.7333333332757,,
1777000025.1457796,424766688819,1.5052085369267456,0.33836152254229823,1.4982413527045249,0.006967184222220757,1.4982413527045249,0.35836139354243085,1.3805092573165894,5.286903381347656,0.12469927961015626,-0.0036823975419893575,-0.0005599736558961412,-0.0036708671540454066,-1.1530387943950882e-05,-0.0036708671540454066,-0.0005930725756469475,0.00016106822295114398,0.5737533569335938,-0.0038434657649405015,-0.0025056166466146516,-0.0013734983480798784,-0.0024773350147432502,-2.828163187140135e-05,-0.0024773350147432502,-0.001454683080829942,-0.0018015052191913128,-0.5582036972045898,-0.0007041114274233388,1.5769150094401625,0.0006630480222404802,1.5769013566533907,1.3652786771789494e-05,1.5769013566533907,0.0007022394610621807,1.5773229598999023,-0.06278104335069656,-0.00040795045973984756,-1.560253466945374,-0.010653767714095819,-1.5600340957776149,-0.00021937116775916365,-1.5600340957776149,-0.011283490557122326,-1.549877643585205,-0.054845329374074936,-0.010375823360168956,0.08130129280999913,-0.18806433613938955,0.07642814894691236,-0.0492180772125721,-0.2799921929836273,7.450580596923828e-09,0.03877135366201401,-0.27999165654182434,1.1175870895385742e-08,0.1267659068107605,-0.2799922525882721,0.0,,120.0,424.74999999994236,,
1777000025.2250695,424783355487,1.5290987512982366,0.25827909554231526,1.5237098021066076,0.005388949191629022,1.5237098021066076,0.2783630535428534,1.4183220863342285,3.2365264892578125,0.11077666496400806,-0.003721934811420084,-0.0004274407098232732,-0.003713016334054214,-8.918477365870044e-06,-0.003713016334054214,-0.00046067878991562614,0.00043616717448458076,0.35748159885406494,-0.004158101985904664,-0.002602593305567992,-0.0010484227296458245,-0.00258071814447705,-2.1875161090941994e-05,-0.00258071814447705,-0.0011299487936302828,-0.0019809359218925238,-0.3748756945133209,-0.0006216573836754684,1.5769618243358723,0.0005061197331174471,1.5769512642341308,1.0560101741496908e-05,1.5769512642341308,0.0005454759475299098,1.5773954391479492,-0.04623604193329811,-0.0004336148120769323,-1.5610056824828893,-0.008132264770056227,-1.5608360041681701,-0.00016967831471914607,-1.5608360041681701,-0.00876463520541103,-1.5510592460632324,-0.09329533576965332,-0.009946436419656868,0.07464232240365967,-0.18938298432489867,0.07641234587641782,-0.0492180772125721,-0.2799921929836273,7.450580596923828e-09,0.03877135366201401,-0.27999165654182434,1.1175870895385742e-08,0.1267659068107605,-0.2799922525882721,0.0,,120.0,424.766666666609,,
1777000025.3019474,424800022155,1.5465486786386748,0.17834863754259306,1.5427795765575818,0.0037691020810930453,1.5427795765575818,0.1983593725420546,1.4565277099609375,4.361726760864258,0.09002096867773735,-0.0037508136849235723,-0.00029515926585988415,-0.003744575984324706,-6.23770059886633e-06,-0.003744575984324706,-0.00032827616505877303,0.0003146155213471502,0.39014673233032227,-0.0040654292062707225,-0.0026734271468278523,-0.0007239639933244148,-0.0026581273708863404,-1.5299775941511867e-05,-0.0026581273708863404,-0.0008051928259030004,-0.0020657707937061787,-0.4745996594429016,-0.0006076563531216737,1.576996018944421,0.0003494892400981247,1.5769886330701002,7.3858743208088384e-06,1.5769886330701002,0.0003887019678493667,1.577510952949524,-0.04729756340384483,-0.0005149340051029405,-1.5615551169195117,-0.005615546774430226,-1.5614364416701483,-0.00011867524936337581,-1.5614364416701483,-0.006245611685093154,-1.5522493124008179,-0.06462425738573074,-0.009305804518693783,0.06715137059312684,-0.190698544468425,0.07646339802809776,-0.0492180772125721,-0.2799921929836273,7.450580596923828e-09,0.03877135366201401,-0.27999165654182434,1.1175870895385742e-08,0.1267659068107605,-0.2799922525882721,0.0,,120.0,424.78333333327566,,
1777000025.3777905,424816688822,1.5528912960811467,0.1382859415416619,1.5499140034010996,0.0029772926800470945,1.5528912960811467,0.1382859415416619,1.4914288520812988,3.2090442180633545,0.061462443999847904,-0.0037613104419145136,-0.0002288572402154,-0.0037563831515589436,-4.927290355569939e-06,-0.0037613104419145136,-0.0002288572402154,0.000231327663641423,0.2210940718650818,-0.003992638105555937,-0.0026991734979917876,-0.0005613389809900571,-0.0026870878845122468,-1.2085613479540826e-05,-0.0026991734979917876,-0.0005613389809900571,-0.0022958111949265003,-0.3431732654571533,-0.00040336230306528727,1.577008447839762,0.00027098299875519407,1.5770026135829343,5.834256827652595e-06,1.577008447839762,0.00027098299875519407,1.5775740146636963,-0.052889540791511536,-0.0005655668239343825,-1.5617548227620193,-0.004354118896962907,-1.5616610786968201,-9.374406519913059e-05,-1.5617548227620193,-0.004354118896962907,-1.5533479452133179,-0.0873013585805893,-0.008406877548701397,0.06064915603360762,-0.19155495818855067,0.0765425102371498,-0.0492180772125721,-0.2799921929836273,7.450580596923828e-09,0.03877135366201401,-0.27999165654182434,1.1175870895385742e-08,0.1267659068107605,-0.2799922525882721,0.0,,120.0,424.7999999999423,,
1777000025.4534955,424833355490,1.561716934506553,0.03836306564274057,1.560749598369126,0.000967336137426944,1.560749598369126,0.058364347818755435,1.5191082954406738,2.661806106567383,0.042608639065879084,-0.003775916491023051,-6.348921106028903e-05,-0.003774315591638021,-1.6008993850300315e-06,-0.003774315591638021,-9.659046624599312e-05,0.00020383046648930758,0.10079734027385712,-0.003979746957512359,-0.0027349990839123364,-0.00015572576601420498,-0.002731072412295505,-3.926671616831176e-06,-0.002731072412295505,-0.00023691622709793905,-0.00238288682885468,-0.2846375107765198,-0.00035211225505765633,1.577025742424734,7.51756719005759e-05,1.577023846847755,1.8955769789386068e-06,1.577023846847755,0.00011436987604297192,1.5776467323303223,-0.04619622603058815,-0.0006209899055882317,-1.5620327098604292,-0.0012079127292421276,-1.562002251980845,-3.0457879584222525e-05,-1.562002251980845,-0.0018376800050286276,-1.5542124509811401,-0.08411432802677155,-0.007820258879289055,0.05549936073730539,-0.19205373262152822,0.07656886220280863,-0.0492180772125721,-0.2799921929836273,7.450580596923828e-09,0.03877135366201401,-0.27999165654182434,1.1175870895385742e-08,0.1267659068107605,-0.2799922525882721,0.0,,120.0,424.81666666660897,,
1777000025.527643,424850022157,1.5624527968952129,1.9657459216884454e-16,1.5624527968952129,0.0,1.5624527968952129,1.9657459216884454e-16,1.541032314300537,2.0699026584625244,0.02142048259467577,-0.0037771343113854787,-3.253224308899208e-19,-0.0037771343113854787,0.0,-0.0037771343113854787,-3.253224308899208e-19,0.0002958276018034667,0.05363674834370613,-0.004072961913188945,-0.002737986142747052,-7.979479332926623e-19,-0.002737986142747052,0.0,-0.002737986142747052,-7.979479332926623e-19,-0.0024936439003795385,-0.220546156167984,-0.00024434224236751347,1.5770271844093244,3.8520453975028053e-19,1.5770271844093244,0.0,1.5770271844093244,3.8520453975028053e-19,1.5776870250701904,-0.05093997344374657,-0.0006598406608659957,-1.5620558794776465,-6.1894154740878865e-18,-1.5620558794776465,0.0,-1.5620558794776465,-6.1894154740878865e-18,-1.5548957586288452,-0.08756756782531738,-0.0071601208488012436,0.051419011150865376,-0.19235911427219524,0.0765549197080591,-0.0492180772125721,-0.2799921929836273,7.450580596923828e-09,0.03877135366201401,-0.27999165654182434,1.1175870895385742e-08,0.1267659068107605,-0.2799922525882721,0.0,,120.0,424.8333333332756,,
1777000025.606817,424866688825,1.5624527968952129,1.9657459216884454e-16,1.5624527968952129,0.0,1.5624527968952129,1.9657459216884454e-16,1.5539100170135498,1.1238254308700562,0.008542779881663076,-0.0037771343113854787,-3.253224308899208e-19,-0.0037771343113854787,0.0,-0.0037771343113854787,-3.253224308899208e-19,0.00017616029072087258,-0.1295531690120697,-0.003953294602106351,-0.002737986142747052,-7.979479332926623e-19,-0.002737986142747052,0.0,-0.002737986142747052,-7.979479332926623e-19,-0.002589037176221609,-0.12192833423614502,-0.0001489489665254429,1.5770271844093244,3.8520453975028053e-19,1.5770271844093244,0.0,1.5770271844093244,3.8520453975028053e-19,1.5777089595794678,-0.036433782428503036,-0.0006817751701433394,-1.5620558794776465,-6.1894154740878865e-18,-1.5620558794776465,0.0,-1.5620558794776465,-6.1894154740878865e-18,-1.5552986860275269,-0.09724190831184387,-0.006757193450119603,0.04918527073040746,-0.19246071415226873,0.07658562831681126,-0.0492180772125721,-0.2799921929836273,7.450580596923828e-09,0.03877135366201401,-0.27999165654182434,1.1175870895385742e-08,0.1267659068107605,-0.2799922525882721,0.0,,120.0,424.84999999994227,,
1777000025.6789553,424883355492,1.5624527968952129,1.9657459216884454e-16,1.5624527968952129,0.0,1.5624527968952129,1.9657459216884454e-16,1.563497543334961,1.1719857454299927,-0.0010447464397480566,-0.0037771343113854787,-3.253224308899208e-19,-0.0037771343113854787,0.0,-0.0037771343113854787,-3.253224308899208e-19,0.0002934503136202693,-0.03642287850379944,-0.004070584625005748,-0.002737986142747052,-7.979479332926623e-19,-0.002737986142747052,0.0,-0.002737986142747052,-7.979479332926623e-19,-0.0026127309538424015,-0.13501673936843872,-0.0001252551889046505,1.5770271844093244,3.8520453975028053e-19,1.5770271844093244,0.0,1.5770271844093244,3.8520453975028053e-19,1.5777286291122437,-0.038140326738357544,-0.0007014447029192183,-1.5620558794776465,-6.1894154740878865e-18,-1.5620558794776465,0.0,-1.5620558794776465,-6.1894154740878865e-18,-1.5555925369262695,-0.08903674781322479,-0.006463342551376927,0.04734803657086605,-0.19255100538226666,0.07654487097140138,-0.0492180772125721,-0.2799921929836273,7.450580596923828e-09,0.03877135366201401,-0.27999165654182434,1.1175870895385742e-08,0.1267659068107605,-0.2799922525882721,0.0,,120.0,424.8666666666089,,
1777000025.7533343,424900022160,1.5624527968952129,1.9657459216884454e-16,1.5624527968952129,0.0,1.5624527968952129,1.9657459216884454e-16,1.5675506591796875,-0.4339386522769928,-0.005097862284474619,-0.0037771343113854787,-3.253224308899208e-19,-0.0037771343113854787,0.0,-0.0037771343113854787,-3.253224308899208e-19,0.0002468117163516581,0.22112353146076202,-0.004023946027737137,-0.002737986142747052,-7.979479332926623e-19,-0.002737986142747052,0.0,-0.002737986142747052,-7.979479332926623e-19,-0.0026812152937054634,-0.0304016824811697,-5.6770849041588595e-05,1.5770271844093244,3.8520453975028053e-19,1.5770271844093244,0.0,1.5770271844093244,3.8520453975028053e-19,1.577724575996399,-0.07438547909259796,-0.0006973915870744918,-1.5620558794776465,-6.1894154740878865e-18,-1.5620558794776465,0.0,-1.5620558794776465,-6.1894154740878865e-18,-1.555717945098877,-0.08176364004611969,-0.006337934378769505,0.04675312707094664,-0.1925663130271324,0.07654668135097308,-0.0492180772125721,-0.2799921929836273,7.450580596923828e-09,0.03877135366201401,-0.27999165654182434,1.1175870895385742e-08,0.1267659068107605,-0.2799922525882721,0.0,,120.0,424.8833333332756,,
1777000025.8300288,424916688827,1.5624527968952129,1.9657459216884454e-16,1.5624527968952129,0.0,1.5624527968952129,1.9657459216884454e-16,1.5680222511291504,-0.25265440344810486,-0.00556945423393751,-0.0037771343113854787,-3.253224308899208e-19,-0.0037771343113854787,0.0,-0.0037771343113854787,-3.253224308899208e-19,0.00011996181274298579,0.09093581140041351,-0.0038970961241284645,-0.002737986142747052,-7.979479332926623e-19,-0.002737986142747052,0.0,-0.002737986142747052,-7.979479332926623e-19,-0.00269123213365674,-0.012581841088831425,-4.6754009090311816e-05,1.5770271844093244,3.8520453975028053e-19,1.5770271844093244,0.0,1.5770271844093244,3.8520453975028053e-19,1.577728509902954,-0.08656731247901917,-0.0007013254936296676,-1.5620558794776465,-6.1894154740878865e-18,-1.5620558794776465,0.0,-1.5620558794776465,-6.1894154740878865e-18,-1.555732250213623,-0.06669563800096512,-0.0063236292640234115,0.04668581459931895,-0.19256765613645999,0.07657459387511376,-0.0492180772125721,-0.2799921929836273,7.450580596923828e-09,0.03877135366201401,-0.27999165654182434,1.1175870895385742e-08,0.1267659068107605,-0.2799922525882721,0.0,,120.0,424.8999999999422,,
1777000025.9044003,424933355495,1.5624527968952129,1.9657459216884454e-16,1.5624527968952129,0.0,1.5624527968952129,1.9657459216884454e-16,1.5681852102279663,-0.3530336618423462,-0.005732413332753428,-0.0037771343113854787,-3.253224308899208e-19,-0.0037771343113854787,0.0,-0.0037771343113854787,-3.253224308899208e-19,0.00022153537429403514,0.2358984351158142,-0.003998669685679514,-0.002737986142747052,-7.979479332926623e-19,-0.002737986142747052,0.0,-0.002737986142747052,-7.979479332926623e-19,-0.00268913502804935,-0.04821881651878357,-4.885111469770222e-05,1.5770271844093244,3.8520453975028053e-19,1.5770271844093244,0.0,1.5770271844093244,3.8520453975028053e-19,1.577723503112793,-0.06786838918924332,-0.0006963187034685347,-1.5620558794776465,-6.1894154740878865e-18,-1.5620558794776465,0.0,-1.5620558794776465,-6.1894154740878865e-18,-1.5557332038879395,-0.0813521146774292,-0.006322675589707005,0.04667998748808717,-0.19256936651948517,0.07652905381647179,-0.0492180772125721,-0.2799921929836273,7.450580596923828e-09,0.03877135366201401,-0.27999165654182434,1.1175870895385742e-08,0.1267659068107605,-0.2799922525882721,0.0,,120.0,424.9166666666089,,
1777000025.9777024,424950022162,1.5624527968952129,1.9657459216884454e-16,1.5624527968952129,0.0,1.5624527968952129,1.9657459216884454e-16,1.5682190656661987,-0.16776001453399658,-0.0057662687709858496,-0.0037771343113854787,-3.253224308899208e-19,-0.0037771343113854787,0.0,-0.0037771343113854787,-3.253224308899208e-19,0.0002189837396144867,0.15269285440444946,-0.003996118050999965,-0.002737986142747052,-7.979479332926623e-19,-0.002737986142747052,0.0,-0.002737986142747052,-7.979479332926623e-19,-0.002687366446480155,-0.06424371153116226,-5.0619696266897014e-05,1.5770271844093244,3.8520453975028053e-19,1.5770271844093244,0.0,1.5770271844093244,3.8520453975028053e-19,1.5777249336242676,-0.05750129371881485,-0.0006977492149431441,-1.5620558794776465,-6.1894154740878865e-18,-1.5620558794776465,0.0,-1.5620558794776465,-6.1894154740878865e-18,-1.5557340383529663,-0.08309096097946167,-0.00632184112468015,0.046659684251882806,-0.19257188477091305,0.07653277336047068,-0.0492180772125721,-0.2799921929836273,7.450580596923828e-09,0.03877135366201401,-0.27999165654182434,1.1175870895385742e-08,0.1267659068107605,-0.2799922525882721,0.0,,120.0,424.9333333332755,,
