inbarajaldrin/isaac-sim-mcp/.planning/saved_runs/2026-04-23-green2x2-postfix/20260423T200642_grasp_move.csv
t_wall,t_sim_ns,ref_pos_shoulder_pan,ref_vel_shoulder_pan,fb_pos_shoulder_pan,err_pos_shoulder_pan,js_pos_shoulder_pan,js_vel_shoulder_pan,isaac_pos_shoulder_pan,isaac_vel_shoulder_pan,isaac_lag_shoulder_pan,ref_pos_shoulder_lift,ref_vel_shoulder_lift,fb_pos_shoulder_lift,err_pos_shoulder_lift,js_pos_shoulder_lift,js_vel_shoulder_lift,isaac_pos_shoulder_lift,isaac_vel_shoulder_lift,isaac_lag_shoulder_lift,ref_pos_elbow_flex,ref_vel_elbow_flex,fb_pos_elbow_flex,err_pos_elbow_flex,js_pos_elbow_flex,js_vel_elbow_flex,isaac_pos_elbow_flex,isaac_vel_elbow_flex,isaac_lag_elbow_flex,ref_pos_wrist_flex,ref_vel_wrist_flex,fb_pos_wrist_flex,err_pos_wrist_flex,js_pos_wrist_flex,js_vel_wrist_flex,isaac_pos_wrist_flex,isaac_vel_wrist_flex,isaac_lag_wrist_flex,ref_pos_wrist_roll,ref_vel_wrist_roll,fb_pos_wrist_roll,err_pos_wrist_roll,js_pos_wrist_roll,js_vel_wrist_roll,isaac_pos_wrist_roll,isaac_vel_wrist_roll,isaac_lag_wrist_roll,tcp_x,tcp_y,tcp_z,cup_red_x,cup_red_y,cup_red_z,cup_green_x,cup_green_y,cup_green_z,cup_blue_x,cup_blue_y,cup_blue_z,attached_lego_xyz,physics_rate_hz,sim_time_s,render_fps,app_dt_ms
1777000002.4640558,418066688470,-3.331611862378838e-05,-0.0034143106150095652,-8.807182312012274e-06,-2.4508936311776108e-05,-8.807182312012274e-06,0.0,-7.206954251159914e-06,0.033953409641981125,-2.6109164372628468e-05,-0.009169633354964296,-0.00602691569455657,-0.009126370362937451,-4.326299202684486e-05,-0.009126370362937451,0.0,-0.006778756622225046,0.06125754117965698,-0.0023908767327392496,-0.006462811206867132,0.009518498053053376,-0.006531137814745307,6.832660787817538e-05,-0.006531137814745307,0.0,-0.0060133179649710655,-0.15807223320007324,-0.00044949324189606614,1.5794535202750333,-0.0034139735386703417,1.5794780267917108,-2.45065166775138e-05,1.5794780267917108,0.0,1.5795105695724487,0.046145934611558914,-5.7049297415456834e-05,-1.5132327360339612,0.013605462772575707,-1.5133304000892231,9.766405526190347e-05,-1.5133304000892231,0.0,-1.5133308172225952,-0.007662603165954351,9.808118863396942e-05,0.2316714894109566,0.007647191590016563,0.07710836006497064,-0.0492180772125721,-0.2799921929836273,7.450580596923828e-09,0.03877135366201401,-0.27999165654182434,1.1175870895385742e-08,0.1267659068107605,-0.2799922525882721,0.0,,120.0,418.0333333332818,,
1777000002.5223126,418066688470,-0.0008057249519739345,-0.020882020757943005,-0.00043177808556435916,-0.0003739468664095754,-0.00043177808556435916,-0.016264451828395653,-7.157290838222252e-06,0.033203769475221634,-0.0007985676611357123,-0.010533083680739382,-0.03686078767609442,-0.009872995454382211,-0.0006600882263571705,-0.009872995454382211,-0.028709889357164533,-0.0067787254229187965,0.06110379099845886,-0.0037543582578205854,-0.004309471102400981,0.05821540461330979,-0.0053519692583149465,0.001042498155913965,-0.0053519692583149465,0.04534243380845138,-0.006013303063809872,-0.15798144042491913,0.0017038319614088903,1.5786811876974112,-0.020879959189467962,1.579055097646078,-0.00037390994866681737,1.579055097646078,-0.01626284612742336,1.5795104503631592,0.04613383114337921,-0.0008292626657480096,-1.5101548146576356,0.08321139699163158,-1.5116449310364708,0.0014901163788352267,-1.5116449310364708,0.06481114896072582,-1.5133308172225952,-0.007708035875111818,0.0031760025649596457,0.23167150522051796,0.007647114461860146,0.07710832877302598,-0.0492180772125721,-0.2799921929836273,7.450580596923828e-09,0.03877135366201401,-0.27999165654182434,1.1175870895385742e-08,0.1267659068107605,-0.2799922525882721,0.0,,120.0,418.04999999994845,,
1777000002.64523,418083355138,-0.0050280021693097894,-0.05019111995980872,-0.004074510049691815,-0.0009534921196179746,-0.004074510049691815,-0.0451728686520217,-7.179869498941116e-06,0.0320926159620285,-0.005020822299810848,-0.017986216010311775,-0.08859699152248751,-0.01630311881490753,-0.0016830971954042463,-0.01630311881490753,-0.07973881165063487,-0.006778742652386427,0.06111136078834534,-0.011207473357925348,0.00746149586703222,0.13992402317405064,0.004803327379289059,0.0026581684877431608,0.004803327379289059,0.12593402030409503,-0.006013291887938976,-0.15786239504814148,0.013474787754971195,1.574459327322567,-0.0501861648632012,1.5754127253090873,-0.0009533979865201658,1.5754127253090873,-0.04516840898014247,1.5795108079910278,0.046113334596157074,-0.005051480668460728,-1.4933297386837552,0.20000330699999766,-1.497129246988705,0.0037995083049497946,-1.497129246988705,0.18000640600003012,-1.5133308172225952,-0.0077898395247757435,0.020001078538840034,0.23167143203679758,0.007647150162990093,0.07710836007411366,-0.0492180772125721,-0.2799921929836273,7.450580596923828e-09,0.03877135366201401,-0.27999165654182434,1.1175870895385742e-08,0.1267659068107605,-0.2799922525882721,0.0,,120.0,418.0666666666151,,
1777000002.7266014,418100021805,-0.008492171886895983,-0.06525201416327434,-0.007237359599591773,-0.00125481228730421,-0.008492171886895983,-0.06525201416327434,-7.2005714173428714e-06,0.0340823195874691,-0.00848497131547864,-0.024101142621776296,-0.11518236991480166,-0.021886157308246182,-0.0022149853135301142,-0.024101142621776296,-0.11518236991480166,-0.006778760813176632,0.06119343638420105,-0.017322381808599664,0.017118992337135347,0.18191114980591647,0.013620796168003537,0.0034981961691318095,0.017118992337135347,0.18191114980591647,-0.0060133240185678005,-0.15808972716331482,0.023132316355703147,1.570995499603638,-0.0652455721864044,1.5722501880101416,-0.0012546884065036679,1.570995499603638,-0.0652455721864044,1.5795104503631592,0.04615867882966995,-0.008514950759521245,-1.4795255956385052,0.26001847800003486,-1.4845258149467422,0.005000219308237019,-1.4795255956385052,0.26001847800003486,-1.5133308172225952,-0.0076577733270823956,0.03380522158409005,0.2316715535178835,0.007647153408865034,0.07710835873140369,-0.0492180772125721,-0.2799921929836273,7.450580596923828e-09,0.03877135366201401,-0.27999165654182434,1.1175870895385742e-08,0.1267659068107605,-0.2799922525882721,0.0,,120.0,418.08333333328176,,
1777000002.8038034,418116688473,-0.014514103314496258,-0.08532438513751872,-0.012858172896922407,-0.0016559304175738504,-0.014514103314496258,-0.08532438513751872,-0.0007504851091653109,-0.10896837711334229,-0.013763618205330947,-0.03473101117357051,-0.15061396981664393,-0.03180797512087634,-0.0029230360526941723,-0.03473101117357051,-0.15061396981664393,-0.008140722289681435,0.0017108768224716187,-0.026590288883889077,0.03390707902065265,0.2378693930889383,0.029290635986331852,0.004616443034320801,0.03390707902065265,0.2378693930889383,-0.003911313600838184,-0.07388190180063248,0.03781839262149084,1.5649741626886127,-0.08531596152451047,1.5666299296251724,-0.0016557669365597771,1.5649741626886127,-0.08531596152451047,1.5787605047225952,0.013460654765367508,-0.013786342033982546,-1.4555291954583194,0.34000355459114034,-1.4621278041353498,0.0065986086770304375,-1.4555291954583194,0.34000355459114034,-1.5103291273117065,0.09002586454153061,0.05479993185338716,0.23149358249458116,0.0078044466372002765,0.07704968610729752,-0.0492180772125721,-0.2799921929836273,7.450580596923828e-09,0.03877135366201401,-0.27999165654182434,1.1175870895385742e-08,0.1267659068107605,-0.2799922525882721,0.0,,120.0,418.0999999999484,,
1777000002.8750913,418133355140,-0.02214320127662978,-0.1054007238306764,-0.02008547947953883,-0.0020577217970909507,-0.02008547947953883,-0.10038195079482745,-0.0029590544290840626,-0.32051849365234375,-0.019184146847545717,-0.04819783813452735,-0.1860525735063927,-0.04456556292810657,-0.0036322752064207806,-0.04456556292810657,-0.1771934726840469,-0.01203053817152977,-0.09577944874763489,-0.03616729996299758,0.05517566360106221,0.29383869767510723,0.04943909680094969,0.005736566800112516,0.04943909680094969,0.27984724031899005,0.002237013541162014,0.04833292216062546,0.05293865005990019,1.5573458179058755,-0.10539031818980416,1.559403336555272,-0.002057518649396517,1.559403336555272,-0.10037204063015615,1.5765728950500488,-0.030773397535085678,-0.019227077144173377,-1.4251285026051717,0.4200044418855189,-1.4333281834378315,0.008199680832659872,-1.4333281834378315,0.40000546188555275,-1.5015732049942017,0.24878226220607758,0.07644470238903,0.23096519856072414,0.0082711681317475,0.07685890143535348,-0.0492180772125721,-0.2799921929836273,7.450580596923828e-09,0.03877135366201401,-0.27999165654182434,1.1175870895385742e-08,0.1267659068107605,-0.2799922525882721,0.0,,120.0,418.11666666661506,,
1777000002.953754,418150021808,-0.03137794659255244,-0.1254761253972497,-0.02891483901116384,-0.002463107581388603,-0.02891483901116384,-0.12044923081961652,-0.006782230921089649,-0.5006927251815796,-0.024595715671462792,-0.06449894185810025,-0.22148952298726668,-0.06015108268137724,-0.004347859176723007,-0.06015108268137724,-0.21261608607979054,-0.018674425780773163,-0.18703889846801758,-0.045824516077327085,0.08092051086939049,0.3498053897170253,0.07405379973454461,0.006866711134845882,0.07405379973454461,0.33579129092947796,0.012789301574230194,0.1670960634946823,0.0681312092951603,1.5481119842861897,-0.12546373782104545,1.5505748486983484,-0.002462864412158705,1.5505748486983484,-0.12043733952137572,1.5728141069412231,-0.07440374046564102,-0.024702122655033465,-1.3883295707629204,0.5000015948855489,-1.398144646859429,0.009815076096508557,-1.398144646859429,0.4799702518855642,-1.4865397214889526,0.4218268096446991,0.09821015072603223,0.23005682115986972,0.009034387698371758,0.0765153550722968,-0.0492180772125721,-0.2799921929836273,7.450580596923828e-09,0.03877135366201401,-0.27999165654182434,1.1175870895385742e-08,0.1267659068107605,-0.2799922525882721,0.0,,120.0,418.1333333332817,,
1777000003.0247104,418166688475,-0.04221971120836045,-0.14555332424594475,-0.039359049466146295,-0.0028606617422141517,-0.039359049466146295,-0.14053467859543825,-0.012198522686958313,-0.6759805083274841,-0.030021188521402134,-0.0836367440933307,-0.25692964501717025,-0.07858712526978973,-0.005049618823540977,-0.07858712526978973,-0.24807076905448283,-0.028144601732492447,-0.27724555134773254,-0.055492142360838256,0.11114544557028376,0.4057770922656897,0.10317042329082039,0.007975022279463367,0.10317042329082039,0.3917859900375246,0.0278004240244627,0.28039103746414185,0.08334502154582106,1.537271290018903,-0.145538954557017,1.5401316693435243,-0.002860379324621354,1.5401316693435243,-0.1405208043701015,1.567456841468811,-0.11550977826118469,-0.030185551449908088,-1.3451269329534126,0.5800059097574222,-1.3565261965902744,0.011399263636861834,-1.3565261965902744,0.5600074373669508,-1.4651354551315308,0.5965997576713562,0.1200085221781182,0.2287589847015625,0.010083610343706589,0.07601770713092561,-0.0492180772125721,-0.2799921929836273,7.450580596923828e-09,0.03877135366201401,-0.27999165654182434,1.1175870895385742e-08,0.1267659068107605,-0.2799922525882721,0.0,,120.0,418.14999999994836,,
1777000003.0958116,418183355143,-0.04824260998940639,-0.15559138715029508,-0.045180856710344615,-0.003061753279061774,-0.04824260998940639,-0.15559138715029508,-0.01766880415380001,-0.5923641324043274,-0.03057380583560638,-0.09426832021022993,-0.2746487589710136,-0.0888637361020012,-0.0054045841082287355,-0.09426832021022993,-0.2746487589710136,-0.037572115659713745,-0.2759215533733368,-0.05669620455051619,0.12793622906523025,0.43376144781654546,0.11940059891559976,0.008535630149630491,0.12793622906523025,0.43376144781654546,0.04279199615120888,0.29101014137268066,0.08514423291402137,1.5312489858459346,-0.15557602645789975,1.5343104368547282,-0.0030614510087936253,1.5312489858459346,-0.15557602645789975,1.5620932579040527,-0.122588612139225,-0.030844272058118127,-1.3211266780298319,0.6200059292499297,-1.333327258162748,0.012200580132916139,-1.3211266780298319,0.6200059292499297,-1.4437365531921387,0.6212858557701111,0.12260987516230681,0.22746057810293466,0.011069676545992755,0.07549239614979918,-0.0492180772125721,-0.2799921929836273,7.450580596923828e-09,0.03877135366201401,-0.27999165654182434,1.1175870895385742e-08,0.1267659068107605,-0.2799922525882721,0.0,,120.0,418.166666666615,,
1777000003.1737719,418200021810,-0.06505589806959455,-0.18068564488758107,-0.06149138503280821,-0.003564513036786343,-0.06149138503280821,-0.17566520278986272,-0.025513265281915665,-1.0946433544158936,-0.03954263278767889,-0.12394701123562239,-0.31894495602327705,-0.11765495934367728,-0.006292051891945108,-0.11765495934367728,-0.31008290898533475,-0.05172371119260788,-0.4331705570220947,-0.07222330004301451,0.17480872190555943,0.5037198289799729,0.16487148589323522,0.009937236012324213,0.16487148589323522,0.48972371857264096,0.06496654450893402,0.46400225162506104,0.10984217739662541,1.5144373576503398,-0.18066780677544417,1.5180015187821188,-0.0035641611317789312,1.5180015187821188,-0.17564786031866395,1.5541623830795288,-0.1806238889694214,-0.03972502542918899,-1.254128507431646,0.7200023935286003,-1.2683325019982707,0.0142039945666248,-1.2683325019982707,0.6999967625932535,-1.4120696783065796,0.8765974640846252,0.15794117087493365,0.22551219144862975,0.0125653227450478,0.07475641488892104,-0.0492180772125721,-0.2799921929836273,7.450580596923828e-09,0.03877135366201401,-0.27999165654182434,1.1175870895385742e-08,0.1267659068107605,-0.2799922525882721,0.0,,120.0,418.18333333328167,,
1777000003.2446883,418216688478,-0.08031349862899767,-0.2007613544841483,-0.0763480994631136,-0.003965399165884065,-0.0763480994631136,-0.19574186763067133,-0.035449154675006866,-1.2549781799316406,-0.044864343953990804,-0.15087961422390786,-0.35438244923640444,-0.14387992111954126,-0.0069996931043666,-0.14387992111954126,-0.34552208838849036,-0.06889913976192474,-0.5125749111175537,-0.08198047446198312,0.21734423129375174,0.559687379755389,0.20628939519473988,0.011054836099011867,0.20628939519473988,0.5456939324011488,0.09217957407236099,0.5998440980911255,0.12516465722139075,1.499181263390952,-0.20074153440626746,1.5031462710745198,-0.003965007683567778,1.5031462710745198,-0.19572254309943207,1.544440746307373,-0.23326286673545837,-0.04525948291642101,-1.1933294941558072,0.8000007739771797,-1.2091309536049477,0.015801459449140465,-1.2091309536049477,0.7799989495320744,-1.3732401132583618,1.0740547180175781,0.17991061910255457,0.22308960369712352,0.014331473047184396,0.07376996730982656,-0.0492180772125721,-0.2799921929836273,7.450580596923828e-09,0.03877135366201401,-0.27999165654182434,1.1175870895385742e-08,0.1267659068107605,-0.2799922525882721,0.0,,120.0,418.1999999999483,,
1777000003.3192306,418233355145,-0.09281462212615217,-0.21582275329525144,-0.08854544943988082,-0.004269172686271347,-0.08854544943988082,-0.21080027362010334,-0.04438477382063866,-0.8993775844573975,-0.048429848305513515,-0.1729465044105757,-0.3809687183583685,-0.1654105925481487,-0.007535911862427025,-0.1654105925481487,-0.37210307460390807,-0.0844874307513237,-0.45953384041786194,-0.08845907365925201,0.2521951669835356,0.6016759131446895,0.24029346368689256,0.011901703296643057,0.24029346368689256,0.5876741223295089,0.1169760450720787,0.5462206602096558,0.1352191219114569,1.4866813740618074,-0.215801446287291,1.490950125275852,-0.004268751214044464,1.490950125275852,-0.21077946245427617,1.5355578660964966,-0.21854951977729797,-0.048876492034689134,-1.1435145858085056,0.8600179557551372,-1.1605265324654457,0.017011946656940058,-1.1605265324654457,0.8400042054109563,-1.3378316164016724,1.0242207050323486,0.19431703059316674,0.22086950687917828,0.01575915040950244,0.07282084197807209,-0.0492180772125721,-0.2799921929836273,7.450580596923828e-09,0.03877135366201401,-0.27999165654182434,1.1175870895385742e-08,0.1267659068107605,-0.2799922525882721,0.0,,120.0,418.21666666661497,,
1777000003.3908846,418250021813,-0.1108982977768533,-0.23591460542513196,-0.10621330679455845,-0.004684990982294843,-0.10621330679455845,-0.2308772250950686,-0.0564563125371933,-1.778942346572876,-0.05444198523966,-0.20486767412353551,-0.4164347062511947,-0.19659776289872752,-0.008269911224807996,-0.19659776289872752,-0.40754275997154266,-0.10623644292354584,-0.645218014717102,-0.09863123119998968,0.3026092771457899,0.6576884664665079,0.2895483455048586,0.013060931640931306,0.2895483455048586,0.6436451352436796,0.15096911787986755,0.7892659902572632,0.15164015926592234,1.4685994837141627,-0.23589131485776013,1.4732840121727495,-0.004684528458586801,1.4732840121727495,-0.23085443184089013,1.5233877897262573,-0.30329787731170654,-0.05478830601209461,-1.0714541309760228,0.9400806615275573,-1.0901230447295802,0.018668913753557392,-1.0901230447295802,0.9200075345394332,-1.2892541885375977,1.3385894298553467,0.21780005756157483,0.2177653151208234,0.017848718191798653,0.07156998576086593,-0.0492180772125721,-0.2799921929836273,7.450580596923828e-09,0.03877135366201401,-0.27999165654182434,1.1175870895385742e-08,0.1267659068107605,-0.2799922525882721,0.0,,120.0,418.2333333332816,,
1777000003.4636886,418266688480,-0.13055818341532416,-0.25597469946954615,-0.12548614490680038,-0.00507203850852378,-0.12548614490680038,-0.2509529484290538,-0.06782947480678558,-1.096693992614746,-0.06272870860853857,-0.2395711579796331,-0.45184463500784405,-0.2306180333412259,-0.008953124638407195,-0.2306180333412259,-0.4429802774338585,-0.12554873526096344,-0.5673975944519043,-0.11402242271866966,0.3574175837920533,0.7136124838263905,0.3432776316575987,0.01413995213445457,0.3432776316575987,0.6996127243166045,0.18186311423778534,0.7186176776885986,0.17555446955426796,1.4489415389893971,-0.2559494284780656,1.4540130767631132,-0.0050715377737160505,1.4540130767631132,-0.25092817320777205,1.5123389959335327,-0.28556177020072937,-0.06339745694413557,-0.993112740186485,1.0200168165849952,-1.0133239742802531,0.020211234093768127,-1.0133239742802531,1.0000059697293482,-1.2451725006103516,1.2784382104873657,0.2520597604238666,0.21491994033678619,0.019504130832435854,0.07027995026006392,-0.0492180772125721,-0.2799921929836273,7.450580596923828e-09,0.03877135366201401,-0.27999165654182434,1.1175870895385742e-08,0.1267659068107605,-0.2799922525882721,0.0,,120.0,418.2499999999483,,
1777000003.5374224,418283355148,-0.14101915289312633,-0.26603273924583365,-0.13572684673120342,-0.005292306161922916,-0.14101915289312633,-0.26603273924583365,-0.08244623243808746,-2.252271890640259,-0.05857292045503887,-0.25803678347043696,-0.46959901198740045,-0.24869484400907887,-0.009341939461358084,-0.25803678347043696,-0.46959901198740045,-0.1520889699459076,-0.7686001658439636,-0.10594781352452937,0.3865809285591582,0.7416525313859921,0.3718269089110999,0.014754019648058336,0.3865809285591582,0.7416525313859921,0.22334587574005127,0.9959689378738403,0.16323505281910694,1.4384816022662814,-0.266006475278743,1.4437733859475679,-0.005291783681286466,1.4384816022662814,-0.266006475278743,1.4974833726882935,-0.3834407925605774,-0.059001770422012045,-0.9514275079848157,1.060096440606255,-0.9725164722256743,0.0210889642408586,-0.9514275079848157,1.060096440606255,-1.1858892440795898,1.6300063133239746,0.23446173609477416,0.21103279504518319,0.021795265503801346,0.06861657306579827,-0.0492180772125721,-0.2799921929836273,7.450580596923828e-09,0.03877135366201401,-0.27999165654182434,1.1175870895385742e-08,0.1267659068107605,-0.2799922525882721,0.0,,120.0,418.2666666666149,,
1777000003.6085124,418300021816,-0.1628155750816323,-0.26904388384955663,-0.15736749749579448,-0.005448077585837818,-0.1628155750816323,-0.26904388384955663,-0.09971621632575989,-2.2368686199188232,-0.06309935875587241,-0.29651166574845694,-0.4749142620384572,-0.28689475972857054,-0.009616906019886406,-0.29651166574845694,-0.4749142620384572,-0.18181806802749634,-0.8327872157096863,-0.1146935977209606,0.44734552368790037,0.7500470734414244,0.4321572406811606,0.015188283006739745,0.44734552368790037,0.7500470734414244,0.27059412002563477,1.1561992168426514,0.1767514036622656,1.4166873319201283,-0.269017322608493,1.4221348716468631,-0.00544753972673484,1.4166873319201283,-0.269017322608493,1.480610966682434,-0.4519123435020447,-0.06392363476230578,-0.8645723726150505,1.0720953535430868,-0.886282060201872,0.021709687586821458,-0.8645723726150505,1.0720953535430868,-1.1184790134429932,1.8604516983032227,0.2539066408279427,0.20653908562458548,0.024162946634967816,0.06652067577964921,-0.0492180772125721,-0.2799921929836273,7.450580596923828e-09,0.03877135366201401,-0.27999165654182434,1.1175870895385742e-08,0.1267659068107605,-0.2799922525882721,0.0,,120.0,418.2833333332816,,
1777000003.6787202,418316688483,-0.18345788084062684,-0.24852453444423528,-0.1784375477232118,-0.005020333117415038,-0.1784375477232118,-0.25354321914540695,-0.11435861140489578,-1.705772876739502,-0.06909926943573105,-0.33294931029192837,-0.43869365913567504,-0.32408745562520924,-0.008861854666719127,-0.32408745562520924,-0.4475526040303057,-0.20752163231372833,-0.7429625391960144,-0.12542767797820004,0.5048926450053822,0.6928427328328511,0.49089683841598636,0.013995806589395865,0.49089683841598636,0.7068339439274102,0.3114420175552368,1.0066943168640137,0.1934506274501454,1.3960470640638407,-0.2484999989670752,1.4010669015510406,-0.0050198374871999185,1.4010669015510406,-0.25351818820076916,1.4659653902053833,-0.4037590026855469,-0.06991832614154259,-0.7823162002241975,0.9903291418737903,-0.8023213968910314,0.02000519666683398,-0.8023213968910314,1.0103277698746889,-1.0601296424865723,1.6792757511138916,0.2778134422623748,0.2026493804711283,0.02588894749679357,0.06461762194907868,-0.0492180772125721,-0.2799921929836273,7.450580596923828e-09,0.03877135366201401,-0.27999165654182434,1.1175870895385742e-08,0.1267659068107605,-0.2799922525882721,0.0,,120.0,418.2999999999482,,
1777000003.7516093,418333355151,-0.19791874739654777,-0.2334662574136791,-0.19319877931268178,-0.0047199680838659885,-0.19791874739654777,-0.2334662574136791,-0.13342083990573883,-2.9699506759643555,-0.06449790749080894,-0.3584755243451051,-0.41211290055751576,-0.3501438718008394,-0.00833165254426571,-0.3584755243451051,-0.41211290055751576,-0.24167500436306,-0.9021345376968384,-0.1168005199820451,0.5452069999890486,0.6508629024191757,0.5320485583348976,0.013158441654151032,0.5452069999890486,0.6508629024191757,0.3647778034210205,1.3237965106964111,0.18042919656802814,1.3815876251507162,-0.23344320855836,1.3863071272577745,-0.004719502107058293,1.3815876251507162,-0.23344320855836,1.446861743927002,-0.5199916958808899,-0.06527411877628575,-0.7246920401021325,0.9303243998746635,-0.7435003318171518,0.0188082917150193,-0.7246920401021325,0.9303243998746635,-0.9838717579841614,2.0985918045043945,0.25917971788202887,0.19746265719824205,0.028293688108257248,0.062136632560002555,-0.0492180772125721,-0.2799921929836273,7.450580596923828e-09,0.03877135366201401,-0.27999165654182434,1.1175870895385742e-08,0.1267659068107605,-0.2799922525882721,0.0,,120.0,418.3166666666149,,
1777000003.8232632,418350021818,-0.2200105077416895,-0.2083712426259185,-0.2157924207926066,-0.004218086949082905,-0.2157924207926066,-0.21339082648564484,-0.15044067800045013,-1.7710773944854736,-0.06956982974123938,-0.397471735339852,-0.36781536716538876,-0.3900259996406232,-0.007445735699228795,-0.3900259996406232,-0.37667589924800554,-0.27092456817626953,-0.7798791527748108,-0.12654716716358244,0.6067949460034932,0.5809024107320647,0.5950356607656608,0.011759285237832318,0.5950356607656608,0.5948961285226749,0.4116326868534088,1.1816588640213013,0.19516225915008434,1.3594980458050565,-0.20835067126517998,1.3637157163253308,-0.00421767052027433,1.3637157163253308,-0.21336975956862686,1.4301034212112427,-0.48706942796707153,-0.07060537540618617,-0.6366600310531623,0.8303249188752161,-0.6534684095014951,0.016808378448332828,-0.6534684095014951,0.8503271298741321,-0.9170265197753906,1.9349148273468018,0.28036648872222836,0.19291894702721146,0.02986205599525968,0.05971819281848521,-0.0492180772125721,-0.2799921929836273,7.450580596923828e-09,0.03877135366201401,-0.27999165654182434,1.1175870895385742e-08,0.1267659068107605,-0.2799922525882721,0.0,,120.0,418.33333333328153,,
1777000003.8942919,418366688486,-0.232061521269847,-0.19331356938420985,-0.2281446151281189,-0.003916906141728099,-0.2281446151281189,-0.1983331607725128,-0.17084892094135284,-3.2282516956329346,-0.061212600328494154,-0.4187440947581415,-0.34123567439079405,-0.41183000117921864,-0.006914093578922864,-0.41183000117921864,-0.3500962197628046,-0.3073997497558594,-0.8758898973464966,-0.11134434500228213,0.6403910541902593,0.5389242635756034,0.6294714081216992,0.010919646068560107,0.6294714081216992,0.5529180023545647,0.4687207341194153,1.4117815494537354,0.17167032007084404,1.3474482220079986,-0.19329448458568319,1.351364741454862,-0.003916519446863331,1.351364741454862,-0.19831358041700303,1.4096513986587524,-0.5664684176445007,-0.06220317665075381,-0.5886387364444107,0.7703225828747332,-0.6042469592173141,0.015608222772903413,-0.6042469592173141,0.7903248238738032,-0.8354029655456543,2.2202653884887695,0.24676422910124363,0.1872827912142874,0.03198366508321587,0.0567768994842327,-0.0492180772125721,-0.2799921929836273,7.450580596923828e-09,0.03877135366201401,-0.27999165654182434,1.1175870895385742e-08,0.1267659068107605,-0.2799922525882721,0.0,,120.0,418.3499999999482,,
1777000003.9648447,418383355153,-0.24672253816860748,-0.17323893673288443,-0.24320747555841987,-0.003515062610187608,-0.24320747555841987,-0.17825809748875338,-0.19090543687343597,-2.343132972717285,-0.055817101295171506,-0.44462361270734574,-0.305800082193396,-0.4384188503405131,-0.00620476236683265,-0.4384188503405131,-0.314659867416237,-0.3422245979309082,-0.8029234409332275,-0.10239901477643754,0.6812633931605795,0.4829597151342865,0.6714640162484887,0.009799376912090763,0.6714640162484887,0.49695225338569315,0.5242917537689209,1.3645844459533691,0.1569716393916586,1.3327886525117898,-0.17322183379379075,1.3363033680989416,-0.0035147155871517732,1.3363033680989416,-0.1782404990351859,1.3897922039031982,-0.5653234124183655,-0.05700355139140845,-0.5302170103286558,0.6903284938747212,-0.544223953128747,0.014006942800091293,-0.544223953128747,0.7103290188748068,-0.7561309337615967,2.1662325859069824,0.22591392343294092,0.18183318771626966,0.033418122433797555,0.053678860887910296,-0.0492180772125721,-0.2799921929836273,7.450580596923828e-09,0.03877135366201401,-0.27999165654182434,1.1175870895385742e-08,0.1267659068107605,-0.2799922525882721,0.0,,120.0,418.36666666661483,,
1777000004.0374339,418400021821,-0.2566645617764515,-0.15818280157274126,-0.2534513148935638,-0.0032132468828877103,-0.2534513148935638,-0.16320090883444244,-0.20580855011940002,-1.602652668952942,-0.0508560116570515,-0.46217319880954594,-0.27922310442894216,-0.45650119931898225,-0.005671999490563684,-0.45650119931898225,-0.2880810300317173,-0.3685797452926636,-0.6500884294509888,-0.09359345351688236,0.708980008028207,0.4409858558789543,0.7000220403306314,0.00895796769757562,0.7000220403306314,0.4549754571737432,0.5658833980560303,1.0190597772598267,0.14309660997217677,1.3228476104259257,-0.1581671850441031,1.3260605400824048,-0.0032129296564791243,1.3260605400824048,-0.163184796895316,1.3748151063919067,-0.43639126420021057,-0.05196749596598105,-0.49059969153933375,0.6303322868747688,-0.5034039486130867,0.012804257073752934,-0.5034039486130867,0.6503286138749418,-0.6966031193733215,1.6945984363555908,0.20600342783398778,0.17779049394640212,0.034336639749326145,0.05131129657312471,-0.0492180772125721,-0.2799921929836273,7.450580596923828e-09,0.03877135366201401,-0.27999165654182434,1.1175870895385742e-08,0.1267659068107605,-0.2799922525882721,0.0,,120.0,418.3833333332815,,
1777000004.1118774,418416688488,-0.26570481913410293,-0.14312395789368412,-0.262792365974659,-0.0029124531594439396,-0.26570481913410293,-0.14312395789368412,-0.22228597104549408,-2.3439972400665283,-0.04341884808860885,-0.4781309938362024,-0.2526413456070633,-0.4729899531883045,-0.005141040647897888,-0.4781309938362024,-0.2526413456070633,-0.3981388807296753,-0.5895026922225952,-0.0799921131065271,0.7341826570430994,0.3990044457488566,0.7260632493928676,0.00811940765023178,0.7341826570430994,0.3990044457488566,0.6119480729103088,1.118276834487915,0.12223458413279054,1.3138082455637716,-0.1431098280428474,1.316720411192537,-0.002912165628765395,1.3138082455637716,-0.1431098280428474,1.3582584857940674,-0.4753338694572449,-0.04445024023029576,-0.4545757620253242,0.570325286875192,-0.4661814058889761,0.011605643863651927,-0.4545757620253242,0.570325286875192,-0.6306394934654236,1.8022536039352417,0.1760637314400994,0.17327282181828832,0.035452753085453294,0.048634665649191916,-0.0492180772125721,-0.2799921929836273,7.450580596923828e-09,0.03877135366201401,-0.27999165654182434,1.1175870895385742e-08,0.1267659068107605,-0.2799922525882721,0.0,,120.0,418.39999999994814,,
1777000004.1845593,418433355156,-0.2763606570775612,-0.12302955478521925,-0.2738400796250215,-0.0025205774525396962,-0.2763606570775612,-0.12302955478521925,-0.23484663665294647,-1.1598217487335205,-0.04151402042461472,-0.4969405996927274,-0.21717085474581696,-0.4924912951270342,-0.004449304565693202,-0.4969405996927274,-0.21717085474581696,-0.4202288091182709,-0.5061928629875183,-0.07671179057445654,0.7638892608513693,0.34298478074697486,0.7568623338140054,0.007026927037363961,0.7638892608513693,0.34298478074697486,0.647061824798584,0.8426275253295898,0.11682743605278534,1.303153459613305,-0.12301740874564258,1.3056737882229261,-0.0025203286096211475,1.303153459613305,-0.12301740874564258,1.3456377983093262,-0.3700176477432251,-0.042484338696021196,-0.41211401123645364,0.49025241587526036,-0.42215809525891124,0.0100440840224576,-0.41211401123645364,0.49025241587526036,-0.5804542899131775,1.434178352355957,0.16834027867672385,0.16989304735199087,0.03587093169501867,0.04650014717248778,-0.0492180772125721,-0.2799921929836273,7.450580596923828e-09,0.03877135366201401,-0.27999165654182434,1.1175870895385742e-08,0.1267659068107605,-0.2799922525882721,0.0,,120.0,418.4166666666148,,
1777000004.2585602,418450021823,-0.28329124627631846,-0.10797123935875529,-0.2810729410533911,-0.0022183052229273748,-0.28329124627631846,-0.10797123935875529,-0.24870263040065765,-1.8571499586105347,-0.03458861587566081,-0.5091744241815981,-0.190590028391482,-0.5052586883066591,-0.003915735874938986,-0.5091744241815981,-0.190590028391482,-0.4448891580104828,-0.4413303732872009,-0.0642852661711153,0.7832105257371351,0.3010048432922264,0.7770262805625201,0.006184245174615022,0.7832105257371351,0.3010048432922264,0.685563325881958,0.9202906489372253,0.09764719985517711,1.2962235546339673,-0.10796057994490271,1.2984416408556718,-0.002218086221704496,1.2962235546339673,-0.10796057994490271,1.331802487373352,-0.40084242820739746,-0.03557893273938473,-0.3844967602103782,0.43024752087480217,-0.3933363394203278,0.0088395792099496,-0.3844967602103782,0.43024752087480217,-0.5253245234489441,1.512537956237793,0.14082776323856588,0.16612533056995912,0.03664428935422493,0.04412468600393625,-0.0492180772125721,-0.2799921929836273,7.450580596923828e-09,0.03877135366201401,-0.27999165654182434,1.1175870895385742e-08,0.1267659068107605,-0.2799922525882721,0.0,,120.0,418.43333333328144,,
1777000004.3329728,418466688491,-0.29112753910550365,-0.08789044559842313,-0.28931082853741497,-0.0018167105680886864,-0.29112753910550365,-0.08789044559842313,-0.26144126057624817,-1.4023340940475464,-0.029686278529255483,-0.5230069899803089,-0.15514356065031154,-0.5198001460021578,-0.003206843978151075,-0.5230069899803089,-0.15514356065031154,-0.4673611521720886,-0.42289048433303833,-0.0556458378082203,0.8050567331998819,0.24502311876164504,0.7999920633572214,0.0050646698426605186,0.8050567331998819,0.24502311876164504,0.7212054133415222,0.8342070579528809,0.0838513198583597,1.288388035439403,-0.08788176865220353,1.2902045666535267,-0.0018165312141236178,1.288388035439403,-0.08788176865220353,1.3190252780914307,-0.36642175912857056,-0.030637242652027608,-0.3532704301003415,0.3502288808750511,-0.36050972106995044,0.007239290969608958,-0.3532704301003415,0.3502288808750511,-0.4744189977645874,1.3922656774520874,0.12114856766424592,0.162694179690158,0.03699269205519816,0.041850330321949014,-0.0492180772125721,-0.2799921929836273,7.450580596923828e-09,0.03877135366201401,-0.27999165654182434,1.1175870895385742e-08,0.1267659068107605,-0.2799922525882721,0.0,,120.0,418.4499999999481,,
1777000004.4057739,418483355158,-0.2973493697202039,-0.06783786254533317,-0.29594220025597945,-0.001407169464224478,-0.2973493697202039,-0.06783786254533317,-0.27273139357566833,-1.1803011894226074,-0.02461797614453559,-0.5339897190898876,-0.11974689023964476,-0.5315057940212214,-0.0024839250686661263,-0.5339897190898876,-0.11974689023964476,-0.4873223602771759,-0.3607563376426697,-0.04666735881271167,0.8224021036919822,0.1891200407257718,0.8184791624848595,0.0039229412071226655,0.8224021036919822,0.1891200407257718,0.7526007890701294,0.7214288115501404,0.0698013146218528,1.2821668190722393,-0.06783116528169135,1.2835738496142672,-0.0014070305420279539,1.2821668190722393,-0.06783116528169135,1.3077367544174194,-0.3208586871623993,-0.02556993534518015,-0.3284774647405265,0.2703226558750239,-0.3340848021854706,0.005607337444944072,-0.3284774647405265,0.2703226558750239,-0.4294920563697815,1.2309167385101318,0.10101459162925497,0.1596815935918374,0.03731727752792517,0.03981775137683222,-0.0492180772125721,-0.2799921929836273,7.450580596923828e-09,0.03877135366201401,-0.27999165654182434,1.1175870895385742e-08,0.1267659068107605,-0.2799922525882721,0.0,,120.0,418.46666666661474,,
1777000004.4795792,418500021826,-0.3019767398076456,-0.047743953811237756,-0.30096769963307796,-0.0010090401745676547,-0.30096769963307796,-0.05278186540842998,-0.2805521488189697,-0.6817069053649902,-0.021424590988675885,-0.5421579183398103,-0.08427727204436797,-0.5403767681310958,-0.0017811502087144993,-0.5403767681310958,-0.09317015611280197,-0.5014266967773438,-0.307285875082016,-0.04073122156246656,0.8353023984028511,0.13310175395277,0.8324893716984694,0.0028130267043817714,0.8324893716984694,0.14714656625500264,0.7746266722679138,0.4850328266620636,0.060675726134937324,1.2775399058199077,-0.04773924031005023,1.2785488463774208,-0.001008940557513105,1.2785488463774208,-0.052776654541598626,1.2997627258300781,-0.21758419275283813,-0.022222820010170397,-0.3100381607173783,0.1902517548751492,-0.3140590188287535,0.004020858111375203,-0.3140590188287535,0.21032699887486192,-0.39789706468582153,0.9009252786636353,0.08785890396844326,0.15762168154976774,0.037411813566329416,0.03838427459697476,-0.0492180772125721,-0.2799921929836273,7.450580596923828e-09,0.03877135366201401,-0.27999165654182434,1.1175870895385742e-08,0.1267659068107605,-0.2799922525882721,0.0,,120.0,418.4833333332814,,
1777000004.5510976,418516688494,-0.3049911344596753,-0.027686670186453658,-0.3043873535238696,-0.0006037809358057089,-0.3043873535238696,-0.03270460378964402,-0.28860196471214294,-0.8775136470794678,-0.01638916974753235,-0.5474789053519581,-0.04887230421953891,-0.5464131157363082,-0.001065789615649848,-0.5464131157363082,-0.05772992328161287,-0.5158370733261108,-0.24343623220920563,-0.03164183202584725,0.8437060010218814,0.07718557154898767,0.8420227658655157,0.0016832351563657033,0.8420227658655157,0.09117468871434456,0.7970662713050842,0.48879456520080566,0.046639729716797196,1.2745258087626863,-0.027683936831915525,1.2751295300904792,-0.000603721327792961,1.2751295300904792,-0.03270137504183487,1.2916737794876099,-0.21493670344352722,-0.017147970724923578,-0.29802629687589,0.11032679887484347,-0.30043226398643386,0.0024059671105438607,-0.30043226398643386,0.13032243387460554,-0.3657298684120178,0.8853625655174255,0.06770357153612783,0.15548879087147266,0.03763282381815307,0.03688969604128736,-0.0492180772125721,-0.2799921929836273,7.450580596923828e-09,0.03877135366201401,-0.27999165654182434,1.1175870895385742e-08,0.1267659068107605,-0.2799922525882721,0.0,,120.0,418.49999999994805,,
1777000004.6283205,418533355161,-0.3062006875918211,-0.012628280980347868,-0.30589817302093775,-0.0003025145708833721,-0.3062006875918211,-0.012628280980347868,-0.2941354811191559,-0.3660999536514282,-0.012065206472665235,-0.5496139995415389,-0.02229134762993349,-0.5490800030717761,-0.0005339964697628208,-0.5496139995415389,-0.02229134762993349,-0.5257912874221802,-0.23171782493591309,-0.023822712119358713,0.8470780226190916,0.0352054284096028,0.8462346651514626,0.0008433574676289801,0.8470780226190916,0.0352054284096028,0.8126758337020874,0.3050788938999176,0.034402188917004195,1.2733163750431504,-0.012627034258760161,1.2736188597484133,-0.0003024847052628399,1.2733163750431504,-0.012627034258760161,1.286034107208252,-0.13468345999717712,-0.012717732165101525,-0.2932064278111011,0.050321609874756104,-0.2944118983134689,0.0012054705023678003,-0.2932064278111011,0.050321609874756104,-0.34336453676223755,0.638340175151825,0.050158108951136426,0.1540476068840899,0.037618116787958074,0.035849951845728686,-0.0492180772125721,-0.2799921929836273,7.450580596923828e-09,0.03877135366201401,-0.27999165654182434,1.1175870895385742e-08,0.1267659068107605,-0.2799922525882721,0.0,,120.0,418.5166666666147,,
1777000004.6985898,418550021829,-0.30651842530626244,-7.681566083466797e-18,-0.30651842530626244,0.0,-0.30651842530626244,-7.681566083466797e-18,-0.29949766397476196,-0.46042513847351074,-0.00702076133150048,-0.5501748677910473,-1.3559443298362478e-17,-0.5501748677910473,0.0,-0.5501748677910473,-1.3559443298362478e-17,-0.5353607535362244,-0.18990373611450195,-0.01481411425482293,0.8479638195360432,2.141485648331219e-17,0.8479638195360432,0.0,0.8479638195360432,2.141485648331219e-17,0.827555775642395,0.2775512635707855,0.020408043893648142,1.2729986686972272,-7.680807724177911e-18,1.2729986686972272,0.0,1.2729986686972272,-7.680807724177911e-18,1.2806673049926758,-0.11964103579521179,-0.007668636295448561,-0.2919402956009062,3.0609769633804165e-17,-0.2919402956009062,0.0,-0.2919402956009062,3.0609769633804165e-17,-0.32202452421188354,0.5877380967140198,0.03008422861097737,0.15264450216046113,0.037734589740364304,0.03484369460199001,-0.0492180772125721,-0.2799921929836273,7.450580596923828e-09,0.03877135366201401,-0.27999165654182434,1.1175870895385742e-08,0.1267659068107605,-0.2799922525882721,0.0,,120.0,418.53333333328135,,
1777000004.7722056,418566688496,-0.30651842530626244,-7.681566083466797e-18,-0.30651842530626244,0.0,-0.30651842530626244,-7.681566083466797e-18,-0.30344051122665405,-0.2692725658416748,-0.0030779140796083904,-0.5501748677910473,-1.3559443298362478e-17,-0.5501748677910473,0.0,-0.5501748677910473,-1.3559443298362478e-17,-0.5424797534942627,-0.1637980192899704,-0.0076951142967846,0.8479638195360432,2.141485648331219e-17,0.8479638195360432,0.0,0.8479638195360432,2.141485648331219e-17,0.8387110233306885,0.17134436964988708,0.009252796205354685,1.2729986686972272,-7.680807724177911e-18,1.2729986686972272,0.0,1.2729986686972272,-7.680807724177911e-18,1.276642918586731,-0.07562117278575897,-0.0036442498895037367,-0.2919402956009062,3.0609769633804165e-17,-0.2919402956009062,0.0,-0.2919402956009062,3.0609769633804165e-17,-0.306048721075058,0.43323415517807007,0.014108425474151809,0.15161433373422492,0.037735289789366515,0.03408682007081798,-0.0492180772125721,-0.2799921929836273,7.450580596923828e-09,0.03877135366201401,-0.27999165654182434,1.1175870895385742e-08,0.1267659068107605,-0.2799922525882721,0.0,,120.0,418.549999999948,,
1777000004.8465388,418583355164,-0.30651842530626244,-7.681566083466797e-18,-0.30651842530626244,0.0,-0.30651842530626244,-7.681566083466797e-18,-0.30584871768951416,-0.09876415133476257,-0.0006697076167482829,-0.5501748677910473,-1.3559443298362478e-17,-0.5501748677910473,0.0,-0.5501748677910473,-1.3559443298362478e-17,-0.5468984246253967,-0.10695118457078934,-0.0032764431656505666,0.8479638195360432,2.141485648331219e-17,0.8479638195360432,0.0,0.8479638195360432,2.141485648331219e-17,0.8455056548118591,0.05352205038070679,0.002458164724184031,1.2729986686972272,-7.680807724177911e-18,1.2729986686972272,0.0,1.2729986686972272,-7.680807724177911e-18,1.274167776107788,-0.028525587171316147,-0.0011691074105608656,-0.2919402956009062,3.0609769633804165e-17,-0.2919402956009062,0.0,-0.2919402956009062,3.0609769633804165e-17,-0.2962701618671417,0.2616298794746399,0.004329866266235549,0.1510001066514771,0.03772914028583536,0.03363247837099087,-0.0492180772125721,-0.2799921929836273,7.450580596923828e-09,0.03877135366201401,-0.27999165654182434,1.1175870895385742e-08,0.1267659068107605,-0.2799922525882721,0.0,,120.0,418.56666666661465,,
1777000004.9162817,418600021831,-0.30651842530626244,-7.681566083466797e-18,-0.30651842530626244,0.0,-0.30651842530626244,-7.681566083466797e-18,-0.3066624104976654,-0.030928105115890503,0.00014398519140296218,-0.5501748677910473,-1.3559443298362478e-17,-0.5501748677910473,0.0,-0.5501748677910473,-1.3559443298362478e-17,-0.5485590100288391,-0.022220395505428314,-0.0016158577622081838,0.8479638195360432,2.141485648331219e-17,0.8479638195360432,0.0,0.8479638195360432,2.141485648331219e-17,0.8479087948799133,-0.05801459774374962,5.502465612983176e-05,1.2729986686972272,-7.680807724177911e-18,1.2729986686972272,0.0,1.2729986686972272,-7.680807724177911e-18,1.2732611894607544,0.011531339958310127,-0.00026252076352717424,-0.2919402956009062,3.0609769633804165e-17,-0.2919402956009062,0.0,-0.2919402956009062,3.0609769633804165e-17,-0.2927563190460205,0.08629491925239563,0.0008160234451143333,0.1507994752054553,0.03771647625361661,0.033483830617246996,-0.0492180772125721,-0.2799921929836273,7.450580596923828e-09,0.03877135366201401,-0.27999165654182434,1.1175870895385742e-08,0.1267659068107605,-0.2799922525882721,0.0,,120.0,418.5833333332813,,
1777000004.9857967,418616688499,-0.30651842530626244,-7.681566083466797e-18,-0.30651842530626244,0.0,-0.30651842530626244,-7.681566083466797e-18,-0.3067721426486969,0.03549966216087341,0.0002537173424344563,-0.5501748677910473,-1.3559443298362478e-17,-0.5501748677910473,0.0,-0.5501748677910473,-1.3559443298362478e-17,-0.5489457845687866,-0.0016678199172019958,-0.001229083222260674,0.8479638195360432,2.141485648331219e-17,0.8479638195360432,0.0,0.8479638195360432,2.141485648331219e-17,0.8483241200447083,-0.10591855645179749,-0.0003603005086650901,1.2729986686972272,-7.680807724177911e-18,1.2729986686972272,0.0,1.2729986686972272,-7.680807724177911e-18,1.2730761766433716,0.033998727798461914,-7.750794614436174e-05,-0.2919402956009062,3.0609769633804165e-17,-0.2919402956009062,0.0,-0.2919402956009062,3.0609769633804165e-17,-0.29209548234939575,0.017637278884649277,0.00015518674848957748,0.15077828045016703,0.03771429342194694,0.03346696876462932,-0.0492180772125721,-0.2799921929836273,7.450580596923828e-09,0.03877135366201401,-0.27999165654182434,1.1175870895385742e-08,0.1267659068107605,-0.2799922525882721,0.0,,120.0,418.59999999994795,,
1777000005.058627,418633355166,-0.30651842530626244,-7.681566083466797e-18,-0.30651842530626244,0.0,-0.30651842530626244,-7.681566083466797e-18,-0.3067810535430908,0.020553739741444588,0.0002626282368283772,-0.5501748677910473,-1.3559443298362478e-17,-0.5501748677910473,0.0,-0.5501748677910473,-1.3559443298362478e-17,-0.5490429401397705,0.017498679459095,-0.0011319276512767873,0.8479638195360432,2.141485648331219e-17,0.8479638195360432,0.0,0.8479638195360432,2.141485648331219e-17,0.8483923673629761,-0.11380775272846222,-0.0004285478269329124,1.2729986686972272,-7.680807724177911e-18,1.2729986686972272,0.0,1.2729986686972272,-7.680807724177911e-18,1.273037314414978,0.03571617975831032,-3.864571775080705e-05,-0.2919402956009062,3.0609769633804165e-17,-0.2919402956009062,0.0,-0.2919402956009062,3.0609769633804165e-17,-0.29196956753730774,0.004304422996938229,2.927193640156478e-05,0.15077922849205064,0.03771402473757372,0.0334664724840765,-0.0492180772125721,-0.2799921929836273,7.450580596923828e-09,0.03877135366201401,-0.27999165654182434,1.1175870895385742e-08,0.1267659068107605,-0.2799922525882721,0.0,,120.0,418.6166666666146,,
1777000005.1281376,418650021834,-0.30651842530626244,-7.681566083466797e-18,-0.30651842530626244,0.0,-0.30651842530626244,-7.681566083466797e-18,-0.30678194761276245,0.014669261872768402,0.0002635223065000081,-0.5501748677910473,-1.3559443298362478e-17,-0.5501748677910473,0.0,-0.5501748677910473,-1.3559443298362478e-17,-0.5490624308586121,0.01996840536594391,-0.0011124369324352346,0.8479638195360432,2.141485648331219e-17,0.8479638195360432,0.0,0.8479638195360432,2.141485648331219e-17,0.8484048247337341,-0.11579610407352448,-0.000441005197690969,1.2729986686972272,-7.680807724177911e-18,1.2729986686972272,0.0,1.2729986686972272,-7.680807724177911e-18,1.2730295658111572,0.03639083728194237,-3.089711393000627e-05,-0.2919402956009062,3.0609769633804165e-17,-0.2919402956009062,0.0,-0.2919402956009062,3.0609769633804165e-17,-0.29194557666778564,0.001234960975125432,5.281066879470053e-06,0.15077959850672654,0.0377136936781935,0.033466513148296115,-0.0492180772125721,-0.2799921929836273,7.450580596923828e-09,0.03877135366201401,-0.27999165654182434,1.1175870895385742e-08,0.1267659068107605,-0.2799922525882721,0.0,,120.0,418.63333333328126,,
